ncols         65
nrows         65
xllcorner     -812.5
yllcorner     -812.5
cellsize      25
NODATA_value  -9999
0.77371887 1.4173898 1.8190258 2.086261 2.2787428 2.4316515 2.5669496 2.6990177 2.8376312 2.9895936 3.1596387 3.350905 3.5651367 3.8027019 4.0624871 4.3417157 4.6357396 4.9378586 5.2392316 5.5289472 5.7943187 6.0214474 6.1960557 6.3045367 6.3350953 6.2788037 6.1303729 5.8884766 5.5555488 5.1370927 4.6406406 4.0745717 3.4469945 2.7648576 2.0333767 1.2557922 0.43342061 -0.43405775 -1.3481153 -2.3106814 -3.3231238 -4.3846481 -5.4896477 -6.6233006 -7.7546719 -8.8275721 -9.7532802 -10.416908 -10.711908 -10.594295 -10.111041 -9.3716743 -8.494043 -7.5697808 -6.657895 -5.7919661 -4.9891762 -4.2570486 -3.5976438 -3.0099536 -2.4912034 -2.0375519 -1.6444811 -1.3070426 -1.0200433
-0.26395333 0.83380438 1.4874521 1.9014627 2.1836634 2.3939752 2.567923 2.7278702 2.8886334 3.0604264 3.2504468 3.4637155 3.7034687 3.9712584 4.2668547 4.5880193 4.9302119 5.2863037 5.6463816 5.9977443 6.3251889 6.6116691 6.8393522 6.9910213 7.0516576 7.0099467 6.8594042 6.5988602 6.2321719 5.767217 5.2143921 4.5849322 3.8893682 3.1363501 2.3319433 1.4793848 0.57920739 -0.37039184 -1.3730426 -2.4335875 -3.5572791 -4.7485119 -6.0084723 -7.330494 -8.6909715 -10.033023 -11.243531 -12.142075 -12.530474 -12.317922 -11.598627 -10.574185 -9.4284441 -8.2779508 -7.1829824 -6.1704335 -5.2500362 -4.4232721 -3.6877737 -3.0393578 -2.4729074 -1.9827362 -1.562754 -1.2065845 -0.90769589
-2.1315051 -0.20595136 0.90085457 1.5659846 1.994163 2.2935412 2.5244542 2.7229197 2.9118551 3.1066611 3.3181177 3.5539003 3.8193233 4.1176087 4.4498388 4.8146952 5.2080708 5.6226462 6.0475448 6.4682027 6.8666039 7.2220154 7.5122966 7.7157414 7.8132482 7.7904543 7.6393737 7.359126 6.9555379 6.4396947 5.8257897 5.1287636 4.3622057 3.5368413 2.6597243 1.7340787 0.75960791 -0.26694689 -1.3511971 -2.5005619 -3.7237808 -5.0302868 -6.4288944 -7.9244971 -9.5096573 -11.144006 -12.709424 -13.946068 -14.481879 -14.117645 -13.056378 -11.673973 -10.234167 -8.859036 -7.5929573 -6.447365 -5.4212381 -4.5093252 -3.7051728 -3.0020581 -2.3931299 -1.8713144 -1.4292271 -1.0591807 -0.75329969
-5.2709553 -2.0770096 -0.14409338 0.97310132 1.6512427 2.0954701 2.414409 2.668972 2.8958461 3.1186817 3.3536294 3.6121596 3.9024699 4.2300825 4.5979299 5.0060976 5.4513442 5.9265204 6.4200301 6.9155174 7.3919908 7.8245961 8.1861834 8.4496668 8.5909378 8.5918375 8.4425104 8.1424957 7.7001963 7.1308318 6.4534077 5.687452 4.8502155 3.954783 3.0092293 2.0166855 0.97601807 -0.11723293 -1.2699666 -2.4908903 -3.790212 -5.1795561 -6.6717653 -8.2797057 -10.011592 -11.855195 -13.727272 -15.337074 -16.066576 -15.501219 -14.059718 -12.364311 -10.710075 -9.1847223 -7.805106 -6.5677483 -5.4645352 -4.4872052 -3.6282463 -2.8806587 -2.2374465 -1.6911809 -1.2337733 -0.85648543 -0.55013857
-9.1674907 -5.2241735 -2.0222541 -0.080551333 1.0480553 1.7405394 2.2025365 2.5433141 2.8245479 3.0837897 3.3456117 3.627064 3.9403733 4.2941816 4.6939254 5.1416631 5.6355393 6.1690466 6.7302684 7.3013359 7.858381 8.3722904 8.810502 9.1399121 9.3306468 9.3600675 9.2160617 8.8986469 8.4193126 7.7982204 7.0600547 6.2296281 5.328239 4.371386 3.3679855 2.3208619 1.2280532 0.084414683 -1.1169184 -2.3834724 -3.7228132 -5.1421482 -6.6476272 -8.242245 -9.9198185 -11.648812 -13.331662 -14.722608 -15.348988 -14.875757 -13.642393 -12.126077 -10.577262 -9.0984349 -7.7263291 -6.4725894 -5.3398719 -4.3276943 -3.4342265 -2.6565065 -1.9901457 -1.4290317 -0.96527026 -0.58943797 -0.2910859
-11.84683 -9.1300402 -5.1765082 -1.9703493 -0.018713056 1.1218129 1.8293875 2.3102604 2.6745107 2.9847626 3.2796139 3.5846983 3.9180108 4.2924138 4.7166227 5.1952813 5.7284603 6.3108123 6.930622 7.5690359 8.1998272 8.7900886 9.3021949 9.6971865 9.9393611 10.001359 9.8685301 9.5412076 9.0340003 8.372197 7.5863699 6.706708 5.7584322 4.7590983 3.7179775 2.6371929 1.5139765 0.34332205 -0.87955331 -2.15719 -3.4880815 -4.8642152 -6.2660613 -7.6509563 -8.9259179 -9.8887694 -10.153592 -9.426725 -8.7779175 -9.5649695 -10.434677 -10.322002 -9.525549 -8.4365065 -7.2627197 -6.103268 -5.0072998 -4.0010703 -3.0992585 -2.3094648 -1.6338895 -1.0700456 -0.61138701 -0.24818722 0.031338475
-12.156976 -11.815534 -9.0972057 -5.1361453 -1.9245417 0.036065392 1.1880154 1.9101653 2.4095616 2.7972248 3.1368503 3.4681488 3.8177614 4.2043638 4.6408818 5.1351335 5.6895467 6.3003459 6.9565346 7.6390242 8.3203219 8.9652195 9.5328628 9.9803752 10.267879 10.364271 10.252474 9.9324564 9.4207334 8.7462818 7.944164 7.0487312 6.0880917 5.0809305 4.0360487 2.9543204 1.83227 0.66627838 -0.54337287 -1.7887889 -3.0502094 -4.2887523 -5.4308175 -6.3327997 -6.705624 -6.0087762 -3.7173114 -0.80010628 0.40624965 -0.9192873 -3.9602798 -6.3848882 -7.2292693 -7.0238131 -6.3149975 -5.398447 -4.4249014 -3.4755687 -2.5971313 -1.8168171 -1.1488031 -0.5972192 -0.15820363 0.17801031 0.42484671
-10.0379 -12.13736 -11.79458 -9.0704115 -5.1107589 -1.8912734 0.075427499 1.2362378 1.969973 2.4845237 2.8918412 3.2565907 3.6193167 4.0070948 4.4382956 4.9244204 5.4703947 6.0740665 6.7254227 7.4059719 8.0887343 8.7392339 9.317721 9.7825898 10.094793 10.222985 10.14867 9.8697654 9.400919 8.7700758 8.0123032 7.1626219 6.2496613 5.2916954 4.2960149 3.2616857 2.184851 1.0652242 -0.08739418 -1.2465966 -2.3606484 -3.33573 -3.9988713 -4.019338 -2.8010134 0.25021361 4.1978399 6.7821768 7.5133705 6.6863329 4.001723 -0.055197279 -3.2296533 -4.5905309 -4.7379402 -4.2747061 -3.5390153 -2.7119559 -1.8958712 -1.1508925 -0.51078431 0.0097241534 0.41031408 0.70083557 0.89708878
-6.3404702 -10.028191 -12.129545 -11.787473 -9.0613246 -5.1037543 -1.8820345 0.086121145 1.2494561 1.9871546 2.5076426 2.9234066 3.2994062 3.6759068 4.0787115 4.5235011 5.0173874 5.55924 6.1397163 6.7416259 7.3410493 7.9093609 8.4158766 8.8303793 9.1249504 9.2756472 9.2651095 9.0858735 8.7427021 8.2524219 7.6407779 6.936681 6.1653144 5.3425813 4.473316 3.5544194 2.582384 1.5633531 0.52377392 -0.47817645 -1.3353606 -1.8557306 -1.6854305 -0.20499313 3.2053829 7.5926189 10.694831 12.057954 12.380234 11.989664 10.554215 7.3714397 2.8908588 -0.63068588 -2.2458083 -2.5807679 -2.2623079 -1.6523118 -0.95134767 -0.27500419 0.31114802 0.77585532 1.1128528 1.3326882 1.4549755
-3.0695952 -6.3413017 -10.036931 -12.138616 -11.800168 -9.0819508 -5.1250124 -1.9131989 0.046983158 1.2000442 1.9256954 2.4320218 2.8307732 3.1852803 3.5327359 3.8939386 4.2774908 4.6818988 5.0974295 5.5087274 5.8984918 6.2517315 6.5592236 6.8180616 7.0278897 7.1846442 7.2765006 7.2852812 7.1926194 6.9875679 6.6714136 6.2564345 5.7588846 5.1903346 4.552692 3.840604 3.0519708 2.2042116 1.3526857 0.61161929 0.18871921 0.45748606 2.0571467 5.6162286 10.191567 13.49407 15.056091 15.614762 15.728743 15.57798 14.97912 13.36994 10.009418 5.3608397 1.7083175 -0.010682384 -0.43114199 -0.19940338 0.30356955 0.86290881 1.3586565 1.7328658 1.970952 2.0857745 2.1032467
-1.0988829 -3.0857524 -6.3605814 -10.064835 -12.17296 -11.843962 -9.1404732 -5.1976215 -2.0084853 -0.075336292 1.0435769 1.726454 2.1790471 2.5093972 2.7750264 3.0046361 3.2079691 3.3814745 3.5136919 3.592105 3.6114074 3.5813251 3.5306546 3.5036805 3.5470806 3.6911113 3.9345554 4.242098 4.5560836 4.8171085 4.9828879 5.0357446 4.9765096 4.8108984 4.5381109 4.1502612 3.6471854 3.0648044 2.5099169 2.2008603 2.5343914 4.1764782 7.7691128 12.395349 15.741311 17.341425 17.918359 18.062671 18.079455 18.060862 17.9122 17.3257 15.707863 12.332692 7.6619392 4.0051099 2.2742612 1.8221815 1.9778007 2.3402203 2.6893014 2.9207766 3.0080445 2.9696568 2.8416759
-0.054111776 -1.12626 -3.1193342 -6.4062994 -10.116886 -12.242929 -11.934118 -9.2539507 -5.3513634 -2.2054033 -0.33249365 0.70978349 1.2944047 1.620727 1.7875083 1.8394927 1.7896994 1.6322754 1.3542238 0.94923921 0.43275105 -0.14626321 -0.70297031 -1.1286377 -1.3165072 -1.1942573 -0.7503108 -0.041270003 0.82519221 1.7256336 2.5575751 3.2603186 3.8127011 4.2138562 4.4613974 4.5435492 4.4598412 4.2748994 4.1907821 4.6253456 6.2849976 9.8552397 14.435993 17.735333 19.27933 19.785166 19.84113 19.774552 19.747909 19.810459 19.911484 19.886954 19.407821 17.883835 14.59558 10.014508 6.4299736 4.7397458 4.256957 4.2759346 4.3834293 4.3882367 4.2454249 3.9856704 3.6600303
0.47849541 -0.092270988 -1.1729449 -3.1763933 -6.479757 -10.207413 -12.361352 -12.089216 -9.4561363 -5.6217064 -2.5614069 -0.8027132 0.091072247 0.48331064 0.56051229 0.40476406 0.041744479 -0.53168706 -1.3247529 -2.3287276 -3.4940649 -4.7169571 -5.8443342 -6.699807 -7.1228393 -7.0085269 -6.3370897 -5.1832575 -3.6980828 -2.0660235 -0.45357958 1.0281235 2.3310463 3.4487203 4.3811851 5.1116019 5.6311354 6.0465572 6.740543 8.4666926 11.995522 16.471526 19.657869 21.077398 21.452421 21.365832 21.145139 20.967955 20.924694 21.04338 21.29578 21.591247 21.751888 21.449884 20.102054 16.985986 12.579217 9.1200475 7.4675191 6.8582936 6.5518415 6.1872276 5.6906273 5.1154566 4.5298826
0.73062379 0.43069502 -0.14952433 -1.242567 -3.2634513 -6.5863949 -10.350934 -12.546206 -12.335035 -9.7890658 -6.0631212 -3.1575728 -1.5987522 -0.9665072 -0.9121101 -1.2671575 -1.9674463 -2.9966957 -4.345019 -5.9718198 -7.7772283 -9.5937804 -11.206053 -12.392264 -12.969531 -12.827485 -11.947797 -10.410458 -8.3816142 -6.0777288 -3.7114607 -1.4393256 0.66363378 2.590205 4.3567149 5.9527964 7.3511303 8.7122121 10.71397 14.242531 18.596974 21.6137 22.856552 23.054065 22.787042 22.378854 22.00713 21.772085 21.726594 21.887702 22.239519 22.730371 23.261352 23.65635 23.593888 22.495727 19.637074 15.45983 12.136676 10.382934 9.334873 8.3479532 7.3080569 6.3001043 5.393567
0.8231268 0.67453482 0.36480408 -0.22836561 -1.3389847 -3.3850249 -6.7408092 -10.557111 -12.820807 -12.707032 -10.298668 -6.7554016 -4.0991957 -2.8657026 -2.6516204 -3.1224462 -4.1178763 -5.5643781 -7.4030443 -9.5374962 -11.805965 -13.987133 -15.837002 -17.136624 -17.726899 -17.522024 -16.511336 -14.760884 -12.412769 -9.6688531 -6.7492106 -3.8345512 -1.0198713 1.6955425 4.3752012 7.0751732 9.7845325 12.678724 16.47093 20.762555 23.596608 24.639096 24.63564 24.169067 23.558302 22.977166 22.526005 22.264426 22.225206 22.419653 22.839009 23.453168 24.205459 24.99893 25.663888 25.886705 25.091685 22.543225 18.5898 15.209605 12.832007 10.786891 8.9548611 7.4108172 6.1551173
0.82139146 0.76005629 0.60199994 0.27979116 -0.33047375 -1.4652215 -3.5451472 -6.9544427 -10.838381 -13.209682 -13.245033 -11.041172 -7.7856553 -5.4995094 -4.7414964 -5.1075087 -6.2506312 -7.9688646 -10.106868 -12.487049 -14.888769 -17.071304 -18.817766 -19.968637 -20.428521 -20.153419 -19.137526 -17.413582 -15.065229 -12.234233 -9.1024306 -5.8431578 -2.5601412 0.75645635 4.2400017 8.1193036 12.603062 17.605175 22.333588 25.232984 26.203288 26.074509 25.45486 24.67079 23.898322 23.239376 22.756941 22.490624 22.463275 22.683568 23.146717 23.833949 24.710146 25.717483 26.76026 27.670252 28.131171 27.548482 25.111022 20.945113 16.64224 13.042326 10.289516 8.2342119 6.6869105
0.76257052 0.75237127 0.68251901 0.51339733 0.17609856 -0.45555607 -1.6215466 -3.7470493 -7.2268781 -11.210026 -13.73134 -13.979783 -12.068304 -9.2055508 -7.4082984 -7.2252902 -8.2060983 -9.9214528 -12.051958 -14.316673 -16.455573 -18.2562 -19.581859 -20.371065 -20.609287 -20.294739 -19.418251 -17.966097 -15.943334 -13.402287 -10.451853 -7.2294007 -3.8393988 -0.28530125 3.5815852 8.0942005 13.687941 19.95947 24.503354 26.431866 26.746621 26.290472 25.517312 24.664978 23.866858 23.20407 22.728952 22.475556 22.46416 22.70304 23.189001 23.907089 24.829097 25.909374 27.074762 28.20167 29.064702 29.226139 27.864519 24.006608 18.577128 14.027203 10.810203 8.5321231 6.8687997
0.66854436 0.68813541 0.67077655 0.59195543 0.41087369 0.056717271 -0.59972438 -1.8031335 -3.986643 -7.5506704 -11.670965 -14.383436 -14.905306 -13.361266 -10.941118 -9.6393658 -9.9131763 -11.197785 -12.933187 -14.709147 -16.246015 -17.393418 -18.116785 -18.454393 -18.461326 -18.16556 -17.548203 -16.548776 -15.093905 -13.140676 -10.711071 -7.8898694 -4.778193 -1.4255359 2.2220549 6.3252769 11.047028 16.275495 21.206761 24.281839 25.40127 25.397629 24.882341 24.185068 23.484756 22.885857 22.453499 22.229062 22.236853 22.486739 22.974903 23.683366 24.577654 25.600468 26.656539 27.577993 28.048832 27.47476 25.04481 20.885469 16.588357 12.993513 10.245175 8.1938286 6.6500365
0.55241128 0.5885702 0.6024624 0.57847173 0.49131445 0.29886597 -0.071920932 -0.75393211 -1.997611 -4.24566 -7.9078815 -12.182267 -15.111241 -15.921736 -14.72062 -12.63055 -11.547274 -11.790136 -12.690072 -13.668863 -14.414062 -14.828463 -14.954753 -14.893785 -14.736137 -14.520573 -14.218043 -13.73616 -12.945383 -11.726516 -10.021844 -7.8583481 -5.3253293 -2.5231557 0.47390574 3.6011233 6.7644364 10.091596 14.273232 18.903384 22.025817 23.311066 23.510629 23.213315 22.74355 22.279966 21.926991 21.747639 21.777497 22.03018 22.498813 23.154833 23.942823 24.766859 25.458087 25.703571 24.928179 22.396778 18.45823 15.091051 12.724876 10.689814 8.8666576 7.3304671 6.0817343
0.42199592 0.46606063 0.49772053 0.50700297 0.47794675 0.38458167 0.18350229 -0.20061383 -0.90449939 -2.1847293 -4.4920219 -8.2517148 -12.657928 -15.766459 -16.763095 -15.680524 -13.539841 -12.106101 -11.661337 -11.59832 -11.50693 -11.272251 -10.945181 -10.628412 -10.406127 -10.309514 -10.303385 -10.286301 -10.107617 -9.6073981 -8.6710272 -7.2707702 -5.4690616 -3.3876585 -1.1737765 1.0132818 3.0399816 5.0036748 7.5510698 11.557085 16.320716 19.683733 21.217521 21.658544 21.595063 21.357065 21.127856 21.012429 21.067628 21.313775 21.737668 22.289839 22.873185 23.313074 23.289241 22.224446 19.394715 15.24263 11.941436 10.20692 9.1757448 8.2036975 7.1769361 6.1806137 5.2843992
0.28191485 0.32780119 0.36796412 0.39618006 0.40244946 0.37062349 0.27423774 0.068850454 -0.32277485 -1.0405181 -2.3454757 -4.6922413 -8.5098876 -12.973394 -16.107939 -17.020132 -15.644561 -12.939893 -10.682614 -9.2882455 -8.3338309 -7.5670828 -6.9456886 -6.508138 -6.2957504 -6.3180449 -6.53716 -6.8613124 -7.1499025 -7.2383549 -6.9838548 -6.3144037 -5.2534526 -3.9083777 -2.4364763 -1.0059065 0.26108308 1.400083 2.7560063 5.0669799 9.1012832 14.008194 17.558814 19.284858 19.917251 20.046706 20.007548 19.983199 20.068941 20.296847 20.642028 21.016591 21.244909 21.001022 19.703287 16.63055 12.261396 8.8349883 7.2110881 6.6269561 6.3425638 5.9973972 5.5179862 4.958047 4.3860014
0.13488925 0.17799739 0.21974699 0.2564015 0.28181851 0.28599172 0.25259407 0.15469281 -0.053036916 -0.44913325 -1.1747072 -2.4901745 -4.8438953 -8.6386736 -13.017155 -15.920221 -16.398889 -14.373246 -10.865631 -7.8208268 -5.8013989 -4.4813072 -3.6128016 -3.0991293 -2.9052315 -3.0053371 -3.3565157 -3.8833021 -4.4710405 -4.9741256 -5.2463013 -5.1870653 -4.7794267 -4.0947291 -3.2638894 -2.4324085 -1.7084696 -1.1006102 -0.44940915 0.64280848 2.8768575 6.9411069 11.942613 15.59825 17.443064 18.202624 18.47269 18.587044 18.713643 18.906339 19.118237 19.188475 18.790625 17.336598 14.108768 9.5800653 6.0410709 4.3905731 3.9425532 3.9920487 4.1264058 4.1549214 4.033087 3.7919383 3.4828379
-0.017385795 0.01927308 0.057128744 0.093993248 0.12607734 0.14703057 0.14638675 0.10700467 0.00075648049 -0.21898301 -0.63106606 -1.373107 -2.6925525 -5.0085195 -8.6697117 -12.765115 -15.192089 -15.037345 -12.330279 -8.2291445 -4.7969464 -2.6257618 -1.3582373 -0.68245801 -0.43794356 -0.5398935 -0.92792776 -1.5366501 -2.2774209 -3.0319058 -3.6659107 -4.0661551 -4.1816519 -4.0407739 -3.7339165 -3.375575 -3.0615163 -2.8275864 -2.6131734 -2.2247117 -1.274908 0.90237495 4.9546255 9.9728457 13.651811 15.534341 16.350756 16.698346 16.887995 17.016757 16.99406 16.515568 14.990642 11.695657 7.0943355 3.497822 1.8195364 1.4134041 1.6093063 2.0071424 2.3874452 2.6465142 2.7582282 2.7415476 2.6328836
-0.1736761 -0.14643884 -0.11687704 -0.086344849 -0.057397408 -0.034518147 -0.025245301 -0.041889956 -0.10410737 -0.24269456 -0.5053055 -0.96597485 -1.7443897 -3.0493015 -5.241021 -8.6192393 -12.252791 -14.12151 -13.421021 -10.295118 -5.9745439 -2.501869 -0.43568861 0.64018208 1.0829437 1.0853821 0.75281394 0.15816241 -0.62485312 -1.5021804 -2.3579113 -3.076957 -3.5819954 -3.8596045 -3.9586838 -3.9645671 -3.962848 -4.0055725 -4.0858933 -4.1180485 -3.9073059 -3.0827781 -1.001728 2.9710098 7.9001226 11.504468 13.323846 14.102067 14.403613 14.413423 13.952373 12.461793 9.2036449 4.6437007 1.0681522 -0.58379794 -0.94567931 -0.66261678 -0.11455178 0.48450898 1.0153352 1.4205969 1.6862337 1.8255526 1.8648497
-0.33287849 -0.31739397 -0.29951693 -0.28026662 -0.26172462 -0.2476844 -0.24461242 -0.26298554 -0.31896528 -0.43611684 -0.64652327 -0.99074599 -1.5186505 -2.3022833 -3.4882703 -5.3941188 -8.3440961 -11.493168 -12.946976 -11.977031 -8.743042 -4.453452 -1.0973981 0.80163614 1.6899787 1.9425014 1.762159 1.2603923 0.51569767 -0.39119759 -1.3607179 -2.2806857 -3.0541403 -3.6320124 -4.0276325 -4.3026375 -4.5344877 -4.7842854 -5.0752575 -5.3800971 -5.6072654 -5.569697 -4.9119577 -3.009417 0.76450741 5.4639358 8.8339263 10.426764 10.946313 10.725443 9.4362947 6.3799607 2.008949 -1.4173855 -2.9495443 -3.2120114 -2.8300364 -2.1642446 -1.4141416 -0.69441656 -0.069876754 0.42887406 0.79612597 1.0429021 1.1892247
-0.49387615 -0.49183531 -0.48801443 -0.48337175 -0.47990783 -0.48129235 -0.49374839 -0.52716772 -0.59620327 -0.72059367 -0.92325446 -1.2244647 -1.6331398 -2.1453407 -2.7753132 -3.6498034 -5.1406811 -7.6788346 -10.536888 -11.848387 -10.877031 -7.7365216 -3.5798556 -0.38407994 1.3534853 2.0813819 2.1773701 1.8457538 1.2016392 0.33204488 -0.66937646 -1.6921544 -2.6264378 -3.3980868 -3.9941962 -4.457939 -4.8590682 -5.2623077 -5.7073402 -6.1996741 -6.7047733 -7.1355519 -7.3191201 -6.9210199 -5.3395358 -1.9742915 2.2444349 5.062763 5.9960612 5.3438268 2.8106845 -1.114707 -4.1746817 -5.4356727 -5.4957137 -4.9558718 -4.1528453 -3.2664602 -2.3979875 -1.6066458 -0.92542057 -0.36837446 0.064745761 0.38428249 0.60646075
-0.65552733 -0.6680037 -0.67962853 -0.69136312 -0.70518677 -0.72467983 -0.75579628 -0.80771947 -0.89339526 -1.0287387 -1.2286999 -1.4983156 -1.820274 -2.1501506 -2.4414921 -2.7189406 -3.1914105 -4.3484372 -6.7009074 -9.5390716 -10.943907 -10.126145 -7.1590673 -3.1684776 -0.1344392 1.4490528 2.0253114 1.9702677 1.491218 0.71429388 -0.25361654 -1.2971804 -2.2991415 -3.1720566 -3.8868839 -4.472754 -4.9908809 -5.504753 -6.0615121 -6.6847441 -7.3724443 -8.0935522 -8.7758421 -9.273283 -9.2923887 -8.2874083 -5.7280294 -2.5780149 -1.169284 -2.3187244 -5.2062625 -7.4969112 -8.2241216 -7.9159671 -7.116947 -6.1209973 -5.0774161 -4.0661801 -3.1329183 -2.3039552 -1.5926925 -1.0025924 -0.52921693 -0.16230083 0.11201233
-0.81673072 -0.84426259 -0.87188179 -0.90045391 -0.93175492 -0.9689559 -1.0172028 -1.0841117 -1.1796789 -1.3145376 -1.4948666 -1.7126418 -1.9338856 -2.09672 -2.1374439 -2.0499556 -1.9576828 -2.1759805 -3.247927 -5.6736385 -8.6734828 -10.285483 -9.6712814 -6.8881454 -3.0738719 -0.19893095 1.2242464 1.6399298 1.4275871 0.80913544 -0.064384057 -1.0597647 -2.0531315 -2.952005 -3.7193125 -4.3736808 -4.9666781 -5.5563599 -6.1907444 -6.9018622 -7.7054709 -8.6017919 -9.5735664 -10.576807 -11.515256 -12.182564 -12.18839 -11.234762 -10.387426 -11.000563 -11.717762 -11.471173 -10.556954 -9.3641752 -8.0988549 -6.858496 -5.690889 -4.6211186 -3.6628537 -2.8228224 -2.10247 -1.4986551 -1.004263 -0.60907269 -0.30086776
-0.97651376 -1.0192487 -1.0628086 -1.1077638 -1.1553732 -1.2079221 -1.2690537 -1.3438576 -1.4381678 -1.5560732 -1.6943856 -1.8338701 -1.9312538 -1.923098 -1.7536688 -1.4218715 -1.0211691 -0.75772596 -0.97129696 -2.171768 -4.804211 -8.0293995 -9.8613686 -9.4459335 -6.8415405 -3.2013836 -0.49560839 0.7557583 1.0056523 0.65207537 -0.055343768 -0.93976453 -1.8629334 -2.729341 -3.4981447 -4.1793546 -4.813734 -5.450659 -6.1341435 -6.8977353 -7.7647211 -8.7502605 -9.8632546 -11.106264 -12.470887 -13.922486 -15.360072 -16.534451 -16.969703 -16.327783 -14.945459 -13.297501 -11.632232 -10.050269 -8.5867077 -7.2517654 -6.0468529 -4.9704033 -4.0196407 -3.1907789 -2.4787099 -1.8766926 -1.3762825 -0.96757436 -0.63969592
-1.1341022 -1.1919854 -1.2511287 -1.3115651 -1.3736767 -1.4383606 -1.5071086 -1.5817431 -1.6632706 -1.7489857 -1.8270829 -1.8697791 -1.8303161 -1.653388 -1.3036413 -0.79914061 -0.22617607 0.26834359 0.47958062 0.10830448 -1.3048617 -4.1584614 -7.6017147 -9.6249431 -9.3887112 -6.9613473 -3.4920107 -0.96800343 0.11257892 0.22146094 -0.21273913 -0.91700848 -1.7152917 -2.501941 -3.2318517 -3.9066495 -4.555242 -5.2158428 -5.9246365 -6.7113554 -7.5992707 -8.6069706 -9.7501349 -11.041895 -12.489236 -14.077895 -15.722231 -17.128983 -17.677663 -16.951375 -15.366673 -13.543822 -11.776124 -10.149699 -8.6799834 -7.3622446 -6.1872577 -5.1457807 -4.229437 -3.4304643 -2.7411946 -2.153607 -1.6590895 -1.2484425 -0.91207892
-1.2889437 -1.3619236 -1.436309 -1.5113563 -1.586219 -1.6599234 -1.7312172 -1.7980634 -1.8563303 -1.8970088 -1.9016555 -1.837893 -1.6610179 -1.3293027 -0.83098078 -0.2046715 0.46434217 1.0645913 1.4689295 1.5146316 0.94427103 -0.67219576 -3.7143456 -7.3347582 -9.5208951 -9.4473873 -7.1921844 -3.8980674 -1.5478326 -0.60739719 -0.57361477 -0.99606627 -1.6086099 -2.2721844 -2.9292106 -3.5705971 -4.2119247 -4.8778551 -5.5934036 -6.3803882 -7.2569037 -8.2377889 -9.3345183 -10.552849 -11.885075 -13.289863 -14.647734 -15.69727 -16.064755 -15.549324 -14.352388 -12.848327 -11.29947 -9.8265964 -8.4729033 -7.2487554 -6.1521686 -5.1770279 -4.3161064 -3.5619913 -2.9072157 -2.3441573 -1.8649432 -1.4614508 -1.1254172
-1.4406713 -1.528894 -1.6185022 -1.7077846 -1.7943693 -1.8749808 -1.9450526 -1.9980613 -2.0243307 -2.0089888 -1.9292067 -1.7527821 -1.4433557 -0.97699526 -0.36410508 0.34158778 1.057705 1.6978663 2.1822356 2.4238004 2.2920154 1.5492509 -0.2249459 -3.4148674 -7.166836 -9.4944707 -9.5706973 -7.4742937 -4.3472138 -2.126935 -1.2555021 -1.2056954 -1.5405389 -2.0342336 -2.5915912 -3.182184 -3.8034268 -4.463294 -5.1730329 -5.9441757 -6.7871529 -7.7100803 -8.7166335 -9.8016384 -10.942194 -12.081519 -13.106147 -13.834993 -14.069003 -13.716373 -12.870257 -11.73118 -10.481944 -9.238095 -8.0589635 -6.9705653 -5.9818218 -5.0934725 -4.3024746 -3.6040324 -2.9924755 -2.4616189 -2.0049231 -1.6156084 -1.2867801
-1.5890017 -1.6929637 -1.7983507 -1.902395 -2.0010348 -2.0884143 -2.1562259 -2.1928942 -2.1826769 -2.1049157 -1.9340801 -1.6422561 -1.2069737 -0.62545914 0.071889145 0.82259849 1.5516836 2.1942132 2.7020637 3.031593 3.1193953 2.8466035 1.9790115 0.094816146 -3.1996619 -7.0531269 -9.4965683 -9.7017124 -7.7358493 -4.7212156 -2.5543685 -1.66716 -1.5482799 -1.800225 -2.2319203 -2.7625562 -3.3585185 -4.0061367 -4.7013838 -5.4452436 -6.2405288 -7.088878 -7.9872352 -8.9229791 -9.8668321 -10.76369 -11.525404 -12.037234 -12.192457 -11.946679 -11.346305 -10.500202 -9.5255045 -8.5131156 -7.5213212 -6.5830048 -5.7146858 -4.9232662 -4.2102294 -3.5740346 -3.0114187 -2.5180944 -2.0891375 -1.7192306 -1.402846
-1.7335754 -1.8541973 -1.9766403 -2.0971458 -2.2100214 -2.3068709 -2.3756407 -2.3996353 -2.3569496 -2.2212129 -1.9648581 -1.5658031 -1.0172468 -0.33798418 0.42356213 1.1995749 1.9245279 2.5524559 3.0579373 3.4235039 3.6219165 3.595666 3.2260968 2.2761509 0.31801556 -3.0443936 -6.9800623 -9.5077901 -9.8042501 -7.9187316 -4.9382858 -2.7674478 -1.8444215 -1.6927011 -1.9342997 -2.3788661 -2.9349718 -3.557755 -4.2258069 -4.929979 -5.6665515 -6.4321988 -7.2196434 -8.0132789 -8.784525 -9.4878447 -10.060525 -10.431356 -10.541022 -10.36672 -9.9337116 -9.3039019 -8.5513448 -7.7419505 -6.9248502 -6.1325531 -5.3846637 -4.691899 -4.0592222 -3.4879729 -2.9772194 -2.5245917 -2.1267982 -1.7799619 -1.4798575
-1.8737571 -2.012348 -2.1538245 -2.2936773 -2.4249137 -2.537049 -2.6148907 -2.6373823 -2.5772447 -2.4028387 -2.0839887 -1.6022562 -0.96292635 -0.20269319 0.61416499 1.4141589 2.1382068 2.7540468 3.2518006 3.6303615 3.8831264 3.9850981 3.8771178 3.4374026 2.4250182 0.4067069 -3.0154344 -7.0200884 -9.6149706 -9.9705826 -8.124367 -5.1527975 -2.9806962 -2.0585855 -1.9189511 -2.1779325 -2.6352061 -3.1930361 -3.8045591 -4.4477403 -5.1116242 -5.7883357 -6.4678519 -7.1341528 -7.7623588 -8.3174705 -8.7562938 -9.0343035 -9.1171837 -8.9926432 -8.6755705 -8.202992 -7.6223577 -6.9800707 -6.3146264 -5.654551 -5.0192565 -4.4209801 -3.8667514 -3.3599832 -2.9016287 -2.4909809 -2.1262153 -1.8047635 -1.5235801
-2.0084339 -2.1665355 -2.3295083 -2.4924778 -2.6476974 -2.7833664 -2.8822159 -2.9201742 -2.8659581 -2.6832487 -2.3376531 -1.8094587 -1.1088352 -0.28422155 0.58635767 1.4209597 2.1604841 2.7788362 3.2749384 3.6576273 3.9324921 4.0924433 4.1090391 3.9189743 3.3965078 2.2974436 0.18771441 -3.3338284 -7.4269109 -10.104313 -10.513803 -8.6866223 -5.7162408 -3.5213737 -2.5704174 -2.392616 -2.604352 -3.0064496 -3.5030594 -4.0478531 -4.6169326 -5.1951532 -5.7688033 -6.3214481 -6.8317247 -7.2729935 -7.6153197 -7.8301064 -7.8965872 -7.8077945 -7.5730316 -7.2154543 -6.7661369 -6.2575633 -5.7188761 -5.1735734 -4.6391332 -4.1276994 -3.6471406 -3.2020926 -2.7948283 -2.4259261 -2.0947649 -1.7998865 -1.5392633
-2.1358557 -2.3149852 -2.5020299 -2.692209 -2.8776574 -3.0461214 -3.179374 -3.2516271 -3.228739 -3.0699239 -2.7346812 -2.1972381 -1.4658354 -0.59461857 0.32692044 1.2057911 1.9767423 2.6128121 3.1156048 3.4986185 3.7737559 3.9430781 3.9933262 3.8894699 3.5625859 2.8840549 1.6122364 -0.67503153 -4.3614574 -8.5745833 -11.314819 -11.718648 -9.8243546 -6.7494986 -4.4227912 -3.3330542 -3.0188296 -3.102853 -3.3878392 -3.7761328 -4.2170235 -4.6808107 -5.1461829 -5.5939398 -6.0040644 -6.3550261 -6.6249606 -6.7944274 -6.8499876 -6.7872861 -6.6122605 -6.3398653 -5.9908824 -5.5881416 -5.1533743 -4.7052789 -4.2587535 -3.8249381 -3.4116785 -3.0241337 -2.6653656 -2.3368462 -2.0388654 -1.7708502 -1.5316119
-2.253552 -2.4548913 -2.6682492 -2.8894019 -3.1109782 -3.3210444 -3.5013186 -3.6252105 -3.6563776 -3.5495505 -3.2569685 -2.7441258 -2.0129771 -1.1181549 -0.15699115 0.76626989 1.5764292 2.2401315 2.7559795 3.1368666 3.3957975 3.537729 3.5553478 3.4260203 3.1075935 2.5300058 1.575305 0.029909181 -2.4848549 -6.3014059 -10.533615 -13.172294 -13.39551 -11.278769 -7.9583888 -5.4017049 -4.0999437 -3.6013915 -3.5272315 -3.6752249 -3.9408042 -4.2660059 -4.6145694 -4.960092 -5.2804887 -5.5558158 -5.7681508 -5.9027696 -5.949891 -5.9061682 -5.7752004 -5.5667502 -5.2949034 -4.9757898 -4.625509 -4.2586521 -3.8875031 -3.5217987 -3.1688481 -2.8338368 -2.520191 -2.2299309 -1.9639827 -1.7224391 -1.5047722
-2.358346 -2.5824241 -2.8235655 -3.0785364 -3.3410147 -3.600056 -3.8380699 -4.028421 -4.1332714 -4.1034725 -3.8843095 -3.4317757 -2.7383548 -1.8532638 -0.8755483 0.082004298 0.93219219 1.6299368 2.1645833 2.5427627 2.7738093 2.8611451 2.7983382 2.5679308 2.1421239 1.4848341 0.55191489 -0.7230656 -2.4845513 -5.054402 -8.7511615 -12.739064 -15.067607 -14.972539 -12.558833 -8.967631 -6.1787965 -4.6781554 -4.011822 -3.7947427 -3.8175035 -3.9685773 -4.1840616 -4.4233426 -4.6576839 -4.8650242 -5.0279366 -5.1332561 -5.172458 -5.1421072 -5.0438878 -4.8839907 -4.6719366 -4.4191188 -4.1374047 -3.8380361 -3.5309242 -3.2243139 -2.9247217 -2.637049 -2.3647802 -2.1102111 -1.8746709 -1.6587227 -1.4623365
-2.4464584 -2.6928637 -2.9621057 -3.2523426 -3.5588336 -3.8722955 -4.1766456 -4.4461959 -4.6428863 -4.7153637 -4.603742 -4.2549793 -3.6488882 -2.8214262 -1.8637783 -0.89155942 -0.005333767 0.73157105 1.2916535 1.6691784 1.8656664 1.8804125 1.7063644 1.3304437 0.73823874 -0.076668487 -1.1016228 -2.3045155 -3.6701789 -5.3010831 -7.5522863 -10.843113 -14.423562 -16.411443 -16.036987 -13.390011 -9.6100124 -6.6524897 -5.0095821 -4.2187552 -3.8908845 -3.8118639 -3.866145 -3.986902 -4.1320449 -4.2730136 -4.3895851 -4.4675746 -4.4978966 -4.476136 -4.4021352 -4.2793612 -4.1140233 -3.9140517 -3.6881045 -3.4447381 -3.1918171 -2.9361647 -2.6834164 -2.4380178 -2.2033115 -1.9816694 -1.7746406 -1.5830963 -1.407364
-2.5136931 -2.7808288 -3.0770082 -3.4021551 -3.7536579 -4.1246733 -4.5017008 -4.8614547 -5.1675929 -5.3690307 -5.4033361 -5.2096832 -4.7522861 -4.0449424 -3.1589692 -2.2045859 -1.2957676 -0.52050094 0.068903863 0.44800688 0.60675948 0.53917191 0.23894331 -0.29865493 -1.0683272 -2.0404601 -3.1469251 -4.2827256 -5.3459649 -6.3267519 -7.4258826 -9.1403293 -11.999152 -15.274334 -17.062866 -16.547081 -13.784234 -9.9055308 -6.8528215 -5.1218422 -4.2474633 -3.8393684 -3.6821216 -3.6591647 -3.7033681 -3.7732646 -3.8418838 -3.8913957 -3.9104535 -3.8927624 -3.8361379 -3.7416949 -3.6130345 -3.4554218 -3.2750145 -3.0782063 -2.871129 -2.6593193 -2.4475358 -2.2396916 -2.0388675 -1.8473756 -1.6668488 -1.498339 -1.3424156
-2.5556909 -2.8405865 -3.1607787 -3.5182766 -3.9131442 -4.3418669 -4.7949021 -5.2533621 -5.6852742 -6.0429119 -6.2641483 -6.2815635 -6.0411761 -5.5269633 -4.7796525 -3.8950589 -2.9970886 -2.2008207 -1.5892517 -1.2115825 -1.0932326 -1.2458208 -1.6714186 -2.3591953 -3.2740986 -4.3409646 -5.4355636 -6.4016747 -7.1074458 -7.5272205 -7.8105383 -8.3189261 -9.6335685 -12.269622 -15.451208 -17.195839 -16.654852 -13.867034 -9.946441 -6.8519649 -5.0700953 -4.141635 -3.6768421 -3.4612424 -3.379221 -3.3648852 -3.3784088 -3.3948154 -3.3984305 -3.3799437 -3.3346793 -3.2614192 -3.1614776 -3.0379104 -2.8948334 -2.7368542 -2.568631 -2.3945571 -2.2185617 -2.0440037 -1.8736379 -1.7096295 -1.5535987 -1.4066818 -1.2695989
-2.5682488 -2.8664498 -3.205756 -3.5904602 -4.0237398 -4.5062519 -5.0338853 -5.5944897 -6.1637456 -6.7011422 -7.14822 -7.4323549 -7.4798614 -7.2405267 -6.7173168 -5.9819849 -5.1591449 -4.3866649 -3.7800391 -3.4179639 -3.3446986 -3.5770686 -4.1077985 -4.9013776 -5.8825239 -6.9246019 -7.8552146 -8.4968517 -8.738406 -8.5999114 -8.2490579 -7.9741621 -8.1705301 -9.3700882 -12.004738 -15.236257 -17.030929 -16.525132 -13.754387 -9.8280496 -6.7174049 -4.9076024 -3.9441298 -3.4395956 -3.181513 -3.0561051 -2.9993059 -2.9731419 -2.9544438 -2.9291579 -2.8892474 -2.8308315 -2.7529411 -2.6566063 -2.5441492 -2.4186292 -2.2834169 -2.1418821 -1.9971807 -1.8521235 -1.7091087 -1.5701006 -1.436641 -1.3098802 -1.1906187
-2.5476948 -2.8532715 -3.2047436 -3.6086741 -4.071517 -4.5986069 -5.1923668 -5.8494045 -6.5562577 -7.2839456 -7.9824384 -8.5781378 -8.9806898 -9.1064209 -8.9158148 -8.444117 -7.8005027 -7.1337162 -6.5877458 -6.2719645 -6.2509528 -6.5450733 -7.1317893 -7.9422679 -8.8546596 -9.6955771 -10.268483 -10.416423 -10.093243 -9.3943517 -8.5234834 -7.7291373 -7.2725536 -7.4656832 -8.7530639 -11.507833 -14.842463 -16.723559 -16.273551 -13.530092 -9.6193793 -6.5013444 -4.6767615 -3.6904129 -3.1583024 -2.8701821 -2.7142885 -2.6283786 -2.5761145 -2.5357239 -2.4942365 -2.4443202 -2.3823881 -2.3073662 -2.2198356 -2.1214084 -2.0142693 -1.900841 -1.7835501 -1.6646707 -1.5462294 -1.429957 -1.3172719 -1.2092868 -1.1068296
-2.4912931 -2.7970129 -3.1518074 -3.5642172 -4.0437225 -4.6002354 -5.2429611 -5.9781861 -6.8053724 -7.7108965 -8.6594071 -9.5853164 -10.392054 -10.969974 -11.235245 -11.172579 -10.853964 -10.418327 -10.024531 -9.8059502 -9.8441767 -10.159905 -10.711194 -11.39316 -12.042786 -12.462187 -12.471813 -11.981658 -11.039086 -9.8143481 -8.5313163 -7.3967512 -6.576829 -6.230558 -6.5887972 -8.0447743 -10.948777 -14.396612 -16.362434 -15.967898 -13.254448 -9.3603422 -6.2418384 -4.4087979 -3.4075545 -2.856726 -2.5482018 -2.372026 -2.2674956 -2.199542 -2.1473688 -2.0986643 -2.046429 -1.9870973 -1.9193455 -1.8432909 -1.7599352 -1.6707722 -1.5775122 -1.4818937 -1.3855596 -1.2899821 -1.1964235 -1.1059207 -1.0192881
-2.3976297 -2.6953154 -3.0431344 -3.451032 -3.9308237 -4.4962155 -5.162418 -5.9448888 -6.8563744 -7.9010094 -9.0643574 -10.3004 -11.522034 -12.60782 -13.434733 -13.928349 -14.101741 -14.055297 -13.935816 -13.881204 -13.978756 -14.244968 -14.620371 -14.975018 -15.130233 -14.905949 -14.188796 -12.989922 -11.451848 -9.7926555 -8.2239094 -6.8966484 -5.89958 -5.2957192 -5.1779633 -5.7433401 -7.3723712 -10.40791 -13.96102 -15.994476 -15.646116 -12.963401 -9.0773082 -5.9642665 -4.1258787 -3.1151412 -2.5521227 -2.2305224 -2.0418435 -1.9265626 -1.8505164 -1.793539 -1.7436801 -1.6940506 -1.6409749 -1.5828415 -1.5193507 -1.451007 -1.3787711 -1.3038215 -1.2273938 -1.1506764 -1.0747459 -1.0005319 -0.9288024
-2.2669139 -2.5479682 -2.8777691 -3.2668831 -3.7284261 -4.2785646 -4.9368822 -5.726231 -6.6712395 -7.7939552 -9.104525 -10.585759 -12.175316 -13.758333 -15.187542 -16.332848 -17.134486 -17.624105 -17.899485 -18.071173 -18.212608 -18.331317 -18.361569 -18.177379 -17.630493 -16.611875 -15.113753 -13.254291 -11.24219 -9.2996162 -7.5926198 -6.2066708 -5.1660182 -4.4722243 -4.1436861 -4.2571647 -5.0078814 -6.7811887 -9.9228235 -13.556854 -15.643611 -15.330589 -12.671133 -8.7930927 -5.684186 -3.8431953 -2.8266745 -2.2562756 -1.9270478 -1.7315928 -1.6112315 -1.5324051 -1.475325 -1.4282106 -1.3841601 -1.3393356 -1.2918499 -1.2410507 -1.187048 -1.130395 -1.0718734 -1.0123498 -0.95268222 -0.89366177 -0.83597972
-2.1011374 -2.3571698 -2.658045 -3.0140693 -3.4384477 -3.9481577 -4.5649671 -5.3163666 -6.2357375 -7.3601995 -8.7233741 -10.339945 -12.18248 -14.161106 -16.126581 -17.908949 -19.374771 -20.466244 -21.198321 -21.620672 -21.771589 -21.64718 -21.194775 -20.332464 -18.993708 -17.182667 -15.008388 -12.669362 -10.391623 -8.3576613 -6.6672287 -5.3422855 -4.3585912 -3.6806532 -3.2888562 -3.2013495 -3.5026981 -4.397461 -6.2786373 -9.5038601 -13.190482 -15.319998 -15.033271 -12.386199 -8.5212363 -5.4120202 -3.570593 -2.5509511 -1.9766709 -1.6437614 -1.4456053 -1.3240952 -1.2460514 -1.1918904 -1.1498837 -1.1130551 -1.0773931 -1.0407657 -1.0022321 -0.96159248 -0.91908913 -0.87520642 -0.83053764 -0.78569817 -0.74127074
-1.9040525 -2.1275218 -2.3896104 -2.6995096 -3.0693027 -3.5150601 -4.0583046 -4.7277781 -5.5610386 -6.6045059 -7.9090472 -9.5169143 -11.437668 -13.619311 -15.933456 -18.194411 -20.209317 -21.829259 -22.971146 -23.604418 -23.719943 -23.305171 -22.34099 -20.822905 -18.797206 -16.390001 -13.802597 -11.265393 -8.9740512 -7.0452232 -5.5111518 -4.3442273 -3.4903642 -2.8960758 -2.525397 -2.3705337 -2.4638902 -2.9025436 -3.9009508 -5.8588487 -9.1426316 -12.867266 -15.026015 -14.758083 -12.120234 -8.2636654 -5.1553706 -3.31404 -2.2932591 -1.7175937 -1.3837773 -1.18572 -1.0656808 -0.99070049 -0.94128809 -0.90570025 -0.87685929 -0.85058843 -0.82454685 -0.79756002 -0.76918585 -0.7394283 -0.70854687 -0.67693011 -0.6450127
-1.6809689 -1.8657535 -2.0810519 -2.3342226 -2.6351818 -2.9975475 -3.4402865 -3.9899196 -4.6830246 -5.5679731 -6.7033445 -8.1487396 -9.943824 -12.077009 -14.457146 -16.910333 -19.213164 -21.146602 -22.539791 -23.284988 -23.328432 -22.657132 -21.298795 -19.336366 -16.922561 -14.273582 -11.631582 -9.2087581 -7.1423728 -5.482339 -4.2095799 -3.2674645 -2.5899844 -2.1199766 -1.818305 -1.668125 -1.6791265 -1.8974758 -2.4303689 -3.499523 -5.5107667 -8.829651 -12.586794 -14.761604 -14.50595 -11.879032 -8.0215903 -4.9181232 -3.0768922 -2.0563619 -1.481052 -1.1482178 -0.95210993 -0.83520766 -0.76466516 -0.72101406 -0.69245967 -0.6718158 -0.6547563 -0.63876501 -0.62247911 -0.60526587 -0.58694474 -0.56760294 -0.54747301
-1.4383942 -1.5802194 -1.7431864 -1.932326 -2.1546421 -2.4201497 -2.7434485 -3.1459598 -3.6587437 -4.3251935 -5.2016654 -6.3523558 -7.8337381 -9.6665298 -11.802159 -14.102278 -16.350708 -18.298631 -19.720467 -20.454009 -20.41583 -19.60176 -18.085884 -16.019897 -13.620844 -11.136186 -8.7926947 -6.7513604 -5.0882126 -3.8044499 -2.8537434 -2.1708252 -1.6919505 -1.3658142 -1.1576924 -1.050362 -1.044914 -1.1644127 -1.464531 -2.059124 -3.1745401 -5.2207587 -8.5628761 -12.340412 -14.526255 -14.278231 -11.658243 -7.8012449 -4.7008415 -2.8606776 -1.8412833 -1.2675072 -0.93689398 -0.74390344 -0.63113439 -0.56578494 -0.52836779 -0.50701947 -0.49444787 -0.4861954 -0.47959946 -0.47314461 -0.46604653 -0.45797954 -0.44889619
-1.183568 -1.2802449 -1.388135 -1.5097195 -1.6487304 -1.810981 -2.0056835 -2.2474197 -2.5587951 -2.9733958 -3.5377435 -4.3094689 -5.3475175 -6.6908534 -8.3276654 -10.167428 -12.035347 -13.70091 -14.931269 -15.545601 -15.451092 -14.65547 -13.261434 -11.448057 -9.4377988 -7.4507116 -5.6600777 -4.1671478 -3.0012829 -2.1386975 -1.5274761 -1.1087826 -0.83007396 -0.6510506 -0.54506393 -0.49860614 -0.51083202 -0.59467396 -0.78144731 -1.1324997 -1.7656268 -2.9100226 -4.9769866 -8.3380819 -12.121602 -14.317875 -14.075023 -11.454982 -7.6052325 -4.5035935 -2.665553 -1.6479024 -1.0764266 -0.74881057 -0.55963019 -0.45153707 -0.39172972 -0.36067863 -0.34644521 -0.34163835 -0.34168596 -0.34380258 -0.34634752 -0.34841363 -0.34955842
-0.92394977 -0.97540797 -1.0283085 -1.0826379 -1.1389014 -1.1987055 -1.2657485 -1.3473793 -1.456827 -1.6159506 -1.8577376 -2.2266814 -2.773839 -3.5430027 -4.5472896 -5.7428869 -7.0147942 -8.1889155 -9.0718523 -9.5035673 -9.4011472 -8.7777307 -7.7338824 -6.4287863 -5.0407369 -3.7272951 -2.5972056 -1.7016055 -1.0424169 -0.58963099 -0.29917487 -0.12633534 -0.033393744 0.0074252225 0.013762128 -0.0060035659 -0.05199181 -0.13301958 -0.26866094 -0.49473975 -0.87568477 -1.5314485 -2.692886 -4.7717978 -8.143789 -11.931123 -14.133014 -13.893609 -11.273814 -7.4282995 -4.3269462 -2.4908131 -1.4753822 -0.90668451 -0.58252502 -0.39753048 -0.29436263 -0.24019436 -0.21544209 -0.20809171 -0.2106615 -0.21847939 -0.22865544 -0.239444 -0.24983562
-0.66671985 -0.67484722 -0.6754359 -0.66627339 -0.6450304 -0.60962138 -0.55888548 -0.49373823 -0.41892679 -0.34538348 -0.29278951 -0.29121069 -0.37961849 -0.59843114 -0.97444679 -1.5011131 -2.1234208 -2.7391826 -3.2223173 -3.4612318 -3.3952822 -3.0327863 -2.444329 -1.7369723 -1.0218825 -0.38783141 0.11233117 0.46188445 0.67155089 0.76771521 0.78190088 0.74351937 0.6760595 0.59587553 0.51245365 0.42920276 0.3441073 0.24978116 0.13247398 -0.0306903 -0.27775219 -0.67466329 -1.3424668 -2.5128135 -4.5989425 -7.9721782 -11.76781 -13.969128 -13.731272 -11.116215 -7.2670246 -4.1701379 -2.3353883 -1.3224762 -0.75684635 -0.4363959 -0.25576313 -0.15759337 -0.10901921 -0.090398049 -0.089642699 -0.09918881 -0.11427588 -0.13192303 -0.15029378
-0.41834932 -0.38667527 -0.33975727 -0.27364756 -0.18381598 -0.065348887 0.08659874 0.27596292 0.50439985 0.76930821 1.0613944 1.3624167 1.6444931 1.8730078 2.0147625 2.0505483 1.9872108 1.8615859 1.7310793 1.6532813 1.6642134 1.7656745 1.9271933 2.1006749 2.2391905 2.3105691 2.3020819 2.2180446 2.0739367 1.8900794 1.6866478 1.4805808 1.2841985 1.1050144 0.94618805 0.80715204 0.68408435 0.56998833 0.45415448 0.32065925 0.14521166 -0.11116653 -0.51507691 -1.1880496 -2.3620426 -4.4513399 -7.8244982 -11.623919 -13.824942 -13.587496 -10.975279 -7.1247601 -4.0307942 -2.1980265 -1.1877513 -0.62536245 -0.30874996 -0.13254163 -0.039350861 0.003737546 0.016426562 0.010873066 -0.0052824008 -0.027199166 -0.051814323
-0.18427772 -0.11755505 -0.029462656 0.085136131 0.23222954 0.41854761 0.65124131 0.93722997 1.2820777 1.688287 2.1530333 2.665676 3.205899 3.7438546 4.243684 4.6706051 4.9994536 5.2206366 5.3400975 5.3733215 5.3367414 5.2407884 5.0879122 4.8763077 4.6061561 4.2837457 3.9216641 3.5363938 3.1452619 2.7639391 2.4049139 2.0768873 1.7848296 1.5304173 1.312607 1.1281648 0.97201557 0.83731169 0.7151115 0.59350126 0.45583172 0.27737642 0.018885012 -0.38643285 -1.0602606 -2.2347283 -4.323484 -7.70006 -11.494452 -13.698473 -13.461548 -10.846727 -7.0024344 -3.9072577 -2.0772837 -1.0697406 -0.51069915 -0.1979923 -0.026221792 0.062039232 0.099757211 0.10669519 0.095076969 0.072615117 0.044225845
0.031280926 0.1275345 0.2495861 0.40321425 0.59513513 0.83291906 1.1247188 1.478702 1.9020616 2.3994885 2.9710796 3.6098669 4.2995102 5.0130957 5.7141289 6.360329 6.9096584 7.3268379 7.5883534 7.6847824 7.6202007 7.4092252 7.0732375 6.6375127 6.1295144 5.5772937 5.0074424 4.4431114 3.9027322 3.3996154 2.9422427 2.5349559 2.1787873 1.8722605 1.612069 1.3935827 1.2111543 1.0581971 0.92699516 0.80816663 0.68962 0.55467234 0.3786289 0.12228785 -0.28110247 -0.95320437 -2.1262352 -4.2131585 -7.5906155 -11.38181 -13.586807 -13.350512 -10.734485 -6.8939482 -3.7992186 -1.9716814 -0.96703517 -0.41142559 -0.10267835 0.064641784 0.1480062 0.18043409 0.18174834 0.16423863 0.13568845
0.22540336 0.34534771 0.49386523 0.67689213 0.90124486 1.1745214 1.5048272 1.9002327 2.3678559 2.9124716 3.5346159 4.2283106 4.978788 5.7608979 6.5390592 7.269459 7.9046309 8.3997677 8.719505 8.8435701 8.7696772 8.5127431 8.1009611 7.5704477 6.9600558 6.3070974 5.6442239 4.9976149 4.3864422 3.823319 3.3153163 2.8651766 2.4724724 2.1345805 1.8474307 1.6060278 1.4047654 1.2375387 1.0976541 0.97750322 0.86792465 0.75708888 0.62857099 0.45790376 0.2060701 -0.19354275 -0.86249974 -2.0329264 -4.118529 -7.4911001 -11.28639 -13.488127 -13.251854 -10.639892 -6.7955958 -3.7056208 -1.8799459 -0.87834589 -0.32627142 -0.021562278 0.14125724 0.21970541 0.24685555 0.24259164 0.21927105
0.39641007 0.53426599 0.70198331 0.90527284 1.1505752 1.4449282 1.79567 2.209902 2.6936289 3.2505036 3.8801663 4.5762824 5.3245769 6.1013845 6.8733935 7.5992214 8.233144 8.730736 9.055495 9.1849013 9.1141382 8.856261 8.4389077 7.8988846 7.2763425 6.6098275 5.9328341 5.2719834 4.6466096 4.0693384 3.5472028 3.0829228 2.6761086 2.3242621 2.0235438 1.769311 1.5564539 1.3795533 1.2328713 1.1101691 1.0043156 0.90660576 0.80562008 0.68528421 0.52141839 0.27523247 -0.11971372 -0.78486285 -1.9521712 -4.0359981 -7.4050327 -11.201845 -13.401954 -13.165463 -10.556223 -6.7108204 -3.6241891 -1.8010067 -0.80255453 -0.25416728 0.046367406 0.20456498 0.27799278 0.2997811 0.2898792
0.54373318 0.69408093 0.8743329 1.0897062 1.3459527 1.6491913 2.0055911 2.420846 2.8993832 3.4432638 4.050785 4.714889 5.4216227 6.1490532 6.8671541 7.5391667 8.1247181 8.5845495 8.8861227 9.0088355 8.947384 8.712242 8.3271944 7.8248454 7.2414847 6.6125266 5.9692245 5.3368524 4.7341748 4.1738394 3.6632959 3.2059083 2.8020357 2.4499617 2.1466255 1.8881528 1.6702087 1.4881922 1.3372913 1.2124022 1.107899 1.0172129 0.93213484 0.84166856 0.73009087 0.57350593 0.3333476 -0.05665144 -0.71780469 -1.8820042 -3.9627656 -7.3335664 -11.124399 -13.327102 -13.091136 -10.479584 -6.6408875 -3.5536284 -1.7338614 -0.73875237 -0.19427787 0.10185589 0.25520686 0.32339511 0.33961399
0.66773124 0.82571545 1.0126747 1.2331734 1.492109 1.7945196 2.1452606 2.5485092 3.0070595 3.5213946 4.0885607 4.7009478 5.3451791 6.0014181 6.6434716 7.2400424 7.7573145 8.162726 8.4293577 8.5399859 8.4897373 8.2865946 7.9496591 7.5057659 6.9854341 6.4191018 5.8342689 5.2537796 4.6951607 4.1707594 3.6883744 3.2521113 2.8632679 2.5211304 2.223628 1.9678302 1.7502973 1.5672971 1.4149053 1.2889962 1.1851195 1.0982463 1.0223352 0.9496308 0.86951836 0.76658877 0.61720008 0.38298775 -0.0021580936 -0.65942579 -1.820696 -3.8987028 -7.2699377 -11.05751 -13.261426 -13.026551 -10.414413 -6.5801955 -3.4941689 -1.677654 -0.68626449 -0.14603561 0.14534602 0.29348766 0.35606944
0.76948063 0.93092671 1.1197175 1.3396969 1.59486 1.8891491 2.2261411 2.6085986 3.0378668 3.5131184 4.0304864 4.5821766 5.1557279 5.7336453 6.293673 6.8099312 7.2550106 7.6028786 7.8321602 7.929122 7.8896341 7.7196023 7.4337866 7.0533791 6.602994 6.1077473 5.5909191 5.072426 4.5680971 4.0895991 3.6447996 3.2383634 2.8724251 2.5472309 2.2616926 2.0138302 1.8011006 1.6206204 1.4692925 1.3438439 1.240776 1.1562174 1.0856564 1.0235026 0.96238552 0.8920127 0.79724069 0.65464311 0.42602789 0.045421171 -0.60825827 -1.7667775 -3.8435825 -7.2102795 -11.002486 -13.203836 -12.969798 -10.362635 -6.5256451 -3.4454216 -1.6318718 -0.64468016 -0.10918212 0.17693031 0.31932091
0.85056865 1.0120244 1.1987377 1.4138338 1.6604396 1.9414828 2.2594033 2.6157628 3.0107476 3.442577 3.9068604 4.3959859 4.8986657 5.3998049 5.8808664 6.3208671 6.6980349 6.9919922 7.1861451 7.2698167 7.2396493 7.0999423 6.8618643 6.5417672 6.159021 5.7338324 5.2854079 4.8306612 4.383501 3.9546199 3.5516503 3.1795421 2.8410416 2.5371814 2.2677274 2.0315549 1.8269422 1.6517836 1.5037272 1.3802408 1.2786096 1.1958604 1.1286005 1.0727423 1.0230635 0.97250728 0.91104416 0.82374811 0.68736998 0.46386026 0.087358207 -0.563133 -1.7192321 -3.7950465 -7.1590802 -10.953768 -13.154531 -12.9214 -10.318166 -6.4813674 -3.4058846 -1.5963319 -0.61390615 -0.083825851 0.19628194
0.91290533 1.0716256 1.2532649 1.4602779 1.6950089 1.9595041 2.2552568 2.5828802 2.9417104 3.3293592 3.741256 4.1702475 4.6063492 5.0367626 5.4462684 5.8180682 6.13507 6.3815035 6.5446336 6.616265 6.5937268 6.4801267 6.2838299 6.0173007 5.6955738 5.3346583 4.9501342 4.5560981 4.1645135 3.7849335 3.4245155 3.0882337 2.7791982 2.4990123 2.2481177 2.0261003 1.8319425 1.6642159 1.5212176 1.4010504 1.301649 1.2207513 1.1558062 1.1038026 1.0609904 1.0224401 0.98134458 0.92788444 0.84730756 0.71650686 0.49754706 0.12465776 -0.52308941 -1.6772933 -3.7512507 -7.1182803 -10.908262 -13.112961 -12.881786 -10.277792 -6.4493931 -3.3751467 -1.5710645 -0.59423945 -0.070527394
0.95856429 1.1124571 1.2868408 1.4835744 1.7043307 1.9504277 2.2226117 2.5207921 2.8437338 3.1887304 3.5512892 3.9248861 4.3008537 4.6684825 5.0153988 5.3282558 5.5937166 5.7996383 5.9362929 5.9974219 5.9809246 5.8890444 5.7280254 5.5073203 5.2385191 4.9341964 4.6068564 4.2680968 3.9280454 3.5950666 3.2756918 2.9747162 2.6953965 2.4396991 2.2085568 2.0021093 1.8199104 1.6610967 1.5245125 1.4087951 1.3124164 1.233683 1.1706898 1.1212163 1.0825501 1.051205 1.022481 0.98976674 0.94340753 0.86878771 0.74291115 0.52793077 0.15814407 -0.48732339 -1.6401173 -3.7128028 -7.0817581 -10.870025 -13.077579 -12.849282 -10.24668 -6.4249788 -3.3544626 -1.5564401 -0.58646281
