ncols         65
nrows         65
xllcorner     -812.5
yllcorner     -812.5
cellsize      25
NODATA_value  -9999
-0.11135242 0.39628436 0.64875791 0.7501843 0.75662057 0.69954113 0.59707385 0.45966364 0.29312682 0.10042636 -0.11720493 -0.35948039 -0.62644932 -0.91797101 -1.2332275 -1.57026 -1.9255396 -2.2936062 -2.6668304 -3.035369 -3.3873846 -3.709584 -3.9880847 -4.2095498 -4.3624518 -4.438256 -4.4322873 -4.344085 -4.1771485 -3.938118 -3.6355568 -3.2785755 -2.8755387 -2.4330378 -1.9552211 -1.4434884 -0.89649683 -0.31040864 0.32066178 1.0039729 1.7471008 2.5561682 3.4327673 4.3687002 5.3376292 6.2839219 7.1135179 7.7005337 7.9263776 7.7416705 7.1987184 6.4190572 5.531542 4.6332279 3.7827391 3.009344 2.3240108 1.7276067 1.2159468 0.78259877 0.42032198 0.1217515 -0.12030148 -0.31272247 -0.46203138
-1.0030551 -0.043713621 0.45780426 0.70223745 0.79341528 0.78699979 0.71396568 0.5918456 0.43041046 0.23475226 0.0071044249 -0.25196865 -0.54269593 -0.8653706 -1.2196799 -1.6040562 -2.0150518 -2.4467747 -2.8904608 -3.334284 -3.7635241 -4.1611926 -4.5091653 -4.7897628 -4.9875874 -5.0912999 -5.0949544 -4.9985626 -4.8077196 -4.5323595 -4.1849178 -3.7782957 -3.3240049 -2.8307622 -2.3036421 -1.7437528 -1.1483075 -0.51093629 0.17788357 0.93030534 1.7603671 2.6826334 3.7093947 4.8448263 6.0733434 7.3386324 8.5142544 9.3889177 9.7262803 9.4171888 8.5741183 7.4367743 6.2198884 5.053434 3.9973469 3.0708765 2.2734584 1.5961953 1.0274523 0.55531693 0.16852036 -0.14333572 -0.38981721 -0.57975342 -0.72130618
-2.7150869 -0.92788927 0.027203361 0.5224656 0.75830418 0.83807858 0.8168457 0.72484195 0.57873798 0.38734277 0.15473117 -0.11786272 -0.43074754 -0.78474975 -1.1802931 -1.6165013 -2.0903044 -2.5955859 -3.122464 -3.6568541 -4.1804994 -4.6716518 -5.1065232 -5.461474 -5.7156892 -5.8538623 -5.8682739 -5.7597024 -5.5368753 -5.214566 -4.8108054 -4.3438588 -3.8295741 -3.2794939 -2.6998465 -2.0913041 -1.4492495 -0.76426153 -0.022571362 0.79364138 1.7060711 2.7399159 3.9224964 5.2789346 6.8203493 8.5143866 10.221049 11.601279 12.155353 11.613284 10.248764 8.565294 6.9058516 5.4145438 4.1280464 3.0397549 2.1291721 1.3735466 0.75191825 0.24608927 -0.15956618 -0.4786312 -0.72316371 -0.90406967 -1.0313103
-5.6918146 -2.6302042 -0.84509717 0.10571171 0.59436052 0.82065804 0.88724611 0.8482829 0.7329247 0.55659495 0.32672803 0.045972673 -0.28579094 -0.66997123 -1.1079932 -1.6000675 -2.1439369 -2.7336204 -3.3582663 -4.0013135 -4.6402437 -5.2472362 -5.7909739 -6.2396421 -6.5648164 -6.7455309 -6.7715348 -6.6447799 -6.3786184 -5.9948774 -5.5196034 -4.978564 -4.3934701 -3.779485 -3.1441227 -2.4872742 -1.8019015 -1.0748973 -0.28768906 0.58369369 1.5691951 2.7058522 4.0390162 5.6223453 7.51234 9.7431604 12.23467 14.527997 15.538446 14.519941 12.222611 9.7353204 7.5213277 5.665472 4.1386713 2.8899005 1.8713229 1.0436053 0.37563453 -0.15717798 -0.57471181 -0.89364901 -1.1285563 -1.2925432 -1.3975728
-9.4120145 -5.5935775 -2.533782 -0.75007832 0.19645135 0.67789353 0.89321281 0.94397926 0.88302681 0.73793214 0.52231169 0.24163827 -0.10342049 -0.51476963 -0.99509608 -1.5461842 -2.1671826 -2.852802 -3.591556 -4.3643063 -5.1435187 -5.8937358 -6.5737305 -7.1405468 -7.5551033 -7.7883437 -7.82635 -7.6727864 -7.3477384 -6.8832042 -6.3165896 -5.6840143 -5.0149532 -4.3290135 -3.634885 -2.9309472 -2.2067517 -1.444576 -0.62037994 0.29629755 1.3437769 2.5711962 4.0431946 5.8465051 8.0974943 10.941221 14.481096 18.319329 20.270067 18.287068 14.420917 10.861968 8.0128366 5.7753959 4.0104576 2.6081877 1.4890538 0.59617816 -0.11153431 -0.66459826 -1.0867383 -1.397531 -1.6140861 -1.7519489 -1.8254321
-11.905685 -9.3022471 -5.4778408 -2.4196486 -0.63764851 0.30456511 0.77787242 0.98003949 1.0110466 0.92177116 0.73747255 0.46914964 0.11949801 -0.31350367 -0.83397903 -1.4458277 -2.1503533 -2.9437325 -3.8144119 -4.7407503 -5.6894698 -6.6156915 -7.4653589 -8.1805518 -8.7074394 -9.0054848 -9.0554323 -8.8633217 -8.4588459 -7.888434 -7.2053445 -6.4597517 -5.691192 -4.9244695 -4.1689006 -3.4199752 -2.6621612 -1.8716012 -1.0176825 -0.062780499 1.0402969 2.3537047 3.9639589 5.9980107 8.6508021 12.223487 17.08027 22.831501 25.897107 22.770621 16.96305 12.059226 8.4539908 5.7889687 3.7696728 2.2088228 0.98821581 0.03114297 -0.71391073 -1.2831907 -1.704019 -1.998845 -2.1876111 -2.2888404 -2.3198551
-12.018129 -11.778186 -9.1731884 -5.3438111 -2.2823171 -0.50187751 0.43571264 0.89934318 1.0849252 1.0900671 0.96273812 0.72479153 0.38346043 -0.062406276 -0.61829408 -1.2907241 -2.0840074 -2.9967501 -4.0181221 -5.1242388 -6.2754117 -7.415397 -8.4739291 -9.3735051 -10.040386 -10.418082 -10.479633 -10.234152 -9.7246063 -9.0173675 -8.1873199 -7.303346 -6.4177612 -5.5611573 -4.7422704 -3.9513492 -3.1650323 -2.350795 -1.4693927 -0.47420384 0.69335968 2.1136573 3.9071219 6.2690282 9.5337476 14.234771 20.702408 27.224598 29.968408 27.130524 20.518884 13.971319 9.2053494 5.8969684 3.5201168 1.749251 0.3995341 -0.63731938 -1.4279261 -2.0160102 -2.433234 -2.7055813 -2.8567552 -2.9094379 -2.8851966
-9.688557 -11.873817 -11.625866 -9.0136496 -5.1829714 -2.1164745 -0.33639803 0.59571416 1.0468705 1.2101094 1.1794574 0.99854098 0.68423734 0.23848184 -0.34493268 -1.0754345 -1.9611586 -3.0041633 -4.1952173 -5.5085125 -6.8972673 -8.2918146 -9.6020811 -10.725996 -11.56414 -12.03875 -12.112035 -11.796628 -11.152875 -10.273532 -9.2619896 -8.2114505 -7.1902476 -6.2352218 -5.352503 -4.5234005 -3.7123854 -2.8741301 -1.9570272 -0.90124678 0.37039583 1.9720257 4.0932246 7.0727965 11.486596 17.838406 24.917699 29.906707 31.558877 29.774862 24.65857 17.461456 11.006888 6.5120602 3.4813171 1.3487961 -0.21207285 -1.3761091 -2.2400746 -2.8615276 -3.2794366 -3.525388 -3.6290036 -3.619469 -3.5248142
-5.7731128 -9.527256 -11.700686 -11.44412 -8.8200406 -4.9839961 -1.9152034 -0.13514713 0.78937203 1.2226257 1.3532904 1.269937 1.0097393 0.58247941 -0.016941721 -0.80057188 -1.780872 -2.9641254 -4.3432941 -5.8906214 -7.5511984 -9.2396806 -10.842805 -12.229667 -13.270216 -13.860341 -13.947757 -13.548161 -12.742573 -11.656226 -10.428185 -9.1824343 -8.0074441 -6.9470231 -6.0018985 -5.1389754 -4.3038497 -3.4317254 -2.4521222 -1.28344 0.18664025 2.1428452 4.9220438 9.1137329 15.271415 22.317871 27.746877 30.750592 31.641004 30.576578 27.403186 21.813586 14.621208 8.3391678 4.0534105 1.2215519 -0.73180056 -2.1258846 -3.1239181 -3.8129258 -4.2463591 -4.4660156 -4.511804 -4.4238107 -4.2403748
-2.2730713 -5.5905884 -9.3356495 -11.494062 -11.225795 -8.5913739 -4.7428759 -1.6717028 0.10593186 1.0175705 1.4219869 1.5011179 1.3352632 0.95227171 0.35247597 -0.477255 -1.5533809 -2.8863501 -4.4708832 -6.2760491 -8.2366615 -10.248942 -12.173932 -13.850369 -15.116404 -15.839319 -15.949004 -15.461591 -14.478511 -13.16021 -11.687037 -10.220846 -8.8761529 -7.705802 -6.7020313 -5.8095864 -4.9447214 -4.0122075 -2.9113062 -1.5217778 0.33935232 3.0038835 7.0616478 13.075964 20.02673 25.498381 28.839699 30.565979 31.035126 30.345795 28.403276 24.854087 19.188345 12.064244 5.9065514 1.7475626 -0.96000445 -2.7852263 -4.0336925 -4.8564317 -5.3367177 -5.5358348 -5.5124345 -5.3256153 -5.0305575
-0.066856037 -2.0738417 -5.3729289 -9.1039348 -11.248403 -10.964131 -8.3197209 -4.4601451 -1.384334 0.38463435 1.2708762 1.6241799 1.6159472 1.3143535 0.73486722 -0.13256634 -1.3063148 -2.7990801 -4.6045837 -6.6848283 -8.9598586 -11.303823 -13.551542 -15.515627 -17.009557 -17.876761 -18.028009 -17.473252 -16.325879 -14.775881 -13.045792 -11.342651 -9.8163284 -8.5342957 -7.4781632 -6.5596897 -5.6486713 -4.6002661 -3.2626398 -1.4431394 1.1835159 5.195505 11.154098 18.057327 23.51054 26.934975 28.92929 29.945447 30.177469 29.675721 28.393231 26.139916 22.468901 16.788444 9.6868819 3.5721008 -0.53587049 -3.1741126 -4.8892465 -5.9668288 -6.5520065 -6.7440836 -6.6370794 -6.3242838 -5.8886669
1.2202838 0.1508378 -1.8396522 -5.1214953 -8.8304349 -10.959026 -10.657359 -7.9986734 -4.1357978 -1.0623302 0.68321805 1.5163736 1.7737555 1.6110213 1.080409 0.18472118 -1.0906851 -2.7552973 -4.7947472 -7.1553507 -9.7342206 -12.379241 -14.902756 -17.10497 -18.794476 -19.806736 -20.036274 -19.474639 -18.225461 -16.488167 -14.519385 -12.577759 -10.863074 -9.4699349 -8.3706978 -7.4290902 -6.4382475 -5.1668625 -3.3715912 -0.72254884 3.3350111 9.3437174 16.279921 21.762365 25.240333 27.348443 28.588185 29.202852 29.291619 28.881071 27.947333 26.394557 23.984084 20.221182 14.481124 7.3289269 1.1661213 -2.9555764 -5.5410478 -7.0961536 -7.8907203 -8.0999817 -7.8878114 -7.4110742 -6.7984432
1.9991991 1.454605 0.40384401 -1.5667013 -4.8317116 -8.5191037 -10.627195 -10.310973 -7.6402831 -3.782712 -0.73617186 0.95042941 1.6727031 1.7475939 1.3105306 0.39932219 -0.98417735 -2.8343988 -5.1146937 -7.7401509 -10.572762 -13.43189 -16.119901 -18.451172 -20.262434 -21.407891 -21.773532 -21.315254 -20.090752 -18.27085 -16.124503 -13.964224 -12.059945 -10.556883 -9.4280647 -8.469341 -7.3396005 -5.6424999 -2.9658055 1.2243567 7.4053276 14.499171 20.120034 23.711928 25.932376 27.31218 28.126263 28.503595 28.499123 28.128321 27.377652 26.194802 24.45492 21.889642 17.978404 12.079198 4.7708454 -1.5281776 -5.6948444 -8.1466721 -9.3425178 -9.6082556 -9.254378 -8.5601977 -7.7273299
2.4998271 2.2485839 1.7232427 0.6923384 -1.2572126 -4.5016224 -8.1744351 -10.26582 -9.9435293 -7.281311 -3.4526201 -0.48145844 1.0697278 1.5688848 1.307566 0.40638826 -1.0888722 -3.1347224 -5.6477237 -8.488289 -11.469605 -14.387932 -17.062526 -19.361658 -21.189642 -22.448519 -23.025388 -22.822765 -21.809403 -20.075209 -17.86272 -15.529945 -13.438981 -11.822415 -10.681393 -9.7248534 -8.3642092 -5.8568612 -1.5280362 4.9747816 12.429006 18.363421 22.201299 24.616408 26.162757 27.142163 27.709046 27.940309 27.870989 27.511345 26.852256 25.860608 24.463106 22.511753 19.715463 15.537265 9.3293576 1.7066278 -4.8057135 -8.9120634 -10.872141 -11.253458 -10.693727 -9.7126093 -8.6174522
2.8414425 2.7623397 2.5299928 2.0236643 1.0112892 -0.92151727 -4.1484267 -7.8140358 -9.9083733 -9.6038686 -6.9934142 -3.2602453 -0.4593124 0.81239891 0.89563216 0.068833411 -1.5222318 -3.7545064 -6.4600822 -9.4155971 -12.377207 -15.138513 -17.57817 -19.663525 -21.398896 -22.752824 -23.620181 -23.838968 -23.253869 -21.819357 -19.697736 -17.265777 -14.990793 -13.237064 -12.087916 -11.174358 -9.4628433 -5.4606235 1.4393595 9.5719425 16.129 20.457233 23.237125 25.056167 26.251603 27.008623 27.429105 27.567688 27.450771 27.086189 26.466489 25.566547 24.334921 22.676182 20.416653 17.23814 12.583069 5.8159579 -2.3450263 -9.0028656 -12.378766 -12.949461 -12.085265 -10.753131 -9.378425
3.0883534 3.1150556 3.0534437 2.8376569 2.3460055 1.3450809 -0.58252541 -3.8129559 -7.4917442 -9.6279281 -9.3989837 -6.9220419 -3.4157816 -0.96246469 -0.20034176 -0.79207988 -2.4055005 -4.7657697 -7.567806 -10.476197 -13.196452 -15.557365 -17.54511 -19.260053 -20.818432 -22.256306 -23.47843 -24.259022 -24.303678 -23.390065 -21.541457 -19.105296 -16.642785 -14.680608 -13.450088 -12.58263 -10.435405 -4.1960776 4.9398207 12.735021 18.035089 21.505201 23.808029 25.35008 26.368951 27.004538 27.338799 27.417887 27.264829 26.886387 26.275547 25.410046 24.246703 22.710314 20.673692 17.92096 14.0805 8.5430407 0.72137784 -8.1224308 -13.613824 -14.402965 -13.166906 -11.499431 -9.8937704
3.2772907 3.3711666 3.4129125 3.363844 3.1565096 2.666979 1.6587368 -0.28975167 -3.5653205 -7.3150389 -9.5678872 -9.5274996 -7.3372857 -4.2650468 -2.4203154 -2.4290527 -3.862836 -6.1959471 -8.9167634 -11.556986 -13.79537 -15.540715 -16.919924 -18.171773 -19.510382 -21.025609 -22.632884 -24.056384 -24.87149 -24.661862 -23.262548 -20.929031 -18.271829 -15.970548 -14.427982 -13.368092 -10.843373 -3.162218 6.6128378 13.955056 18.830381 22.053933 24.209317 25.652379 26.597916 27.175984 27.464284 27.507126 27.326731 26.929485 26.308303 25.441432 24.287575 22.776449 20.792426 18.145861 14.521894 9.4003502 2.0593915 -7.3380153 -14.102258 -14.993729 -13.564603 -11.751587 -10.055457
3.4304411 3.5677448 3.6732939 3.7221266 3.6730605 3.4552007 2.9399303 1.8843314 -0.14080672 -3.5348904 -7.4657474 -9.9750959 -10.306711 -8.63691 -6.2500736 -5.2310486 -6.0552184 -8.0414527 -10.399365 -12.51067 -14.055139 -15.050256 -15.762182 -16.538438 -17.656144 -19.238753 -21.215341 -23.284177 -24.920575 -25.525007 -24.716335 -22.595463 -19.753873 -16.976888 -14.813119 -13.123947 -10.366999 -3.7340816 5.6209877 13.512568 18.830708 22.273233 24.524624 26.005008 26.96001 27.533962 27.811044 27.838321 27.638989 27.21958 26.572659 25.675465 24.484314 22.92352 20.865461 18.09387 14.236789 8.6846496 0.84999174 -8.0053472 -13.506995 -14.305279 -13.07739 -11.417231 -9.8181379
3.5618872 3.7274805 3.8723817 3.9784105 4.0169396 3.9417429 3.6751376 3.0796084 1.9008483 -0.30477877 -3.949578 -8.2299478 -11.205635 -12.137195 -11.204407 -9.6119413 -9.2609065 -10.339641 -11.922593 -13.224216 -13.924805 -14.136811 -14.221431 -14.577954 -15.50273 -17.133384 -19.417664 -22.056546 -24.469769 -25.910939 -25.781364 -23.979585 -21.008032 -17.704949 -14.756897 -12.244719 -9.3386026 -4.5604962 2.7744716 11.100583 17.696399 21.972677 24.652891 26.351499 27.421711 28.057579 28.365459 28.401865 28.193581 27.748029 27.056953 26.094266 24.807544 23.100423 20.798369 17.582427 12.89435 6.0980748 -2.0887368 -8.7695013 -12.165798 -12.754683 -11.906745 -10.589177 -9.2275482
3.6809324 3.865029 4.0337163 4.1717378 4.2558646 4.2504813 4.0999523 3.7143957 2.9413119 1.5094561 -1.0427799 -5.1405992 -9.9813547 -13.623809 -15.274267 -15.002063 -13.803165 -13.297002 -13.524495 -13.702683 -13.462691 -12.935478 -12.49428 -12.521475 -13.291806 -14.941492 -17.440937 -20.519255 -23.588569 -25.808579 -26.387394 -24.997473 -21.997393 -18.236485 -14.551175 -11.300695 -8.2067867 -4.5628024 0.41002063 7.2045346 14.72283 20.586813 24.282729 26.524106 27.888647 28.691433 29.093669 29.175175 28.971682 28.492936 27.728701 26.644503 25.165637 23.142759 20.283541 16.049906 9.7930738 2.1270804 -4.423601 -8.5640043 -10.554397 -10.962764 -10.427222 -9.467784 -8.3921004
3.7938689 3.9902142 4.1727469 4.3268533 4.4306964 4.451867 4.3423241 4.0303639 3.4067854 2.2986211 0.41812552 -2.6995983 -7.4624546 -13.00087 -17.274368 -19.337889 -19.054435 -17.244927 -15.506771 -14.149795 -12.855396 -11.641018 -10.776979 -10.558737 -11.205706 -12.839609 -15.453066 -18.819475 -22.383201 -25.266145 -26.526299 -25.612605 -22.705902 -18.629804 -14.360261 -10.516983 -7.176809 -4.0123551 -0.49316735 4.0871184 10.362988 17.375496 22.820027 26.192306 28.180935 29.334286 29.936419 30.120353 29.942152 29.416785 28.529389 27.225974 25.379929 22.721186 18.727609 12.755773 5.3832515 -0.97257487 -5.1896288 -7.6862494 -8.9220028 -9.2233749 -8.9013861 -8.2358042 -7.4286386
3.9049335 4.1096792 4.2998449 4.4600577 4.567507 4.5888356 4.4759547 4.1605428 3.5468598 2.5016769 0.8370468 -1.7245385 -5.5900004 -11.048436 -17.061654 -21.395934 -22.97992 -21.64245 -18.342336 -15.033024 -12.43329 -10.490988 -9.2430921 -8.8207471 -9.3540344 -10.934704 -13.570627 -17.083829 -20.975394 -24.376161 -26.244852 -25.831911 -23.127234 -18.893227 -14.209012 -9.9047336 -6.2961232 -3.2633395 -0.44184294 2.6939171 6.882187 12.806668 19.541045 24.766587 27.970503 29.809107 30.795361 31.177828 31.057328 30.460071 29.360758 27.661652 25.122066 21.245284 15.404729 8.1637482 1.9223879 -2.2689386 -4.9162487 -6.5263883 -7.3700366 -7.6231648 -7.4502838 -7.0088097 -6.4278933
4.016839 4.2277603 4.4218178 4.5819899 4.6830348 4.6881929 4.5450439 4.1808622 3.4985337 2.3751498 0.66578771 -1.7887821 -5.1650326 -9.679579 -15.37434 -21.03249 -24.396452 -24.556669 -21.637894 -16.936711 -12.707756 -9.7923246 -8.0644681 -7.4031887 -7.7972465 -9.2820338 -11.865053 -15.40978 -19.48168 -23.251168 -25.625829 -25.696859 -23.267617 -19.00924 -14.059372 -9.4078649 -5.5442043 -2.4821728 0.045904163 2.4435888 5.2399104 9.1720601 14.912184 21.530202 26.675498 29.794808 31.50052 32.25112 32.242901 31.526098 30.052332 27.629525 23.808596 17.995617 10.776872 4.5583713 0.35847309 -2.361379 -4.149097 -5.2913618 -5.9342963 -6.1780511 -6.1173794 -5.8462074 -5.4480575
4.1310993 4.347002 4.5427534 4.6990814 4.7873511 4.76584 4.5752264 4.1340458 3.3362533 2.055446 0.16306591 -2.4330535 -5.7388995 -9.6640785 -14.12369 -19.003338 -23.222888 -24.908161 -23.53302 -19.501565 -14.246822 -9.9970133 -7.4785947 -6.4181757 -6.5883839 -7.9170704 -10.381878 -13.869193 -18.001731 -22.003004 -24.767496 -25.270638 -23.14693 -18.957838 -13.860625 -8.9614182 -4.8808145 -1.728134 0.70328464 2.7535136 4.8237866 7.4185674 11.24927 16.958757 23.576131 28.714675 31.738979 33.172104 33.374915 32.446276 30.290197 26.551192 20.717093 13.44379 7.1538537 2.8775653 0.065829835 -1.8520372 -3.1830393 -4.0794415 -4.6255954 -4.8837232 -4.9132919 -4.7741095 -4.521974
4.2482776 4.4685405 4.6646284 4.8145539 4.8855602 4.8298303 4.5794077 4.0414807 3.0971994 1.6108212 -0.53952173 -3.3981743 -6.8435063 -10.538969 -14.055908 -17.229854 -20.282205 -22.684784 -23.002432 -20.865908 -16.62939 -11.608445 -7.8843528 -6.067202 -5.8210577 -6.8885078 -9.162377 -12.51864 -16.617086 -20.732095 -23.768342 -24.62445 -22.793553 -18.725492 -13.569923 -8.5117178 -4.2677645 -1.0172143 1.4050355 3.3044785 5.0209556 6.9212611 9.4715847 13.346746 19.153533 25.846341 30.936584 33.625348 34.228295 32.904516 29.498817 23.702039 16.325337 9.8794799 5.4481466 2.4868525 0.41830071 -1.0784467 -2.168111 -2.9390382 -3.4458366 -3.7313147 -3.8362631 -3.8015385 -3.6661523
4.3682179 4.5924671 4.787884 4.9293464 4.9793289 4.882958 4.5622913 3.9114492 2.7969494 1.0724086 -1.377501 -4.5500144 -8.2078182 -11.818871 -14.708264 -16.491546 -17.535313 -18.75957 -20.051289 -19.97014 -17.95651 -14.157103 -9.7421064 -6.7276949 -5.6900365 -6.293613 -8.2654596 -11.412522 -15.396011 -19.523798 -22.717001 -23.826693 -22.239131 -18.307555 -13.158658 -8.0217525 -3.6768815 -0.35154025 2.0899184 3.9314125 5.4821174 7.0435461 8.9393837 11.597598 15.650234 21.634809 28.359931 33.017797 34.366231 32.306969 26.943144 19.524463 12.872105 8.2009466 5.0130609 2.7404541 1.0546069 -0.22105354 -1.1848497 -1.8957189 -2.3938432 -2.7118744 -2.8803677 -2.9293267 -2.8874984
4.4902796 4.718198 4.9120148 5.0430603 5.0684206 4.9252843 4.5245935 3.74625 2.4416711 0.45549905 -2.3154408 -5.8122604 -9.6792083 -13.218169 -15.602598 -16.364335 -15.83573 -15.149952 -15.552188 -16.793885 -17.111948 -15.693281 -12.56387 -8.8457959 -6.5678358 -6.3308973 -7.796824 -10.620085 -14.401854 -18.448098 -21.685687 -22.93635 -21.516635 -17.710052 -12.614123 -7.4709767 -3.0911465 0.26936631 2.7253237 4.54444 6.0173742 7.4133552 8.9888653 11.030281 13.929884 18.256328 24.360194 30.540263 32.968639 29.843566 22.972549 16.191906 11.21712 7.7219619 5.1781504 3.2580301 1.7748122 0.61844088 -0.27928761 -0.96350891 -1.4671345 -1.8172501 -2.038529 -2.154507 -2.1875023
4.6135625 4.8448294 5.036126 5.1548389 5.1520889 4.9563542 4.4665847 3.5478577 2.0371172 -0.22629335 -3.3245935 -7.1298233 -11.16151 -14.579264 -16.479359 -16.426777 -14.816161 -12.740848 -11.542321 -12.191453 -14.042956 -15.076731 -14.361343 -11.915699 -8.9004699 -7.3746264 -7.9598362 -10.252588 -13.707037 -17.56472 -20.729712 -22.001201 -20.659914 -16.950077 -11.939027 -6.8534062 -2.5032802 0.84528369 3.2928368 5.0925452 6.5198311 7.8236847 9.2259822 10.944921 13.233932 16.430083 20.918615 26.321415 29.064032 25.64204 19.566387 14.420668 10.597898 7.7376219 5.5432303 3.8253921 2.4639878 1.3805527 0.52198552 -0.1493802 -0.6621315 -1.0398403 -1.3034419 -1.4723373 -1.5646241
4.7370996 4.9714352 5.159392 5.2640632 5.2301216 4.9767472 4.3903682 3.3212405 1.5934149 -0.95417598 -4.3730484 -8.4537074 -12.587506 -15.817195 -17.223381 -16.479255 -14.104786 -11.186627 -8.8855323 -8.1705831 -9.5919398 -12.234503 -13.992899 -13.949728 -12.167964 -9.8699227 -9.1313151 -10.514036 -13.419919 -16.938026 -19.895779 -21.061457 -19.704002 -16.054235 -11.149021 -6.1747508 -1.9134756 1.3750911 3.782802 5.5482722 6.9308816 8.1614695 9.4369847 10.933929 12.826697 15.296384 18.467846 21.95534 23.57915 21.295529 17.155392 13.348171 10.274896 7.8355466 5.8889467 4.3233082 3.0572468 2.0321708 1.2054225 0.54507664 0.02614437 -0.37207899 -0.66770708 -0.87717657 -1.0155912
4.8599931 5.0972753 5.2813643 5.3707938 5.3034474 4.9888575 4.3007944 3.0752971 1.1258679 -1.7035395 -5.4247558 -9.7378962 -13.90882 -16.891472 -17.800195 -16.458492 -13.52908 -10.110529 -7.2196947 -5.5803281 -5.7355334 -7.9959947 -11.38041 -13.797736 -14.399269 -13.303514 -11.753046 -11.779016 -13.738177 -16.666827 -19.238943 -20.158027 -18.687103 -15.056906 -10.269445 -5.4491672 -1.3270724 1.85742 4.1922347 5.9009974 7.2248765 8.3748741 9.5235934 10.811601 12.352079 14.214804 16.341181 18.284725 18.967304 17.645766 15.070954 12.331138 9.8882595 7.8254719 6.1118681 4.6945894 3.5240358 2.5592223 1.7675151 1.1229418 0.60437351 0.19400611 -0.12373095 -0.36284312 -0.53609249
4.9814805 5.2218952 5.4021163 5.4759662 5.3743673 4.997104 4.2054992 2.8224228 0.65360106 -2.4466133 -6.4430968 -10.941645 -15.092316 -17.789698 -18.217768 -16.366168 -13.03119 -9.3188576 -6.1381472 -4.0337826 -3.3249536 -4.343657 -7.3439981 -11.385831 -14.435658 -15.699413 -15.325239 -14.489596 -15.029992 -16.940472 -18.851892 -19.345977 -17.654731 -13.999572 -9.3330765 -4.6971591 -0.75320308 2.2909771 4.5235356 6.1529117 7.4002201 8.4548915 9.4648966 10.538347 11.741015 13.075324 14.422655 15.456528 15.684127 14.838776 13.195248 11.256776 9.3652932 7.6634443 6.1862555 4.9254251 3.858796 2.9620417 2.2127369 1.5913386 1.0809974 0.66702427 0.33636587 0.077223089 -0.12116523
5.1009248 5.3451138 5.5222278 5.5813683 5.4465165 5.0078433 4.1146871 2.5779763 0.19834531 -3.1548617 -7.3946188 -12.033155 -16.119741 -18.51798 -18.503881 -16.229496 -12.60232 -8.7241708 -5.4163626 -3.1043082 -1.9597132 -2.1212564 -3.8855273 -7.5428145 -12.208399 -15.910386 -17.860031 -18.143016 -17.739721 -18.122171 -18.920641 -18.721382 -16.670154 -12.933266 -8.3798371 -3.9447872 -0.20408865 2.6747121 4.7833737 6.3155286 7.4716772 8.4196741 9.2849166 10.149999 11.051526 11.966833 12.790509 13.323907 13.337851 12.726834 11.604745 10.211333 8.7605482 7.3811239 6.1315254 5.0294471 4.0727753 3.2511225 2.5514521 1.9605532 1.4659671 1.0562125 0.72074318 0.44984551 0.23456192
5.2177293 5.4669011 5.6426132 5.6894105 5.5245742 5.0290417 4.0408123 2.3600242 -0.21578955 -3.799476 -8.2503035 -12.991535 -16.98835 -19.096745 -18.695018 -16.082166 -12.25041 -8.2863137 -4.9379986 -2.5484798 -1.2056177 -0.93010367 -1.8381316 -4.2649984 -8.5596948 -13.869679 -18.226805 -20.764703 -21.356192 -20.655373 -19.811635 -18.479286 -15.842095 -11.929086 -7.458974 -3.2225366 0.30675689 3.008814 4.9819554 6.4063579 7.4630434 8.3002547 9.0249097 9.702443 10.356058 10.962482 11.4482 11.699929 11.60642 11.122207 10.301302 9.2655563 8.1432893 7.030523 5.9845829 5.0333219 4.1862697 3.44289 2.7976635 2.2429106 1.7702387 1.3712277 1.037728 0.76198305 0.53668537
5.3311905 5.5871575 5.7641999 5.8026698 5.6136466 5.0694952 3.9976983 2.1885184 -0.56283364 -4.3513515 -8.9848501 -13.805211 -17.708215 -19.557017 -18.831671 -15.957265 -11.986617 -7.9842743 -4.638427 -2.2344632 -0.8120336 -0.33341825 -0.80816423 -2.3924479 -5.4688401 -10.414342 -16.359182 -21.221175 -23.92762 -24.04327 -21.977948 -19.004724 -15.383245 -11.10367 -6.636361 -2.5648794 0.76664044 3.2957543 5.1320742 6.4455642 7.4007321 8.1296067 8.7253309 9.2431882 9.7025626 10.088503 10.355842 10.441774 10.290419 9.8814203 9.2437127 8.4436877 7.5588101 6.6558666 5.7821102 4.9660871 4.2222892 3.5559776 2.9668702 2.4515875 2.0051463 1.6218211 1.2956253 1.0205794 0.79086722
5.4403116 5.7054259 5.8874898 5.9232329 5.7183005 5.1374458 3.9986545 2.0829653 -0.81733656 -4.7825166 -9.5755764 -14.467013 -18.294219 -19.932535 -18.953446 -15.884871 -11.821769 -7.8060222 -4.4793868 -2.0878076 -0.64317629 -0.080034826 -0.35829851 -1.5275908 -3.7855578 -7.527429 -13.07974 -19.447762 -24.316284 -26.342508 -24.957953 -20.776441 -15.693425 -10.670685 -6.0161417 -2.0182204 1.1602867 3.5375851 5.245872 6.4518007 7.3083799 7.9357066 8.4174908 8.8036252 9.1141136 9.3434372 9.4668163 9.4505038 9.2661913 8.9050965 8.3844818 7.742952 7.0284408 6.2864094 5.5529839 4.853217 4.2024103 3.6084964 3.0743451 2.5995686 2.181791 1.817484 1.5024993 1.232403 1.0026908
5.5436115 5.820591 6.0120907 6.0519697 5.8414442 5.2388843 4.0539925 2.0590821 -0.95811806 -5.0687713 -10.001453 -14.967876 -18.755691 -20.249261 -19.09237 -15.890385 -11.767262 -7.7473081 -4.4402914 -2.0673338 -0.62542166 -0.036957622 -0.24054649 -1.2357908 -3.1069776 -6.0484487 -10.382901 -16.268879 -22.463009 -26.436622 -26.811118 -23.341069 -17.256099 -11.01834 -5.7942617 -1.6700333 1.4529527 3.7250891 5.3271809 6.4363138 7.2019725 7.7375294 8.1211427 8.4003175 8.5972303 8.7142211 8.7400922 8.6579117 8.4538594 8.1248964 7.6823327 7.1499716 6.5583895 5.9385278 5.3170927 4.7144914 4.1447424 3.6164324 3.1339906 2.6988795 2.3105482 1.9671363 1.6659692 1.403898 1.1775341
5.6389738 5.9306349 6.1363328 6.1879424 5.9834314 5.3762203 4.169135 2.1263384 -0.97090517 -5.1913883 -10.242188 -15.29233 -19.089371 -20.518373 -19.268334 -15.993431 -11.836162 -7.8122199 -4.5153014 -2.1550947 -0.72302171 -0.13786426 -0.33031782 -1.2774647 -3.0062751 -5.5812621 -9.094501 -13.665495 -19.196629 -24.260293 -26.42745 -24.754697 -19.587582 -12.608664 -6.3463093 -1.7122839 1.5539523 3.8166917 5.3589312 6.3951955 7.0850816 7.542559 7.844441 8.0381587 8.1485626 8.1839828 8.1420852 8.0158688 7.7995 7.4929551 7.1042693 6.6489164 6.1470193 5.6198402 5.0868606 4.5640679 4.0634022 3.5929881 3.1577514 2.7601324 2.4007423 2.0789008 1.7930503 1.5410632 1.3204671
5.7235678 6.0325038 6.2570608 6.3281059 6.1416638 5.5478125 4.3441606 2.287675 -0.84828017 -5.1367751 -10.27795 -15.418488 -19.279331 -20.735895 -19.488587 -16.207196 -12.042213 -8.0116437 -4.7106229 -2.3510377 -0.9268349 -0.35849325 -0.57516706 -1.5435116 -3.2589182 -5.7090901 -8.824142 -12.456734 -16.454147 -20.602679 -23.706142 -23.870204 -20.736644 -14.950472 -8.130917 -2.5318146 1.2552508 3.7058255 5.2859408 6.300155 6.9440674 7.3448677 7.5843413 7.7128409 7.7586578 7.7349537 7.6454153 7.4891866 7.2651006 6.9748341 6.6245334 6.2247729 5.789214 5.332678 4.8693394 4.4114691 3.9688229 3.5485544 3.1554553 2.7923442 2.4604861 2.1599743 1.8900521 1.6493685 1.4361773
5.793859 6.1221044 6.3696218 6.4673099 6.3106644 5.7482229 4.5743948 2.5405369 -0.58842488 -4.8958883 -10.090777 -15.321787 -19.301378 -20.885635 -19.748375 -16.536905 -12.396986 -8.3601119 -5.0413696 -2.6691468 -1.247901 -0.70386892 -0.96765012 -1.9996847 -3.7721662 -6.2157435 -9.1455989 -12.216589 -15.013862 -17.351267 -19.383309 -20.568947 -19.542955 -16.093617 -10.68381 -4.6068919 0.15324513 3.1696629 4.9898938 6.0866227 6.7425637 7.1230201 7.3266104 7.4121765 7.4136506 7.349136 7.2270998 7.0509744 6.8226565 6.5449643 6.2229874 5.8643559 5.4786629 5.0764295 4.6680134 4.262744 3.8684006 3.4910169 3.134927 2.8029532 2.4966555 2.2165885 1.9625357 1.7337113 1.5289247
5.8457085 6.1944193 6.4680071 6.5984892 6.4823597 5.9686461 4.8509982 2.8774494 -0.1950977 -4.4656315 -9.6679624 -14.979676 -19.12708 -20.940597 -20.02929 -16.976443 -12.9064 -8.8729623 -5.5291362 -3.1345859 -1.7127814 -1.1995224 -1.5279818 -2.651746 -4.5177904 -6.9992582 -9.809881 -12.461711 -14.376254 -15.225464 -15.34896 -15.61377 -15.925905 -14.917577 -12.060332 -7.4804518 -2.2415174 1.800002 4.2445322 5.632995 6.4123852 6.8363733 7.0447441 7.116239 7.0956291 7.0079783 6.8668615 6.6795581 6.4505222 6.183661 5.8836431 5.5563889 5.2089418 4.8489653 4.4841163 4.1214825 3.767188 3.4261902 3.10224 2.797955 2.5149575 2.254038 2.0153196 1.7984082 1.6025236
5.8745518 6.2437187 6.5450949 6.7129312 6.6463481 6.1971174 5.1609687 3.285509 0.32085222 -3.8518387 -9.0063803 -14.376148 -18.726532 -20.862274 -20.29544 -17.50372 -13.567197 -9.5640737 -6.2001697 -3.781295 -2.3593997 -1.8838761 -2.2901371 -3.5202856 -5.48675 -7.9937307 -10.652232 -12.867244 -13.998752 -13.71474 -12.34907 -10.956358 -10.726236 -11.38378 -11.169587 -9.2168093 -5.453906 -0.8832895 2.6471482 4.7168374 5.8334858 6.4164227 6.6963615 6.7959166 6.7818861 6.6914629 6.5455944 6.3563071 6.1310102 5.8750994 5.5934663 5.2912337 4.9739502 4.6474435 4.3175122 3.9895948 3.6685032 3.3582561 3.0620143 2.7820968 2.5200514 2.2767541 2.0525204 1.8472141 1.6603473
5.8756495 6.2638573 6.5929807 6.8005982 6.7901294 6.4185016 5.486681 3.7452505 0.93953363 -3.0720752 -8.1160613 -13.505613 -18.071313 -20.601334 -20.491626 -18.07739 -14.363366 -10.442581 -7.0823402 -4.6486325 -3.2323046 -2.8006767 -3.2895625 -4.6211757 -6.658928 -9.123248 -11.523123 -13.196416 -13.532715 -12.317589 -9.9662277 -7.4446522 -5.9500462 -6.3649288 -7.9804554 -8.7096837 -7.5494162 -4.3951732 -0.26600675 2.9442117 4.7887851 5.7459171 6.2138782 6.4085976 6.4426448 6.3764843 6.2437668 6.0638969 5.8486506 5.6058457 5.3414115 5.0605027 4.768014 4.4687257 4.1672448 3.8678632 3.5744108 3.2901466 3.0177036 2.7590838 2.5156932 2.2884017 2.077617 1.8833617 1.7053484
5.8444048 6.2486643 6.6034268 6.8505918 6.8994791 6.6145934 5.8054643 4.2295004 1.6301858 -2.1577711 -7.0222925 -12.375324 -17.138188 -20.102686 -20.547552 -18.637304 -15.262516 -11.507241 -8.1993222 -5.7756289 -4.3760896 -3.9902661 -4.5511319 -5.9496765 -7.9839434 -10.280706 -12.263374 -13.260073 -12.774601 -10.780871 -7.8103927 -4.7450686 -2.5060315 -1.8926113 -3.3531434 -5.9174338 -7.3939329 -6.7771298 -4.0080441 -0.14013566 2.891951 4.6121417 5.4825355 5.8879688 6.0359713 6.0339151 5.9393517 5.7845939 5.5887091 5.3636599 5.1175925 4.8566263 4.5858033 4.3095491 4.0318541 3.7563085 3.4860753 3.2238519 2.9718455 2.7317726 2.50488 2.2919848 2.0935244 1.9096116 1.7400912
5.7767391 6.1924306 6.5684752 6.851883 6.959243 6.7648452 6.0900341 4.7032247 2.3502698 -1.1557087 -5.7674312 -11.008403 -15.915576 -19.315592 -20.38714 -19.107762 -16.212246 -12.738798 -9.561698 -7.1917659 -5.8253935 -5.4779235 -6.0755155 -7.4662545 -9.3704754 -11.325883 -12.711038 -12.917935 -11.631841 -9.0314045 -5.7344169 -2.5226254 -0.069190795 1.1367328 0.67529487 -1.6926568 -4.9340666 -6.8898322 -6.5935684 -4.0354938 -0.30995322 2.6331714 4.2926458 5.1212042 5.4969033 5.6230048 5.6045686 5.4980919 5.3356124 5.1363316 4.9124735 4.6723703 4.42213 4.1665368 3.9095241 3.6544094 3.4040016 3.1606485 2.9262617 2.7023371 2.489982 2.2899477 2.1026691 1.9283067 1.7667896
5.6694997 6.0904729 6.4812208 6.7943576 6.9547199 6.8481291 6.310598 5.1257704 3.0473461 -0.12742912 -4.4130558 -9.4505728 -14.41567 -18.208653 -19.940928 -19.402872 -17.137613 -14.091398 -11.154708 -8.9027152 -7.5894402 -7.2576975 -7.8235595 -9.0851017 -10.685472 -12.101027 -12.729255 -12.099827 -10.111565 -7.1126376 -3.7402929 -0.643134 1.7141824 3.0696712 3.239427 1.9480223 -1.0241148 -4.6708071 -6.8883981 -6.7589516 -4.3000904 -0.638772 2.2642823 3.9005828 4.7141219 5.080122 5.2000424 5.1781731 5.0708562 4.9102914 4.7159441 4.5002543 4.271631 4.0360792 3.7981022 3.5612057 3.3281793 3.1012562 2.8822068 2.6724009 2.4728534 2.2842649 2.1070605 1.9414265 1.7873468
5.5208551 5.9397107 6.3366577 6.6700622 6.8734913 6.8453922 6.4385846 5.4557367 3.6645352 0.85500257 -3.0401401 -7.7775724 -12.688747 -16.787394 -19.162592 -19.437808 -17.94354 -15.485116 -12.92273 -10.869972 -9.6301828 -9.2724098 -9.7022741 -10.671928 -11.769648 -12.463693 -12.243539 -10.826564 -8.3103936 -5.140409 -1.9001621 0.91781874 3.022021 4.2975906 4.704463 4.1450597 2.3424411 -0.96546145 -4.8258277 -7.1664347 -7.109095 -4.6897693 -1.0443099 1.8478309 3.4811819 4.2951672 4.6633798 4.7868056 4.7697029 4.6686302 4.5160805 4.3317751 4.1283041 3.9140879 3.6950023 3.4752992 3.2581426 3.0459261 2.8404677 2.6431333 2.4549199 2.2765165 2.108352 1.9506359 1.803393
5.3306154 5.7391594 6.1324424 6.47439 6.7072645 6.742489 6.4508678 5.6569024 4.1479529 1.7166471 -1.743727 -6.0948698 -10.82946 -15.107516 -18.047944 -19.148306 -18.526543 -16.804444 -14.755057 -12.988735 -11.838877 -11.39615 -11.560841 -12.059938 -12.473584 -12.330925 -11.273307 -9.2138017 -6.3914466 -3.2638345 -0.30581119 2.146529 3.9364534 5.0400673 5.4872674 5.2791535 4.2989706 2.2268416 -1.2393742 -5.1916928 -7.5799045 -7.5410305 -5.1295271 -1.4793254 1.4214399 3.0626325 3.8854827 4.2626831 4.3953022 4.3878672 4.2972607 4.1562675 3.9848147 3.7955865 3.5969825 3.3947542 3.1929477 2.9944658 2.8014119 2.6153086 2.4372389 2.2679437 2.1078909 1.9573272 1.8163195
5.1004214 5.4902421 5.8694087 6.2069275 6.4532531 6.5323974 6.333235 5.7034518 4.4541969 2.3897617 -0.62052047 -4.5247233 -8.967836 -13.27554 -16.647624 -18.511377 -18.794301 -17.908175 -16.48373 -15.07778 -14.025724 -13.43295 -13.206827 -13.086272 -12.70494 -11.71647 -9.9403259 -7.4496701 -4.545714 -1.6267539 0.96527655 3.0297806 4.5051458 5.4187699 5.8293542 5.7768903 5.2349527 4.0471977 1.8550552 -1.6731454 -5.6471476 -8.0421402 -7.9959399 -5.5715562 -1.910927 1.0064196 2.6616146 3.4975258 3.8872534 4.0321204 4.037 3.9590899 3.8314177 3.6740615 3.49976 3.3168789 3.1310622 2.946195 2.7649852 2.5893264 2.4205311 2.2594852 2.1067532 1.9626522 1.8273063
4.8337611 5.1968571 5.5517289 5.8717875 6.1148164 6.2163992 6.0825183 5.5837725 4.5570222 2.8251022 0.24858315 -3.1833469 -7.2461427 -11.432824 -15.063471 -17.554845 -18.684827 -18.65178 -17.904338 -16.898585 -15.941203 -15.145874 -14.446133 -13.637207 -12.462681 -10.736604 -8.4417414 -5.7482014 -2.9463022 -0.33507751 1.8706595 3.5730031 4.7699506 5.5131623 5.8686009 5.8867902 5.5781083 4.8815756 3.6098386 1.3802045 -2.1608704 -6.1268307 -8.5053179 -8.4417794 -5.9950415 -2.3174528 0.61545446 2.2871781 3.1379333 3.5417099 3.7001705 3.7185097 3.6541876 3.5404176 3.397382 3.2378474 3.0701421 2.8998223 2.7306498 2.5651886 2.4051805 2.2517892 2.1057624 1.9675419 1.8373412
4.5358072 4.8651818 5.1866916 5.4773836 5.7012958 5.8041371 5.7072316 5.3024318 4.4520702 3.0015663 0.81539053 -2.15583 -5.7879999 -9.7250673 -13.426412 -16.350399 -18.178422 -18.917543 -18.819654 -18.207417 -17.333146 -16.315484 -15.135318 -13.681078 -11.836977 -9.5741961 -6.9923903 -4.293162 -1.710327 0.56174695 2.4099663 3.8050147 4.7772147 5.3857255 5.6933764 5.7493853 5.5765493 5.1566376 4.4039855 3.1119294 0.88468515 -2.6417402 -6.5914198 -8.9454514 -8.8603376 -6.3933628 -2.6926889 0.25573984 1.9435769 2.8095237 3.2276442 3.3999634 3.4319401 3.3812367 3.2811998 3.1520798 3.0066543 2.8532157 2.6972496 2.5424239 2.3911962 2.2451983 2.1054874 1.9727128 1.8472302
4.2130921 4.5032437 4.7841367 5.0357012 5.2271097 5.3125778 5.2265841 4.8797016 4.1578549 2.9303183 1.0742335 -1.4775296 -4.6693704 -8.2665111 -11.86373 -14.995328 -17.301959 -18.644023 -19.09086 -18.820957 -18.017662 -16.804032 -15.223378 -13.273279 -10.97391 -8.4166607 -5.7613 -3.1945239 -0.88058059 1.0721139 2.6201285 3.7742153 4.5787728 5.0914148 5.3677351 5.4515179 5.3680885 5.1174142 4.6621021 3.9016616 2.6185736 0.40918539 -3.0913453 -7.0185958 -9.3508354 -9.2426484 -6.7586011 -3.0378708 -0.070792895 1.632112 2.5126926 2.9447324 3.1305208 3.1757216 3.1381438 3.0512257 2.9352595 2.8030224 2.662774 2.519943 2.3781257 2.2397001 2.106217 1.9786556 1.857594
3.8730642 4.120316 4.3556337 4.5611807 4.7102486 4.764014 4.6678947 4.3483559 3.712124 2.6514648 1.0609573 -1.1289875 -3.902977 -7.1129991 -10.467767 -13.589701 -16.125332 -17.845415 -18.676671 -18.667535 -17.931461 -16.594378 -14.762229 -12.531136 -10.02335 -7.3991304 -4.8322165 -2.4742998 -0.43008003 1.2501933 2.5637256 3.5407419 4.2288561 4.6801083 4.942038 5.0522493 5.0349671 4.8977257 4.6258203 4.1705302 3.4230571 2.1601339 -0.026666582 -3.5037979 -7.4039196 -9.7164591 -9.5874598 -7.0841729 -3.3502484 -0.36540172 1.3521597 2.2463688 2.6915053 2.8900055 2.9476828 2.9224481 2.8477993 2.7440512 2.6239741 2.4957973 2.3649035 2.2348328 2.1079022 1.9856011 1.8688495
3.5235809 3.7262219 3.9135187 4.0693791 4.1704008 4.1834236 4.0628518 3.7483835 3.1645276 2.2244215 0.84163541 -1.046347 -3.4429868 -6.2555699 -9.2777959 -12.214311 -14.746994 -16.611585 -17.646842 -17.806369 -17.145199 -15.786185 -13.880209 -11.590241 -9.0950006 -6.5784197 -4.2020468 -2.0823526 -0.2834777 1.1769818 2.3153315 3.1679996 3.7799457 4.1963262 4.45721 4.5945442 4.6303591 4.5751558 4.4252631 4.1573117 3.7161733 2.9884973 1.7479699 -0.41545502 -3.8735264 -7.7511279 -10.042575 -9.8967724 -7.3739257 -3.6264858 -0.62936361 1.1019142 2.0086482 2.4658696 2.6761459 2.7453918 2.7315857 2.6682615 2.5757435 2.4667902 2.3496033 2.2295267 2.1100548 1.9934559 1.8811701
3.1723985 3.3306343 3.4699246 3.5756071 3.6270131 3.5956677 3.4434131 3.1209441 2.5677595 1.7152565 0.49542229 -1.1424541 -3.2068694 -5.6365151 -8.282886 -10.917932 -13.271372 -15.084871 -16.162729 -16.40751 -15.834265 -14.553894 -12.733838 -10.564803 -8.2416506 -5.9429941 -3.8088989 -1.929079 -0.34480561 0.94067844 1.9491053 2.7154321 3.2790839 3.6782251 3.9463888 4.1106636 4.1907067 4.1979326 4.1342112 3.9891658 3.7344151 3.3112186 2.6037228 1.3838863 -0.75848403 -4.1965712 -8.0598984 -10.332439 -10.171868 -7.6355741 -3.8712005 -0.86385347 0.87907188 1.7972087 2.2654523 2.4865139 2.5663745 2.5630547 2.5101074 2.4278571 2.3290473 2.2218533 2.1115848 2.0016971 1.8944166
2.8267149 2.9424548 3.0359248 3.0937346 3.097593 3.0230362 2.8381958 2.5030024 1.9695599 1.1848848 0.097612384 -1.3298349 -3.1035483 -5.1782037 -7.4425753 -9.720049 -11.789421 -13.422438 -14.428558 -14.696595 -14.219755 -13.09001 -11.465191 -9.5308479 -7.4708025 -5.4442743 -3.5695264 -1.9184714 -0.52168907 0.62107777 1.5295569 2.233386 2.7652858 3.1567564 3.4356351 3.6248368 3.7417177 3.797621 3.7971988 3.7370285 3.6027273 3.3629773 2.956959 2.2674096 1.0653309 -1.0603917 -4.4791304 -8.32893 -10.589131 -10.414488 -7.8691906 -4.0917483 -1.0717058 0.68121263 1.6095865 2.0878214 2.3187011 2.4082508 2.4145147 2.3710527 2.2981828 2.2086307 2.1105457 2.009205 1.9080275
2.4928102 2.5693344 2.6208897 2.6353103 2.5964867 2.4835165 2.269983 1.9236777 1.4073123 0.68103992 -0.29219723 -1.5376343 -3.0560615 -4.8097403 -6.7115693 -8.6236306 -10.36963 -11.761412 -12.635202 -12.888915 -12.507015 -11.560348 -10.18167 -8.531623 -6.7687914 -5.0281372 -3.4086272 -1.9705278 -0.74034843 0.28045808 1.1064045 1.7603907 2.2682629 2.6553447 2.9444394 3.1547846 3.3015314 3.3954215 3.4423929 3.4428244 3.3900125 3.2671254 3.0410712 2.6497892 1.9751847 0.78780742 -1.3246388 -4.730811 -8.5644159 -10.815158 -10.628875 -8.0723323 -4.2885662 -1.256645 0.50583713 1.4433521 1.9306232 2.1704273 2.2688158 2.2838436 2.2490691 2.1847984 2.1037366 2.0140054 1.9208492
2.1758067 2.2173719 2.232102 2.2090691 2.1342375 1.989949 1.7545891 1.4026873 0.90584891 0.23507133 -0.63493602 -1.7189875 -3.012439 -4.4814678 -6.0556346 -7.6267068 -9.0571356 -10.199279 -10.922978 -11.144684 -10.84752 -10.083069 -8.9545954 -7.5907329 -6.1202388 -4.6535899 -3.273011 -2.0303695 -0.9507874 -0.039086251 0.71335115 1.3227137 1.80841 2.1901762 2.4863287 2.7127931 2.8825937 3.0055571 3.0880321 3.1324379 3.1364088 3.0911526 2.978289 2.7636108 2.384282 1.7216895 0.54610927 -1.5545524 -4.95312 -8.7748854 -11.014134 -10.819477 -8.2506808 -4.4597041 -1.4209696 0.35044084 1.2962074 1.7916645 2.0396033 2.146086 2.1691688 2.1424021 2.0860753 2.0128693 1.9308747
1.8795586 1.8909934 1.8746337 1.8208174 1.717502 1.5500063 1.3009569 0.95063621 0.4780161 -0.13716607 -0.91093527 -1.850035 -2.9456079 -4.1666876 -5.4555091 -6.7272368 -7.8764294 -8.7911309 -9.3728935 -9.5577368 -9.3306919 -8.7278866 -7.825614 -6.7216984 -5.5163618 -4.2976095 -3.1329952 -2.0673683 -1.1249534 -0.31371447 0.36971774 0.93562918 1.3977835 1.7710099 2.0696503 2.3066307 2.4929326 2.6372812 2.7459017 2.8222114 2.8663016 2.8739992 2.8351399 2.7303278 2.5246247 2.1546867 1.501564 0.33525283 -1.7555729 -5.144641 -8.9616186 -11.190364 -10.988286 -8.4124322 -4.6100806 -1.5659902 0.21275256 1.1660376 1.668959 1.9243669 2.0383251 2.0688845 2.0495815 2.0006834 1.9348413
1.6066546 1.592991 1.5514448 1.4736293 1.349401 1.1667878 0.91212241 0.57053007 0.12696207 -0.43200559 -1.1154297 -1.9242941 -2.847153 -3.8559395 -4.9032934 -5.9230866 -6.8355998 -7.5578065 -8.0174281 -8.1672964 -7.9952895 -7.526098 -6.8143329 -5.9320035 -4.9549201 -3.9516928 -2.9770327 -2.0693343 -1.2515003 -0.53364042 0.083563322 0.60563925 1.0416722 1.4023275 1.6984945 1.9404128 2.1371357 2.2961975 2.4233749 2.522445 2.5948416 2.6390831 2.6497749 2.6158242 2.5171451 2.3183011 1.9555999 1.3098627 0.15089397 -1.9330939 -5.3117755 -9.1232457 -11.346736 -11.136797 -8.5573745 -4.7467243 -1.6941535 0.090820894 1.050946 1.560752 1.8231029 1.9440606 1.9816645 1.9694311 1.9275983
1.3585136 1.3246825 1.2636402 1.1682506 1.0301414 0.8397591 0.586614 0.25982073 -0.15094086 -0.6539232 -1.2531967 -1.9459855 -2.7197466 -3.5495966 -4.3969996 -5.2107657 -5.9311984 -6.4975144 -6.8574919 -6.9770432 -6.8467864 -6.4833731 -5.9252183 -5.2243351 -4.4370325 -3.6159412 -2.8047317 -2.0357409 -1.3299581 -0.69851584 -0.14486668 0.33295864 0.74036282 1.0846083 1.3736658 1.6154224 1.8171591 1.985209 2.1247175 2.23943 2.3314407 2.400819 2.4449988 2.45774 2.427304 2.3331223 2.1394067 1.7822164 1.1422039 -0.0108632 -2.0897183 -5.4632119 -9.2650785 -11.484945 -11.26851 -8.6823737 -4.8694017 -1.8085036 -0.017137421 0.9492764 1.4655361 1.7344583 1.8620983 1.9064779 1.9010851
1.1355415 1.0861466 1.0108173 0.9036049 0.75774614 0.56579507 0.31992094 0.012441591 -0.36333291 -0.81188853 -1.3339207 -1.9244681 -2.5710181 -3.252023 -3.936428 -4.5848455 -5.1528163 -5.5960992 -5.8772091 -5.9717117 -5.8725039 -5.5907577 -5.1532937 -4.5973348 -3.9642745 -3.2940408 -2.6210576 -1.9721033 -1.3658316 -0.81345873 -0.32008426 0.11378697 0.49080325 0.815551 1.0936104 1.3308641 1.5330133 1.7052432 1.8519851 1.9767217 2.0817863 2.1681009 2.2347812 2.2784993 2.2924181 2.2643391 2.1733478 1.9834009 1.6303753 0.99479369 -0.15361285 -2.2272483 -5.5990802 -9.3944285 -11.607533 -11.386915 -8.7922314 -4.9753251 -1.9105115 -0.11278043 0.85961874 1.3820638 1.6573588 1.7915436 1.8426134
0.93732082 0.87649067 0.79144086 0.67731495 0.52877018 0.34014971 0.10579083 -0.17948675 -0.51967322 -0.91662284 -1.3688956 -1.8704868 -2.4096457 -2.9680925 -3.521019 -4.0382413 -4.4867077 -4.8342382 -5.0539286 -5.1282738 -5.0519433 -4.8324362 -4.4884643 -4.0465972 -3.5371273 -2.9901469 -2.4325351 -1.8861442 -1.3671244 -0.88611992 -0.44900526 -0.057866439 0.28798964 0.59112652 0.85522888 1.084522 1.2833418 1.4558232 1.6056726 1.7359858 1.8490795 1.9462946 2.0277256 2.0918119 2.134682 2.1490693 2.1224425 2.0336333 1.84641 1.496513 0.86436999 -0.2804226 -2.3494249 -5.716479 -9.5112826 -11.717668 -11.492986 -8.8942029 -5.0685139 -2.0005966 -0.19746764 0.78081393 1.3093675 1.591036 1.7318354
0.76280783 0.69411812 0.60320176 0.48617678 0.33892105 0.15725722 -0.062755583 -0.3243983 -0.62972016 -0.97882205 -1.3690335 -1.7940741 -2.2433513 -2.701608 -3.1491569 -3.562907 -3.9182597 -4.1917372 -4.36395 -4.4223027 -4.3628001 -4.1904966 -3.9184957 -3.5657991 -3.1545699 -2.7074225 -2.2452132 -1.7855719 -1.3421949 -0.92476874 -0.53932951 -0.18886186 0.12601903 0.40640904 0.654539 0.87330364 1.0658943 1.2355203 1.385199 1.5175885 1.6348409 1.7384469 1.8290418 1.9061294 1.9676625 2.0093765 2.0236916 1.9978315 1.9104399 1.725144 1.377581 0.74811048 -0.39376473 -2.4600123 -5.820397 -9.6130388 -11.817148 -11.587226 -8.987148 -5.1550935 -2.0802937 -0.27220039 0.71197951 1.2467915 1.5350728
0.61051917 0.53697054 0.4433276 0.32655417 0.18355019 0.011331367 -0.19271079 -0.43045663 -0.70261082 -1.0081738 -1.3438727 -1.703626 -2.0781537 -2.4548737 -2.8182281 -3.1505455 -3.4334562 -3.6497375 -3.7853198 -3.8310742 -3.7839962 -3.6475143 -3.4308651 -3.1477051 -2.814294 -2.447627 -2.0638324 -1.6770184 -1.2986202 -0.93719345 -0.59854268 -0.28606249 -0.0011799627 0.25618284 0.48717896 0.69366583 0.87790202 1.0423072 1.1892746 1.3210207 1.4394565 1.5460606 1.641733 1.7266016 1.7997433 1.8587574 1.8990911 1.9129335 1.8873264 1.8007732 1.6167952 1.2709528 0.64355211 -0.49586607 -2.5601688 -5.9182686 -9.7039078 -11.90668 -11.672222 -9.0670533 -5.2339478 -2.1517258 -0.33776797 0.65255567 1.1940508
0.47869545 0.40273224 0.3088344 0.19468172 0.058009682 -0.10322677 -0.29063137 -0.50508293 -0.74639436 -1.0129326 -1.3012357 -1.6056848 -1.9183105 -2.228823 -2.5249516 -2.7931438 -3.0196127 -3.1916343 -3.2989126 -3.3347712 -3.2969372 -3.187754 -3.0137864 -2.7849168 -2.5131311 -2.21123 -1.8916729 -1.5656914 -1.2427259 -0.93017255 -0.63338077 -0.35582645 -0.099385744 0.13535045 0.34876457 0.54192872 0.71636157 0.87382781 1.0161761 1.1452068 1.2625599 1.3696088 1.4673469 1.5562471 1.6360691 1.7055778 1.7621124 1.8009072 1.8139794 1.7882353 1.7020734 1.5189371 1.1743316 0.5485236 -0.58891835 -2.6504848 -6.0091685 -9.7902649 -11.98795 -11.750648 -9.1379018 -5.3014267 -2.2154147 -0.39475231 0.60237203
