ncols         65
nrows         65
xllcorner     -812.5
yllcorner     -812.5
cellsize      25
NODATA_value  -9999
8.2504279 6.9634428 5.939603 5.1325399 4.4987893 4.0039095 3.6216211 3.3319654 3.119696 2.9730452 2.8827857 2.8414997 2.8429831 2.88174 2.9525371 3.0500082 3.1683116 3.3008544 3.4401138 3.5775902 3.7039278 3.8092274 3.8835507 3.9175746 3.9033125 3.8347808 3.7084761 3.5235556 3.2816674 2.9864564 2.6428407 2.2561933 1.8315663 1.3730648 0.88342935 0.36384335 -0.18604879 -0.76793427 -1.3844388 -2.0385121 -2.7324912 -3.4666521 -4.2369555 -5.031617 -5.8262748 -6.5784 -7.2240865 -7.6844388 -7.8889372 -7.809013 -7.4750487 -6.9593748 -6.3426885 -5.6906727 -5.0475814 -4.4394036 -3.8793861 -3.3727687 -2.9200878 -2.5192716 -2.1669008 -1.8589421 -1.591164 -1.3593703 -1.1595308
9.8689766 8.3228338 7.0505634 6.042886 5.2538303 4.6403469 4.1684275 3.8122408 3.5522778 3.3737235 3.2651888 3.2177264 3.2240349 3.2777842 3.3730142 3.5035871 3.662692 3.842424 4.0334791 4.2250233 4.4048008 4.5595351 4.6756394 4.7401924 4.7420542 4.6729285 4.5281431 4.3069561 4.0122926 3.6499552 3.2274728 2.752819 2.233229 1.674276 1.0792834 0.44906916 -0.21803122 -0.92592699 -1.6803584 -2.4882849 -3.3569525 -4.2923598 -5.2965868 -6.3630627 -7.4683781 -8.5593727 -9.5377319 -10.25713 -10.565114 -10.393693 -9.8131145 -8.9780971 -8.037246 -7.0911628 -6.1952809 -5.3752245 -4.6396452 -3.9882947 -3.4165964 -2.9181014 -2.4857584 -2.1125396 -1.7917338 -1.5170716 -1.2827745
11.546834 9.9483 8.4180335 7.1635011 6.1758637 5.409655 4.8223761 4.3806114 4.0591521 3.8391196 3.7062976 3.6498058 3.6610327 3.732731 3.8582069 4.030563 4.2419879 4.483117 4.7425248 5.0064398 5.258793 5.4817066 5.6564809 5.7650405 5.7916633 5.7246827 5.5577726 5.2904745 4.92779 4.4789115 3.9553833 3.3690949 2.7304854 2.0472057 1.3233276 0.55904859 -0.24923539 -1.1086344 -2.0293547 -3.0242025 -4.1079026 -5.2959271 -6.6021417 -8.0337924 -9.5806865 -11.192372 -12.735173 -13.941476 -14.454671 -14.090597 -13.036191 -11.650864 -10.205082 -8.8354286 -7.5953158 -6.4979063 -5.5388578 -4.7070105 -3.9892019 -3.3723401 -2.8442092 -2.3937032 -2.0108232 -1.6865969 -1.4129894
12.30382 11.633375 10.051825 8.5409839 7.3086513 6.3466359 5.6101661 5.0575184 4.6561234 4.3816673 4.2161717 4.1462564 4.1617087 4.2542707 4.4165461 4.6409601 4.9187478 5.2389971 5.5878249 5.9478242 6.2979654 6.6141463 6.870531 7.0416718 7.1051782 7.0444428 6.8507658 6.5242642 6.0732435 5.512152 4.8586382 4.1304134 3.3425464 2.5055653 1.6244508 0.69837612 -0.27906785 -1.3194457 -2.4390734 -3.6587653 -5.0037266 -6.5033935 -8.1906441 -10.098865 -12.252691 -14.640329 -17.13359 -19.296299 -20.258637 -19.458397 -17.461157 -15.140163 -12.935114 -10.977854 -9.2839787 -7.8327787 -6.594845 -5.5411889 -4.6459406 -3.8867843 -3.2446262 -2.7030654 -2.2478913 -1.866686 -1.5485424
10.144907 12.394197 11.745998 10.184974 8.6986204 7.4948477 6.5663581 5.8693802 5.3633181 5.016838 4.8069267 4.7168917 4.7344959 4.8503393 5.0563894 5.3445611 5.7052935 6.1261385 6.5904619 7.0764531 7.5567315 7.9988859 8.3672344 8.6258864 8.7428166 8.6941993 8.4679031 8.0650562 7.4990853 6.792429 5.9718461 5.0635376 4.0891139 3.0629613 1.991052 0.87087732 -0.30798213 -1.5631472 -2.9189951 -4.4067538 -6.0652879 -7.9426052 -10.097894 -12.603172 -15.540735 -18.980985 -22.878124 -26.667603 -28.497529 -26.842891 -23.232747 -19.523122 -16.282867 -13.562315 -11.295885 -9.4063876 -7.8271545 -6.5044488 -5.3955565 -4.4663178 -3.6889815 -3.0405388 -2.5015186 -2.0551719 -1.686956
4.7168455 10.247974 12.513817 11.889312 10.355236 8.900463 7.7341908 6.8503588 6.2066668 5.7641795 5.4933768 5.3731234 5.3885182 5.528791 5.7853431 6.1498237 6.6121522 7.1584793 7.7692014 8.4172979 9.0674237 9.6763069 10.194975 10.573071 10.764937 10.736385 10.470352 9.9695623 9.2550913 8.3611518 7.3277091 6.1929952 4.9875857 3.7308301 2.4295752 1.0785673 -0.33831337 -1.8468034 -3.481648 -5.2870951 -7.3188017 -9.6473608 -12.363407 -15.582851 -19.443746 -24.054263 -29.233193 -33.781498 -35.648308 -33.969933 -29.614853 -24.638862 -20.246172 -16.623547 -13.668831 -11.250509 -9.259726 -7.6133031 -6.2482374 -5.116097 -4.1786912 -3.4049844 -2.7690204 -2.2486176 -1.8246095
-1.955996 4.8251906 10.373585 12.670657 12.071462 10.572675 9.15944 8.0431684 7.2196478 6.6487493 6.2939808 6.1284455 6.1336356 6.2969837 6.609314 7.0622655 7.645581 8.3442256 9.135455 9.9861922 10.851334 11.673833 12.387425 12.922518 13.214981 13.216335 12.902622 12.278801 11.37671 10.247045 8.9480504 7.5343058 6.048194 4.5151424 2.9424101 1.3203562 -0.37518582 -2.1807247 -4.1441273 -6.3254994 -8.8002735 -11.664397 -15.039904 -19.071619 -23.871724 -29.240551 -33.890423 -35.804853 -35.914132 -36.006077 -34.298462 -29.866775 -24.733647 -20.19344 -16.453218 -13.409019 -10.92513 -8.8894636 -7.2166027 -5.8416878 -4.7142572 -3.7936274 -3.0458259 -2.441772 -1.956322
-7.8159887 -1.8414387 4.9630887 10.534788 12.866458 12.304175 10.850811 9.4929423 8.4440872 7.7028204 7.2321907 6.9992178 6.9806412 7.161342 7.5313104 8.0822655 8.8039957 9.680376 10.685206 11.778332 12.90293 13.985175 14.937577 15.666767 16.085514 16.127134 15.758585 14.987402 13.859081 12.445454 10.828231 9.0828656 7.2665318 5.4117455 3.5252813 1.5907658 -0.42717261 -2.5792093 -4.9296242 -7.5574565 -10.560433 -14.059423 -18.192929 -23.055584 -28.401695 -32.833854 -34.063814 -32.866798 -32.147448 -33.08009 -34.496825 -33.499691 -29.320641 -24.255849 -19.711642 -15.943851 -12.869346 -10.362543 -8.3167094 -6.6489193 -5.2944684 -4.2010117 -3.3244707 -2.6267569 -2.0747808
-10.708368 -7.6914375 -1.6971732 5.1354956 10.744552 13.110227 12.601153 11.207623 9.9240433 8.9666754 8.3381038 8.0058753 7.9417653 8.1270439 8.5501173 9.2023694 10.073311 11.145211 12.387431 13.751128 15.165517 16.5374 17.755583 18.700924 19.261444 19.350612 18.924753 17.993133 16.615343 14.886218 12.913929 10.798187 8.613611 6.4007399 4.1646719 1.8792789 -0.5060829 -3.060491 -5.8684102 -9.0306128 -12.666893 -16.909172 -21.837158 -27.176755 -31.46509 -32.314486 -30.305718 -28.202067 -27.464957 -28.426298 -30.761452 -33.016587 -32.436664 -28.450132 -23.455227 -18.927043 -15.153856 -12.07225 -9.5686375 -7.543051 -5.9147594 -4.6171566 -3.5929795 -2.7918758 -2.1697915
-10.371137 -10.583115 -7.5383126 -1.5152793 5.3519239 11.007212 13.422506 12.979233 11.666283 10.482536 9.6492652 9.1745133 9.0316781 9.1980809 9.6591433 10.404462 11.421659 12.689338 14.16978 15.802415 17.499742 19.147872 20.613327 21.755858 22.44514 22.579735 22.106157 21.031732 19.423766 17.393905 15.073317 12.585841 10.025251 7.4413285 4.8365356 2.171512 -0.62475174 -3.6448769 -6.9971182 -10.80365 -15.192113 -20.231021 -25.627398 -29.880206 -30.569178 -28.166308 -25.34728 -23.473715 -22.905319 -23.707326 -25.822586 -28.899877 -31.586867 -31.2184 -27.334712 -22.370462 -17.843687 -14.067288 -10.995649 -8.526491 -6.5640073 -5.024349 -3.8323116 -2.9199364 -2.2273752
-8.7611462 -10.238284 -10.420711 -7.3516278 -1.2874883 5.6249399 11.332083 13.822665 13.460956 12.255193 11.204712 10.537756 10.269038 10.378041 10.845952 11.657574 12.794695 14.227291 15.904815 17.749465 19.653788 21.484909 23.096124 24.342768 25.096682 25.258169 24.769289 23.626851 21.887025 19.657169 17.075877 14.284286 11.395277 8.4700132 5.5084547 2.4542113 -0.79081697 -4.3489782 -8.3529173 -12.930419 -18.140055 -23.670309 -28.003746 -28.676672 -26.134148 -22.99202 -20.549333 -19.108009 -18.706916 -19.349001 -21.040142 -23.750771 -27.189232 -30.068244 -29.785796 -25.913339 -20.934353 -16.389813 -12.618695 -9.5932884 -7.2183234 -5.3915688 -4.0124158 -2.98605 -2.2288694
-7.1023895 -8.6222727 -10.073548 -10.220883 -7.1162567 -1.0042717 5.9669067 11.742272 14.324662 14.072931 13.00586 12.129093 11.677624 11.671863 12.093192 12.917556 14.113687 15.633658 17.403948 19.321194 21.255717 23.06403 24.607692 25.770292 26.462394 26.615085 26.176079 25.117499 23.450922 21.239922 18.598764 15.669039 12.579486 9.406027 6.1480092 2.7271268 -0.99258649 -5.1706796 -9.9501115 -15.381918 -21.130465 -25.656175 -26.447992 -23.950911 -20.73056 -18.057744 -16.195276 -15.144959 -14.879557 -15.390916 -16.696636 -18.833947 -21.812152 -25.381283 -28.285796 -27.978477 -24.036629 -18.998098 -14.433949 -10.715346 -7.828543 -5.664669 -4.0863658 -2.955161 -2.1504927
-5.6967359 -6.9583644 -8.4505969 -9.8682915 -9.9795084 -6.8199128 -0.65272417 6.3911179 12.259955 14.947338 14.838649 13.944366 13.281412 13.087862 13.381588 14.130097 15.279226 16.749248 18.429444 20.18183 21.857591 23.32324 24.486072 25.303968 25.76935 25.874556 25.582737 24.82538 23.530594 21.668126 19.282372 16.486641 13.416564 10.166597 6.7392906 3.0261283 -1.1682779 -6.0482746 -11.689488 -17.72584 -22.554812 -23.628715 -21.343242 -18.244444 -15.58062 -13.592489 -12.259001 -11.529349 -11.371323 -11.777485 -12.765176 -14.377117 -16.675861 -19.696138 -23.213613 -25.999901 -25.533217 -21.447135 -16.323717 -11.803914 -8.2930501 -5.7487831 -3.9824724 -2.7804636 -1.9644362
-4.5548843 -5.5476529 -6.7807248 -8.2388868 -9.6147608 -9.6796959 -6.4573003 -0.21844242 6.9127382 12.892921 15.710114 15.765046 15.067552 14.634713 14.694727 15.238379 16.183102 17.402117 18.733283 20.000422 21.051118 21.798471 22.244243 22.465111 22.563629 22.605438 22.570128 22.339186 21.733552 20.58979 18.835853 16.519015 13.76479 10.688804 7.3047754 3.4627605 -1.1362296 -6.7361502 -13.019759 -18.267812 -19.817268 -17.950393 -15.190456 -12.758695 -10.884681 -9.536928 -8.6531532 -8.1876227 -8.1162959 -8.4348607 -9.1577859 -10.319913 -11.9791 -14.211822 -17.066643 -20.334831 -22.82058 -22.031201 -17.719958 -12.58856 -8.393317 -5.4775483 -3.5970688 -2.4061876 -1.6434785
-3.6321148 -4.4007764 -5.3639942 -6.5618387 -7.9779908 -9.3041954 -9.3055577 -6.0185127 0.30897457 7.5407981 13.63654 16.600234 16.811466 16.287949 16.021001 16.195668 16.729628 17.44436 18.121804 18.558873 18.632226 18.347385 17.840516 17.324491 17.005454 17.005819 17.312335 17.760567 18.071354 17.941254 17.154736 15.657503 13.541318 10.944501 7.9152457 4.2758289 -0.43119376 -6.4124856 -12.064587 -14.331937 -13.21017 -11.095075 -9.1741661 -7.6728845 -6.5625217 -5.7829315 -5.2874048 -5.0470927 -5.0483275 -5.2901721 -5.7837355 -6.5535189 -7.6405626 -9.1058833 -11.026879 -13.453305 -16.185309 -18.065814 -16.733554 -12.228552 -7.636317 -4.5718647 -2.8022279 -1.7826584 -1.1716533
-2.8828555 -3.4728842 -4.2108186 -5.1374924 -6.2919901 -7.6568922 -8.9239479 -8.8525934 -5.4888798 0.92923606 8.260796 14.457736 17.526822 17.820834 17.3284 16.979444 16.866782 16.801844 16.53263 15.862611 14.740941 13.298696 11.809083 10.592057 9.914236 9.9200368 10.59312 11.741465 13.021456 14.020946 14.38888 13.951896 12.744536 10.928272 8.6392607 5.8026847 1.9577556 -2.9042148 -5.9882282 -6.1438799 -5.1965765 -4.2243721 -3.4562349 -2.8900103 -2.4897347 -2.225742 -2.0791081 -2.0397693 -2.1044327 -2.2753735 -2.560248 -2.9729324 -3.5354088 -4.280591 -5.2549879 -6.5150218 -8.0874709 -9.7720664 -10.521975 -8.5410952 -4.9978633 -2.6777146 -1.511526 -0.90328808 -0.56085103
-2.2701901 -2.718314 -3.2761625 -3.9758356 -4.857282 -5.9588325 -7.2626531 -8.4603717 -8.3177058 -4.8696768 1.618292 9.0084143 15.234134 18.258867 18.408621 17.584098 16.624285 15.533207 14.106098 12.209358 9.8995733 7.4279449 5.1554743 3.4380674 2.5400075 2.5923332 3.5734109 5.2929959 7.3956548 9.4190348 10.917771 11.607879 11.450092 10.61969 9.3922001 8.0272785 6.70713 5.5298241 4.5304962 3.707082 3.0399959 2.5040934 2.074773 1.7305105 1.4535168 1.2295422 1.0473659 0.89822865 0.77531654 0.67332906 0.58813419 0.51649898 0.4558823 0.40427628 0.36008546 0.32203466 0.28909862 0.26044808 0.23540838 0.21342742 0.19405085 0.17690271 0.16167024 0.14809191 0.13594797
-1.7656961 -2.1001391 -2.5142859 -3.0316218 -3.6833816 -4.5089335 -5.546705 -6.7803705 -7.9043678 -7.6969122 -4.1963778 2.3001547 9.6265519 15.675782 18.341108 17.884875 16.12949 13.883816 11.22997 8.1841001 4.9198727 1.7572502 -0.94179419 -2.8716339 -3.8294723 -3.7224096 -2.5715746 -0.53255046 2.0841356 4.8348153 7.239251 8.9317284 9.79094 9.9741993 9.8628535 10.028496 11.285505 13.835344 14.953501 13.486973 11.223759 9.1931947 7.5763036 6.328838 5.3799621 4.6720244 4.1640306 3.828667 3.6492074 3.6174673 3.732942 4.0031176 4.4449498 5.087378 5.9737514 7.157965 8.6647639 10.292234 10.992204 8.9674737 5.3855783 3.0312056 1.8346103 1.199263 0.8325764
-1.3477194 -1.5900454 -1.8883624 -2.2591616 -2.7249531 -3.3163776 -4.0731431 -5.0359191 -6.1941252 -7.2542324 -7.0103617 -3.5485571 2.8071157 9.8146927 15.299505 17.110315 15.468799 12.274959 8.5164542 4.5606073 0.70176277 -2.7446953 -5.5037572 -7.3866638 -8.2872186 -8.1607038 -7.0205605 -4.9639143 -2.212554 0.86870615 3.8250454 6.248002 7.9355418 8.9828026 9.7688873 10.906633 13.176664 16.968619 20.74995 21.466771 19.082317 15.948144 13.207432 11.046282 9.4031526 8.1914026 7.3433347 6.8136343 6.5757686 6.6187555 6.9458457 7.5753731 8.543516 9.9074392 11.741471 14.09291 16.759922 18.583823 17.202039 12.653518 8.0228863 4.9244241 3.1245537 2.0780148 1.4428738
-0.99978031 -1.1666301 -1.3704056 -1.6220417 -1.9367961 -2.3363331 -2.8515032 -3.5245082 -4.4028965 -5.490563 -6.5216863 -6.3292235 -3.0722141 2.8590283 9.1490735 13.59163 14.103455 11.065548 6.6465505 2.1101413 -2.00836 -5.4325275 -8.0219186 -9.7272885 -10.541966 -10.466673 -9.50519 -7.6919711 -5.1446774 -2.1158334 1.0114342 3.8272605 6.0641917 7.7273889 9.1089005 10.707558 13.10109 16.701273 21.26188 25.071444 25.441921 22.618075 19.084318 16.026768 13.645321 11.884318 10.662185 9.9179599 9.6156399 9.7415267 10.302715 11.328236 12.871349 15.004874 17.774455 20.969009 23.390835 22.5457 18.185607 13.011231 8.7780241 5.8285943 3.9181628 2.7005402 1.9138803
-0.70934647 -0.81380612 -0.93957503 -1.0930829 -1.283653 -1.5252384 -1.8392294 -2.258629 -2.8327079 -3.6250479 -4.6702303 -5.7534718 -5.7867939 -3.0010259 2.1283054 7.3137002 10.488392 9.8133771 5.9812123 1.3445176 -2.8093805 -6.1015812 -8.4915801 -10.044955 -10.83392 -10.89601 -10.230604 -8.8244437 -6.7055411 -4.0136643 -1.0369386 1.8502464 4.3438454 6.3606837 8.0792138 9.8634726 12.136812 15.252697 19.356731 24.097038 27.854483 28.0518 25.052442 21.372536 18.234653 15.858285 14.205264 13.211152 12.83295 13.054696 13.886993 15.367222 17.553689 20.477729 23.912281 26.626759 26.097593 21.956899 16.785544 12.223491 8.6752483 6.0977915 4.3019094 3.0734674 2.2337393
-0.46690735 -0.51954115 -0.58053186 -0.6525778 -0.74008008 -0.8505188 -0.99692993 -1.2022055 -1.5060244 -1.9741076 -2.7028623 -3.7831182 -5.0800689 -5.6001855 -3.6156942 0.44458065 4.5048132 6.8095777 5.7715317 2.1772729 -1.7434219 -4.936047 -7.2482339 -8.7828691 -9.6580923 -9.9395254 -9.6318321 -8.6983578 -7.1087879 -4.9133124 -2.304468 0.40383515 2.9032825 5.0440861 6.9015669 8.7247244 10.828042 13.499538 16.948739 21.24574 26.04605 29.788436 29.936535 26.911047 23.256243 20.225024 18.065569 16.767902 16.295363 16.632292 17.790302 19.801842 22.672384 26.148881 28.973295 28.596392 24.593823 19.502078 14.891107 11.131147 8.2076818 6.0111952 4.4037868 3.2465262 2.4184636
-0.26525932 -0.27486961 -0.2820738 -0.28647334 -0.28839691 -0.2899799 -0.29731492 -0.32453146 -0.40110332 -0.58383685 -0.97331787 -1.7256682 -3.0157938 -4.7950672 -6.0951305 -5.1016065 -1.9665199 1.5335284 3.8385245 3.3435794 0.60361476 -2.3877903 -4.7599283 -6.4353286 -7.5163422 -8.0839112 -8.156467 -7.6970304 -6.6498164 -5.0070525 -2.8804523 -0.51390662 1.8055557 3.8898603 5.7368598 7.5065462 9.4318083 11.741437 14.62776 18.239494 22.632243 27.479815 31.246041 31.448502 28.515372 25.048057 22.333607 20.664149 20.070616 20.549558 22.101697 24.693303 28.029354 30.819839 30.460519 26.521022 21.483329 16.887178 13.070517 10.004777 7.5939728 5.7352682 4.3275453 3.2755571 2.4953335
-0.098935143 -0.073098533 -0.036011362 0.015231433 0.083553506 0.17100676 0.27680449 0.39334399 0.49873588 0.54391797 0.43313087 0.0012477849 -0.99322121 -2.7994311 -5.3661866 -7.5701389 -7.3206375 -4.4732734 -0.69803887 2.3160705 2.7183591 0.8206541 -1.5046369 -3.4119982 -4.7919087 -5.6953319 -6.1523649 -6.1407629 -5.6050325 -4.5092789 -2.9065628 -0.97406902 1.039541 2.9365727 4.6660812 6.3215195 8.0698365 10.086178 12.527902 15.536757 19.241082 23.700345 28.608659 32.45146 32.795902 30.102956 27.038963 24.957767 24.21267 24.863662 26.849301 29.814858 32.405124 31.952586 27.995531 22.96701 18.383725 14.557463 11.441676 8.9333041 6.9358799 5.364996 4.1449737 3.2074494 2.4922288
0.036257211 0.090837318 0.16375536 0.25983874 0.38442452 0.54251845 0.73679567 0.96342443 1.2041317 1.4125607 1.4939042 1.2815552 0.5264773 -1.06589 -3.6941077 -7.1041387 -9.8796461 -9.6844543 -6.3739984 -1.7911178 2.1123731 3.2728159 1.9388824 -0.026850149 -1.7272304 -2.9981549 -3.8412374 -4.2492104 -4.1825967 -3.6018218 -2.5257561 -1.0755444 0.55032472 2.1714492 3.7135998 5.2192232 6.7971798 8.57233 10.664446 13.18991 16.270974 20.034834 24.553261 29.543299 33.533485 34.128357 31.901892 29.611565 28.713903 29.536714 31.751936 33.902884 33.23214 29.166171 24.101552 19.511989 15.684586 12.554947 10.008649 7.9450207 6.2827308 4.9546617 3.9031124 3.0773551 2.4330124
0.1436016 0.22088632 0.32196501 0.45301847 0.620971 0.83255666 1.0920655 1.3966473 1.727538 2.0354998 2.2205209 2.1119223 1.4669741 0.016371459 -2.4278915 -5.8175148 -9.6153804 -12.258473 -11.463765 -7.3147904 -1.8889807 2.709492 4.3537353 3.3212983 1.5188944 -0.1035214 -1.3368592 -2.1499008 -2.5203117 -2.4213847 -1.8594971 -0.91251621 0.27797985 1.5694187 2.8834376 4.2217336 5.6392305 7.2126522 9.0251972 11.165622 13.734418 16.850946 20.649919 25.221198 30.314077 34.526327 35.565269 34.20217 33.338198 34.144668 35.451092 34.357288 30.093311 24.953721 20.343464 16.517196 13.390786 10.837791 8.7507453 7.046095 5.6585956 4.5354372 3.6321408 2.9102712 2.3364387
0.22575303 0.32026055 0.44252218 0.59955158 0.799117 1.048607 1.3523669 1.7062795 2.0879571 2.4412944 2.6570561 2.5590127 1.916927 0.50969262 -1.7712828 -4.8442967 -8.4256361 -11.920779 -13.894554 -12.297488 -7.3841637 -1.3554376 3.6567636 5.5624066 4.6614553 2.919909 1.3201798 0.098910491 -0.70092457 -1.067079 -1.0064658 -0.56468994 0.17320371 1.1116365 2.1790658 3.3438943 4.6111502 6.0120148 7.59523 9.4233697 11.573811 14.143261 17.253351 21.047607 25.636333 30.817663 35.301613 37.069409 37.049171 37.026708 35.21797 30.696811 25.484416 20.873875 17.071138 13.971267 11.437707 9.3576312 7.6449854 6.2343545 5.0747945 4.1252021 3.3512401 2.7235093 2.2165884
0.28493587 0.39169355 0.52883168 0.70375811 0.92448571 1.1982466 1.5283701 1.9081258 2.3099748 2.6695879 2.8681669 2.7260728 2.0314575 0.61980616 -1.5281897 -4.2572351 -7.3209255 -10.469456 -13.28744 -14.531301 -12.296943 -6.8905103 -0.52386828 4.6893814 6.7033065 5.8412781 4.1021722 2.487894 1.2433279 0.40544599 -0.030947926 -0.086250893 0.20421911 0.78979449 1.6085172 2.6005501 3.7260451 4.9746545 6.363671 7.9318221 9.7350106 11.846014 14.357709 17.38758 21.074441 25.526517 30.562116 34.981372 36.732376 34.950309 30.502505 25.443644 20.976894 17.288051 14.274083 11.802686 9.7642987 8.0751187 6.6715895 5.5047917 4.536105 3.7341165 3.0725379 2.5288957 2.0837668
0.32307181 0.43759332 0.58397322 0.76967611 1.0025305 1.2890938 1.6311184 2.0188032 2.4194449 2.7615532 2.919732 2.716119 1.9627856 0.55193971 -1.4582223 -3.8546638 -6.3969635 -8.9463618 -11.449417 -13.650675 -14.392634 -11.778426 -6.1263295 0.38706314 5.6715895 7.6895197 6.803539 5.0111925 3.3263681 1.9941033 1.0523903 0.50823972 0.36648634 0.61158678 1.1875853 2.0093572 2.9979401 4.1066483 5.324957 6.6703666 8.179623 9.9035879 11.905629 14.26159 17.056656 20.363108 24.136168 27.811647 29.537554 27.788474 24.092883 20.306129 16.996352 14.21318 11.890356 9.9500571 8.3250331 6.9610171 5.8148169 4.851844 4.0439643 3.3678284 2.8036622 2.3344486 1.9454066
0.34185243 0.46011589 0.61076368 0.80108613 1.0384663 1.3285322 1.6713051 2.0540766 2.4398922 2.7524981 2.864604 2.6068243 1.819967 0.4477603 -1.3951727 -3.4669421 -5.5431099 -7.5376145 -9.5022486 -11.504051 -13.324941 -13.805948 -11.021016 -5.280162 1.2584292 6.5205626 8.4677696 7.4815048 5.5630921 3.7380415 2.272391 1.2389172 0.67871752 0.59778851 0.93804535 1.5902703 2.4422264 3.4164222 4.4783669 5.6271594 6.8831305 8.278627 9.8519836 11.642045 13.677908 15.951025 18.33535 20.395966 21.263659 20.376373 18.299531 15.906036 13.635135 11.61817 9.8702185 8.3700614 7.087805 5.994007 5.0623799 4.2702271 3.5981099 3.0293169 2.5493589 2.1455691 1.8068178
0.34277214 0.46118484 0.61174911 0.80145535 1.0371408 1.3234847 1.6589502 2.0284908 2.3922359 2.6718552 2.7428174 2.4503381 1.667439 0.38199454 -1.2575105 -3.0082059 -4.6753203 -6.2090064 -7.6919596 -9.259107 -10.98555 -12.630581 -13.006496 -10.186697 -4.453546 2.0223714 7.1682826 8.9642178 7.7834114 5.6677217 3.681117 2.1456217 1.1700926 0.77307367 0.88304436 1.3645649 2.0763414 2.9153789 3.8274948 4.7967491 5.830304 6.9461825 8.1643614 9.4985127 10.943871 12.454072 13.89828 15.010699 15.435771 14.989835 13.85995 12.405401 10.896376 9.4690935 8.1765527 7.0314939 6.0291576 5.1579848 4.4044387 3.7550811 3.197379 2.7199382 2.3124992 1.965855 1.6717597
0.32713681 0.44247776 0.58915317 0.77382934 1.0028576 1.2801961 1.6032806 1.9557635 2.2966623 2.5483885 2.5929563 2.2937565 1.5557458 0.40148625 -1.0059652 -2.4425354 -3.751219 -4.9106412 -6.0099055 -7.1832917 -8.5543079 -10.167025 -11.757161 -12.121035 -9.3424903 -3.7009365 2.6214385 7.5471216 9.0840283 7.6397027 5.3321269 3.3007958 1.8988023 1.1826473 1.0599949 1.3637356 1.9250537 2.6202799 3.3803658 4.1781767 5.0110817 5.8868673 6.8136442 7.7914397 8.8025102 9.7980195 10.682701 11.312229 11.535353 11.284713 10.630786 9.7282576 8.7255295 7.7228989 6.7754414 5.9084008 5.1300466 4.4397607 3.8326157 3.3018359 2.8400688 2.4400113 2.0947019 1.7976453 1.5428589
0.29606288 0.40539869 0.54480168 0.72067619 0.93909588 1.2037796 1.5120914 1.8480761 2.1722856 2.4113091 2.4567843 2.1903829 1.5428223 0.55801177 -0.60214033 -1.7422204 -2.742654 -3.602674 -4.4067174 -5.2700546 -6.3045623 -7.6012881 -9.1822862 -10.776188 -11.190738 -8.5109065 -3.0546278 3.0030259 7.6054171 8.8116278 7.1529626 4.8281282 3.000828 1.9363077 1.550561 1.6461041 2.0279876 2.5557336 3.1493548 3.7734019 4.417745 5.0827249 5.7691025 6.4707862 7.1684133 7.8232943 8.374225 8.7440673 8.8633393 8.7039906 8.296562 7.7133036 7.0346813 6.3260575 5.6313196 4.9760728 4.3731812 3.8275156 3.3392638 2.9060293 2.524094 2.1891515 1.8967222 1.6423855 1.4219087
0.25048215 0.35105942 0.48005503 0.64372064 0.84814901 1.09747 1.3902467 1.7131546 2.0317108 2.2808049 2.3643721 2.1797551 1.6727111 0.8921464 -0.014964533 -0.88523835 -1.6292581 -2.2561791 -2.8381211 -3.466423 -4.2293996 -5.2090899 -6.478702 -8.0578597 -9.6858154 -10.197825 -7.6955784 -2.5226081 3.1712457 7.4153275 8.3881366 6.7400541 4.6671724 3.2139105 2.4861504 2.2980783 2.4382349 2.7520171 3.1490968 3.5854543 4.0432432 4.5159286 4.9987755 5.4827967 5.9506608 6.3742992 6.7154998 6.9318151 6.9886044 6.8727185 6.5987955 6.2031679 5.7303787 5.2213213 4.7074376 4.2100147 3.7419458 3.3100456 2.9170671 2.563197 2.2470784 1.9664772 1.7187037 1.5008763 1.3100852
0.1911676 0.28029646 0.39579847 0.5438661 0.73088153 0.96199356 1.2381704 1.5508683 1.873892 2.1544346 2.3112614 2.2546761 1.9350324 1.3909035 0.74210429 0.11829381 -0.41266391 -0.85902213 -1.2744233 -1.7249861 -2.2747549 -2.9865832 -3.9289489 -5.1757101 -6.7611429 -8.4520714 -9.1127589 -6.8829515 -2.0674938 3.2578378 7.2666762 8.265413 6.8710347 5.1546303 3.992465 3.4037735 3.205843 3.23644 3.3921432 3.6163467 3.8804022 4.1692005 4.4720461 4.7772555 5.0691463 5.3269401 5.5258824 5.6410586 5.6534442 5.5558721 5.3555993 5.0718293 4.7298199 4.3548666 3.9684096 3.586577 3.2203713 2.8765966 2.5589308 2.2688671 2.0064414 1.7707585 1.560356 1.3734512 1.2081068
0.1187903 0.19374482 0.29253711 0.4213139 0.58686882 0.79570113 1.0518887 1.3529722 1.6831702 2.0048848 2.2545241 2.3557548 2.2585305 1.9805371 1.6037767 1.2204432 0.88099777 0.58473976 0.30065755 -0.011331314 -0.39183663 -0.88403747 -1.541148 -2.4349446 -3.6561496 -5.2691946 -7.0806291 -7.9800797 -6.1053616 -1.6633105 3.4157544 7.418483 8.6447228 7.5565527 6.0722619 4.9942401 4.3551992 4.0236783 3.8852389 3.8660373 3.9222108 4.0270939 4.1622069 4.3118059 4.4599573 4.5894876 4.682575 4.7228137 4.698181 4.6037336 4.4426903 4.2252846 3.9659727 3.6802896 3.3824355 3.0839848 2.7935483 2.5170175 2.2580569 2.0186362 1.7994997 1.600542 1.4210902 1.2601104 1.1163546
0.034007937 0.091970702 0.17060321 0.27590499 0.41499517 0.59568032 0.82519763 1.1074266 1.4377332 1.7955279 2.138395 2.4079045 2.5552834 2.5721054 2.4928716 2.3650808 2.2199809 2.0659894 1.8967743 1.6992499 1.455832 1.1417415 0.71884656 0.126711 -0.72728616 -1.9687895 -3.7061969 -5.7802341 -7.0742071 -5.6185402 -1.4815916 3.5481515 7.7446764 9.2491699 8.3867713 6.9873396 5.8697278 5.1131568 4.6302569 4.3341964 4.1636965 4.0779096 4.0484702 4.0537263 4.07533 4.0966499 4.1025614 4.0802286 4.0203907 3.9185058 3.7751383 3.5953168 3.3870802 3.1597489 2.9224405 2.6831021 2.4480677 2.2220068 2.0080967 1.8082875 1.6235782 1.4542624 1.3001304 1.1606265 1.034969
-0.062426147 -0.024358862 0.030430248 0.10758302 0.21427744 0.35929121 0.55262219 0.80413603 1.120452 1.4995272 1.9243505 2.3610413 2.7671693 3.1064688 3.3576185 3.5142434 3.5827875 3.5790778 3.5217765 3.4252244 3.2942657 3.1204274 2.8771186 2.5118407 1.9351999 1.010981 -0.43667418 -2.548887 -5.1390682 -6.9761286 -5.8955494 -1.8364338 3.4008324 7.9383057 9.7343691 9.035947 7.6683373 6.4922943 5.6305243 5.0253171 4.6055821 4.3162776 4.1176716 3.980461 3.8819068 3.8035408 3.7301363 3.6495376 3.5529307 3.4351435 3.2946372 3.1330355 2.954261 2.7635074 2.5662952 2.3677728 2.1723071 1.9833215 1.8033046 1.6339135 1.4761173 1.3303428 1.1966077 1.0746319 0.96392718
-0.16955089 -0.15430345 -0.12717792 -0.083177742 -0.015441555 0.085304501 0.23127151 0.43784786 0.72299253 1.1047702 1.595629 2.1925176 2.8649866 3.5498056 4.1644621 4.6401515 4.9512552 5.1168986 5.1789145 5.1779843 5.1397833 5.0691197 4.9458155 4.7179281 4.2916605 3.5226565 2.221327 0.19537949 -2.6285517 -5.8922679 -8.1428452 -7.0983914 -2.7245329 2.9776379 7.9379063 10.026047 9.4589608 8.1148372 6.894354 5.9548159 5.2590026 4.7462679 4.365985 4.0798565 3.8589806 3.6811105 3.5289048 3.3890005 3.2515827 3.1101402 2.9611762 2.8037553 2.6388879 2.4688421 2.2964967 2.1248239 1.956538 1.7939015 1.6386533 1.4920191 1.3547666 1.2272805 1.1096401 1.0016913 0.90310812
-0.2860988 -0.29650241 -0.30083417 -0.29507744 -0.27311685 -0.22570148 -0.13896604 0.0075453795 0.24308758 0.60673216 1.1429235 1.8840751 2.8178008 3.8588737 4.8639406 5.696207 6.2890549 6.6564657 6.857613 6.9560145 6.9954381 6.9904091 6.9216847 6.730175 6.3090234 5.5012332 4.1178988 1.9922077 -0.93236256 -4.4935163 -8.1055389 -10.228925 -8.7056476 -3.7140742 2.5434488 7.8941233 10.210569 9.7376363 8.4043848 7.1478048 6.1489857 5.3844826 4.8007556 4.3505793 3.9973074 3.713103 3.4767973 3.2723457 3.0878293 2.914782 2.7476505 2.5832738 2.4203417 2.2588546 2.0996261 1.9438705 1.7928978 1.6479125 1.5099031 1.3795971 1.2574599 1.1437188 1.038399 0.94136276 0.85234713
-0.41042111 -0.44906564 -0.48842064 -0.52581845 -0.55636652 -0.57141357 -0.55607277 -0.48543104 -0.31945385 0.0015710607 0.55423841 1.4085714 2.5767737 3.9626466 5.3717577 6.5993455 7.526274 8.1456669 8.521895 8.7344539 8.8412936 8.8630844 8.776911 8.5111066 7.9418839 6.9024656 5.2218452 2.7998526 -0.31262912 -3.8921809 -7.5865413 -10.827637 -12.279429 -10.013406 -4.4016379 2.298849 7.9216917 10.366196 9.9429058 8.6019632 7.3097368 6.2615107 5.4422398 4.8028839 4.2986337 3.8942862 3.5630895 3.2848722 3.0445455 2.8310178 2.6363849 2.4552732 2.2842706 2.1214196 1.9657758 1.8170423 1.6752857 1.5407321 1.4136313 1.294178 1.1824716 1.0785042 0.98216405 0.89324877 0.81148188
-0.54044233 -0.60950238 -0.68698706 -0.77198148 -0.86136923 -0.94782535 -1.0163474 -1.0386513 -0.96525519 -0.71756807 -0.18888098 0.72826099 2.0774974 3.7687713 5.5762103 7.2334839 8.55586 9.4931629 10.095933 10.448214 10.616116 10.622791 10.43886 9.9790474 9.1071937 7.6627355 5.5229665 2.6919605 -0.64143223 -4.1520194 -7.5261412 -10.559929 -12.956481 -13.618802 -10.728832 -4.692014 2.2665153 8.0288664 10.525297 10.108255 8.7448692 7.4155936 6.3239942 5.4595879 4.7759253 4.2297279 3.786816 3.4212307 3.1134624 2.8489454 2.6169196 2.4095661 2.2213265 2.0483511 1.8880461 1.7387075 1.599233 1.4689057 1.3472366 1.2338587 1.1284579 1.030732 0.94036924 0.8570393 0.78039192
-0.67364956 -0.77468968 -0.89268243 -1.0288951 -1.1826357 -1.3488692 -1.5138796 -1.6479988 -1.6950274 -1.5610202 -1.112786 -0.20609478 1.2426664 3.1707761 5.3458278 7.4511054 9.2255909 10.551469 11.440893 11.964988 12.188179 12.131866 11.760343 10.980535 9.6598191 7.674447 4.9912945 1.7500657 -1.7272593 -5.0524902 -7.9565984 -10.397464 -12.476735 -14.088528 -14.185974 -10.940939 -4.6885004 2.3790313 8.1808034 10.686992 10.246501 8.8521617 7.4859838 6.3560418 5.4540719 4.7349514 4.1562451 3.6843663 3.2938012 2.9653611 2.6846628 2.440967 2.2263027 2.034797 1.8621533 1.705242 1.5617823 1.4300979 1.3089339 1.1973226 1.0944887 0.99978349 0.9126409 0.83254914 0.75903321
-0.80712516 -0.94089476 -1.1007418 -1.2905301 -1.5126887 -1.765637 -2.038861 -2.3043529 -2.5037059 -2.5334258 -2.239225 -1.4407017 -0.0043309175 2.0564966 4.5291405 7.0634622 9.3196276 11.091109 12.323106 13.049391 13.317864 13.143443 12.489003 11.269531 9.3855883 6.7925163 3.5870862 0.054582173 -3.389583 -6.3650272 -8.696627 -10.465413 -11.914973 -13.269023 -14.413412 -14.233072 -10.845002 -4.5255669 2.5614021 8.350942 10.836072 10.363094 8.9340463 7.5331411 6.3697929 5.4366773 4.689226 4.0853686 3.5917698 3.1830779 2.8401745 2.5486441 2.2976069 2.0788478 1.8861634 1.714865 1.5613991 1.4230564 1.2977514 1.1838562 1.080076 0.98535956 0.89883268 0.81975158 0.74746956
-0.93763311 -1.1038751 -1.3055829 -1.5495404 -1.8419145 -2.1857296 -2.575758 -2.989245 -3.3712677 -3.6165465 -3.5577061 -2.9820122 -1.7002951 0.34137729 2.9776601 5.8522673 8.5583752 10.78831 12.391219 13.333759 13.62822 13.278694 12.257973 10.51676 8.0306762 4.8780806 1.306105 -2.2814583 -5.4460318 -7.8897486 -9.5679693 -10.666981 -11.486168 -12.312533 -13.308005 -14.270202 -14.016846 -10.603235 -4.2990401 2.7615429 8.5215488 10.964568 10.46016 8.9968894 7.5647295 6.3728358 5.4141094 4.6440957 4.0207866 3.5108676 3.0889607 2.7358655 2.4370218 2.1813436 1.9603558 1.7675551 1.5979307 1.4476017 1.3135426 1.1933741 1.0852055 0.98751475 0.89905975 0.81881113 0.74590277
-1.0617639 -1.259074 -1.5010625 -1.7975804 -2.1589084 -2.5935128 -3.1031608 -3.6735861 -4.2589498 -4.7607889 -5.0097943 -4.7719236 -3.8075584 -1.9869522 0.59861487 3.6245001 6.6463248 9.2594749 11.197319 12.332116 12.621614 12.0566 10.63653 8.3824974 5.3876549 1.8798764 -1.7604593 -5.0770887 -7.6916392 -9.4433894 -10.422675 -10.889776 -11.153395 -11.482714 -12.067348 -12.971581 -13.921437 -13.69707 -10.321171 -4.0626528 2.9528017 8.6745812 11.076642 10.5389 9.0451888 7.5857947 6.3699246 5.3903066 4.6023662 3.9639848 3.4417333 3.0101019 2.6497312 2.3458716 2.0872181 1.8650544 1.6726226 1.5046546 1.3570196 1.2264574 1.110376 1.0066964 0.91373578 0.83011763 0.75470351
-1.1761301 -1.4019051 -1.6808948 -2.0259274 -2.4514161 -2.9715687 -3.596076 -4.3213562 -5.1151719 -5.8941849 -6.5006397 -6.6974263 -6.2119163 -4.8432305 -2.5898445 0.29475077 3.3720803 6.168396 8.3055445 9.5509664 9.7979916 9.0254569 7.2759541 4.6680752 1.4327521 -2.0655467 -5.3728541 -8.0667118 -9.8969552 -10.856771 -11.1426 -11.045267 -10.847997 -10.773741 -10.977565 -11.553901 -12.504171 -13.519558 -13.358381 -10.050943 -3.8432811 3.1245131 8.801415 11.17449 10.602105 9.0822752 7.5997521 6.3640021 5.3674404 4.5652617 3.9151516 3.3835003 2.9446189 2.5789615 2.2715825 2.0109717 1.7882029 1.5963092 1.4298198 1.284413 1.1566536 1.0437932 0.94361651 0.85432482 0.77444519
-1.2775902 -1.528089 -1.8391678 -2.2262926 -2.7076385 -3.3028519 -4.0295612 -4.8957589 -5.8856902 -6.9379373 -7.9195427 -8.6114652 -8.7336191 -8.0326966 -6.4119498 -4.0242109 -1.2534042 1.408259 3.507878 4.7267134 4.9015909 4.0056906 2.1320651 -0.50262724 -3.5531186 -6.5790622 -9.139726 -10.921871 -11.830638 -11.986996 -11.642465 -11.074625 -10.517357 -10.138063 -10.046483 -10.314196 -10.984394 -12.031539 -13.136074 -13.04786 -9.807451 -3.6522912 3.2720678 8.908599 11.253356 10.65344 9.1107325 7.6089262 6.3568374 5.3465767 4.5330692 3.8737743 3.33488 2.8905068 2.5209235 2.2110012 1.9490491 1.7259648 1.5346124 1.3693623 1.2257466 1.1001986 0.98985356 0.89239622 0.80594299
-1.3634687 -1.6339874 -1.9708587 -2.3916304 -2.9175259 -3.5727789 -4.3820967 -5.3645605 -6.5216732 -7.8177027 -9.1539815 -10.347758 -11.138952 -11.251828 -10.511233 -8.9570495 -6.8745249 -4.7111025 -2.932106 -1.8966625 -1.798689 -2.6616017 -4.3505255 -6.5855056 -8.9747779 -11.093508 -12.597424 -13.320403 -13.302462 -12.736473 -11.874358 -10.947948 -10.131057 -9.5369515 -9.2339429 -9.2651828 -9.6641003 -10.455441 -11.606888 -12.797693 -12.784267 -9.5951533 -3.4911507 3.3944066 9.0024296 11.313658 10.69496 9.132644 7.6148863 6.349441 5.3281112 4.5055561 3.8390104 3.2944637 2.8458549 2.4732825 2.1614556 1.8985299 1.6752578 1.4843681 1.3201069 1.177894 1.0540629 0.94566187 0.85030103
-1.4317416 -1.7168806 -2.0722565 -2.5167886 -3.0737825 -3.7707835 -4.6379785 -5.7037308 -6.9852118 -8.4720776 -10.10321 -11.742834 -13.173242 -14.129617 -14.389917 -13.888978 -12.784076 -11.417954 -10.198892 -9.4690887 -9.4198475 -10.065263 -11.253884 -12.702715 -14.060812 -15.005295 -15.337148 -15.028895 -14.20367 -13.066266 -11.828355 -10.660505 -9.6776986 -8.9470079 -8.5037963 -8.368046 -8.5572899 -9.0940668 -10.000568 -11.246065 -12.511896 -12.562651 -9.4197828 -3.3567158 3.4948853 9.0787794 11.36424 10.727505 9.1495972 7.6186786 6.3423385 5.3120503 4.48223 3.8099054 3.2608849 2.8089441 2.434032 2.1207195 1.8570341 1.6336103 1.443069 1.279559 1.1384135 1.0158898 0.90897055
-1.4811618 -1.7751518 -2.1412336 -2.5989113 -3.1724718 -3.8912371 -4.788761 -5.8998468 -7.2536935 -8.8612094 -10.695557 -12.669034 -14.617636 -16.313698 -17.524504 -18.106761 -18.08564 -17.659869 -17.123075 -16.748404 -16.695712 -16.972776 -17.448106 -17.899704 -18.088921 -17.84199 -17.104961 -15.946816 -14.518048 -12.993477 -11.52643 -10.226714 -9.1597884 -8.3574419 -7.8314066 -7.5854274 -7.6245234 -7.9614609 -8.6194857 -9.6239519 -10.948046 -12.277308 -12.374885 -9.2795189 -3.2459331 3.5782084 9.1357743 11.409101 10.752968 9.162692 7.6209847 6.3357528 5.2981883 4.4624929 3.785512 3.2328951 2.7782764 2.4014774 2.0869532 1.8226262 1.5990356 1.4087166 1.245742 1.1053778 0.98382328
-1.5113129 -1.8083592 -2.1773425 -2.6375721 -3.2132049 -3.9337449 -4.8338028 -5.951263 -7.3225203 -8.9730928 -10.902309 -13.063156 -15.343989 -17.566492 -19.51651 -21.009624 -21.962846 -22.426168 -22.54905 -22.501126 -22.393482 -22.238914 -21.961797 -21.445049 -20.591085 -19.370042 -17.834478 -16.099147 -14.303147 -12.574905 -11.01143 -9.6730224 -8.5886891 -7.7661409 -7.2019363 -6.889763 -6.8265926 -7.0171829 -7.477282 -8.2343525 -9.3180917 -10.705547 -12.086575 -12.222177 -9.1633227 -3.1562443 3.6464967 9.182454 11.443561 10.773812 9.1727345 7.6222296 6.3297219 5.2862154 4.4457274 3.7649475 3.2093894 2.7525679 2.3741977 2.0586385 1.7937268 1.5699256 1.3797026 1.2170707 1.0772446
-1.5225889 -1.8171961 -2.1817432 -2.6346464 -3.198933 -3.9028314 -4.7798448 -5.8676695 -7.2049401 -8.8244385 -10.741482 -12.93753 -15.342635 -17.825927 -20.206864 -22.29356 -23.936115 -25.06613 -25.697731 -25.891353 -25.70637 -25.170894 -24.282537 -23.036027 -21.456736 -19.616381 -17.623905 -15.601685 -13.661286 -11.88796 -10.335881 -9.0314047 -7.9803813 -7.1763072 -6.6074399 -6.2622494 -6.1333549 -6.2204371 -6.5326118 -7.0903735 -7.9256539 -9.0720476 -10.509826 -11.931021 -12.103397 -9.0648977 -3.0837924 3.7007946 9.2253494 11.467251 10.790814 9.1803952 7.6226606 6.324174 5.2757789 4.4313397 3.747415 3.189405 2.7307248 2.3510009 2.0345152 1.7690352 1.5449631 1.3547134 1.192253
-1.5161086 -1.8033543 -2.1569846 -2.5939645 -3.1353966 -3.8070756 -4.639661 -5.6679917 -6.9287823 -8.4556578 -10.270447 -12.370381 -14.713043 -17.204599 -19.699982 -22.021704 -23.994351 -25.480206 -26.39914 -26.727354 -26.482873 -25.708923 -24.464845 -22.828943 -20.904245 -18.81338 -16.682014 -14.620866 -12.714083 -11.015892 -9.5537112 -8.3345885 -7.3523499 -6.5939455 -6.0444149 -5.6904797 -5.5230681 -5.5391785 -5.7434807 -6.1499442 -6.7834133 -7.6795262 -8.8749317 -10.352433 -11.805014 -12.006801 -8.9868207 -3.0243897 3.7442912 9.2595107 11.487888 10.803621 9.1861543 7.6224058 6.3189723 5.2665163 4.4187768 3.732204 3.1721042 2.7118104 2.3308774 2.0135241 1.747463 1.5230485 1.3326538
-1.4935798 -1.769314 -2.1066796 -2.5208044 -3.0303318 -3.6578547 -4.4300431 -5.3771035 -6.531009 -7.9217324 -9.5706636 -11.480822 -13.624807 -15.933767 -18.292971 -20.549435 -22.532632 -24.08256 -25.07609 -25.445018 -25.182728 -24.338352 -23.002787 -21.294657 -19.347886 -17.297098 -15.261954 -13.335969 -11.582635 -10.037698 -8.7149424 -7.6129897 -6.7215024 -6.0261093 -5.5119975 -5.1663982 -4.9802886 -4.9496399 -5.0765037 -5.3701946 -5.8487323 -6.5403712 -7.4835519 -8.7171823 -10.225882 -11.704496 -11.923568 -8.9276274 -2.9758831 3.7805401 9.2818433 11.508301 10.813087 9.190254 7.6215086 6.3139408 5.2580687 4.4075275 3.7186784 3.1567509 2.6950112 2.3129565 1.9947551 1.7280768 1.5032389
-1.4571325 -1.7180939 -2.0351247 -2.4213108 -2.8925692 -3.4679281 -4.1695371 -5.0221377 -6.0515809 -7.2818487 -8.7300136 -10.398851 -12.267654 -14.283261 -16.354853 -18.356525 -20.13982 -21.554867 -22.475726 -22.823874 -22.582727 -21.797567 -20.561942 -18.998057 -17.237474 -15.404283 -13.602354 -11.908687 -10.37295 -9.0213363 -7.8623664 -6.8928271 -6.102839 -5.4797153 -5.0106917 -4.6847782 -4.4940121 -4.4343669 -4.5065384 -4.7168007 -5.0781017 -5.611507 -6.3477759 -7.3273795 -8.590857 -10.124056 -11.623848 -11.856756 -8.8780642 -2.9373595 3.8101886 9.3001023 11.522725 10.820794 9.1928369 7.619944 6.3088759 5.2500828 4.3971141 3.7062586 3.1426836 2.6796018 2.2964643 1.9774009 1.7100481
-1.4091434 -1.6529921 -1.9469171 -2.3019205 -2.7311659 -3.2501056 -3.8763662 -4.6291866 -5.5281161 -6.5906038 -7.8281227 -9.2406795 -10.810105 -12.49343 -14.218664 -15.885747 -17.374781 -18.561722 -19.339212 -19.637588 -19.439174 -18.780232 -17.740342 -16.424592 -14.945034 -13.405443 -11.891254 -10.465154 -9.167514 -8.0198758 -7.0296986 -6.1950655 -5.5086564 -4.9607739 -4.541495 -4.2421411 -4.0562799 -3.9804539 -4.0147962 -4.1636801 -4.4365338 -4.8489534 -5.4241922 -6.1947948 -7.2026766 -8.4895393 -10.042145 -11.557668 -11.807925 -8.8340386 -2.9067684 3.8328041 9.3196226 11.529842 10.826798 9.1940546 7.6176294 6.3035485 5.242204 4.3870773 3.6943987 3.1292858 2.6649092 2.2806848 1.9607131
-1.352069 -1.5773478 -1.8466118 -2.1688685 -2.5546842 -3.0161879 -3.5668568 -4.2209369 -4.9922951 -5.8924706 -6.9277238 -8.0950462 -9.3774608 -10.739512 -12.124467 -13.455101 -14.639605 -15.583049 -16.202887 -16.444821 -16.29388 -15.776557 -14.953495 -13.906088 -12.721868 -11.482373 -10.255294 -9.0910874 -8.0232067 -7.0705901 -6.2411126 -5.5350696 -4.9481815 -4.4739409 -4.105326 -3.836006 -3.6611842 -3.5782172 -3.5871326 -3.6911485 -3.8972956 -4.2172475 -4.6684697 -5.2757549 -6.0729049 -7.1028552 -8.40813 -9.9762255 -11.503851 -11.768087 -8.8002904 -2.8816285 3.8502301 9.3344017 11.536562 10.830146 9.1939688 7.6144321 6.2976984 5.2340641 4.3769568 3.6825607 3.1159545 2.6502771 2.2649188
-1.2883028 -1.4943455 -1.7384525 -2.027816 -2.3706837 -2.7762732 -3.2545013 -3.8154203 -4.4682309 -5.2197368 -6.0721446 -7.0202471 -8.0482709 -9.1270244 -10.212351 -11.246085 -12.160498 -12.886468 -13.364288 -13.554578 -13.445932 -13.056626 -12.429936 -11.625058 -10.706748 -9.7364321 -8.7662305 -7.8361547 -6.9739089 -6.1963815 -5.5119405 -4.9228725 -4.4275744 -4.022334 -3.7026837 -3.4643904 -3.3041734 -3.2202448 -3.2127582 -3.2842422 -3.4400923 -3.6891986 -4.0448 -4.5256645 -5.1576605 -5.9754723 -7.0227558 -8.3426204 -9.9230526 -11.461589 -11.73092 -8.777294 -2.8612941 3.8648487 9.3404408 11.545027 10.831183 9.1924653 7.6101649 6.2910228 5.2252617 4.3662658 3.6701834 3.1020647 2.6350263
-1.2200654 -1.4068708 -1.6261856 -1.8836185 -2.1854367 -2.5384296 -2.9496193 -3.4257459 -3.9724497 -4.5930783 -5.2870926 -6.0481414 -6.8620394 -7.7050953 -8.5434413 -9.3340941 -10.028305 -10.577238 -10.939196 -11.086735 -11.011628 -10.726065 -10.259795 -9.6543073 -8.9559357 -8.2096765 -7.4547927 -6.7225025 -6.0354683 -5.4085327 -4.8501264 -4.3638898 -3.9502144 -3.6075576 -3.33349 -3.1254958 -2.9815779 -2.9007265 -2.8833111 -2.9314498 -3.0494089 -3.2440894 -3.525666 -3.9084605 -4.4121466 -5.0633441 -5.8973585 -6.9583573 -8.2898718 -9.8801644 -11.428055 -11.701635 -8.7574589 -2.8461425 3.8763062 9.3447221 11.548881 10.831049 9.1893585 7.6045677 6.2831561 5.2153367 4.3544591 3.6566457 3.0869275
-1.1493294 -1.3174215 -1.5129602 -1.7402208 -2.0038422 -2.3086695 -2.6594753 -3.0605165 -3.5148802 -4.0235925 -4.5844971 -5.1909833 -5.8307486 -6.4849005 -7.1278099 -7.7281358 -8.2513045 -8.6633775 -8.9357576 -9.0497027 -8.99944 -8.7929676 -8.4503477 -8.0000927 -7.474732 -6.9066564 -6.3249816 -5.7537078 -5.2110773 -4.7098267 -4.2579772 -3.8598603 -3.5171634 -3.2298732 -2.9970644 -2.8175333 -2.6902955 -2.6149861 -2.592198 -2.6237973 -2.7132541 -2.8660274 -3.0900525 -3.3963893 -3.8001098 -4.3215188 -4.9877643 -5.8345919 -6.9065349 -8.2474307 -9.8457808 -11.400177 -11.683591 -8.7380916 -2.8352156 3.8833143 9.3519086 11.546277 10.829381 9.1844675 7.5972879 6.2736426 5.2037351 4.3408915 3.6412181
-1.077778 -1.2280676 -1.4012982 -1.6006566 -1.8294858 -2.0911278 -2.3886754 -2.7246065 -3.1002806 -3.515292 -3.9667048 -4.4482409 -4.9495606 -5.4558374 -5.9478769 -6.4030134 -6.7969042 -7.1061283 -7.3112113 -7.3994515 -7.3668497 -7.2186282 -6.968222 -6.6350667 -6.2417972 -5.8115103 -5.3655784 -4.9222391 -4.4959566 -4.0974042 -3.7338603 -3.4098237 -3.1276983 -2.8884499 -2.6921862 -2.5386442 -2.4275914 -2.3591581 -2.3341254 -2.3541922 -2.4222507 -2.5426958 -2.7218038 -2.9682217 -3.2936218 -3.7135987 -4.2489004 -4.9270491 -5.784105 -6.8648664 -8.2133913 -9.8184385 -11.377759 -11.66929 -8.7251043 -2.8269615 3.8869721 9.3553941 11.543626 10.824802 9.1774817 7.5878514 6.2618939 5.1897591 4.3247608
-1.0067926 -1.1404504 -1.2931188 -1.4671191 -1.6647919 -1.8883536 -2.1396862 -2.4200475 -2.7296958 -3.0674334 -3.4300998 -3.8120719 -4.204871 -4.597006 -4.9742004 -5.3201231 -5.6176656 -5.8506742 -6.0058851 -6.0746895 -6.0543269 -5.948218 -5.765369 -5.5190222 -5.2248969 -4.8994049 -4.5581503 -4.2148818 -3.8809295 -3.5650623 -3.2736489 -3.011006 -2.7798298 -2.5816418 -2.4172039 -2.2868856 -2.1909783 -2.1299665 -2.1047666 -2.1169519 -2.1689802 -2.2644459 -2.4083779 -2.6076154 -2.871298 -3.211525 -3.6442586 -4.1905609 -4.8782225 -5.7435315 -6.8314808 -8.1862917 -9.7968781 -11.36155 -11.653647 -8.7199631 -2.8215429 3.8889897 9.3506053 11.542562 10.817189 9.1678336 7.5756139 6.24713 5.1724978
-0.93746124 -1.0558104 -1.1897979 -1.3410731 -1.511221 -1.7016389 -1.9133652 -2.1468583 -2.4017228 -2.6763972 -2.9678268 -3.2711687 -3.5795954 -3.8842788 -4.1746376 -4.4389074 -4.6650392 -4.8418497 -4.9602622 -5.0144136 -5.0023953 -4.9264673 -4.7927051 -4.6101728 -4.3898178 -4.1433119 -3.8820307 -3.6162923 -3.3548961 -3.1049376 -2.8718422 -2.6595456 -2.4707567 -2.3072511 -2.1701622 -2.0602515 -1.9781504 -1.9245754 -1.9005245 -1.9074621 -1.9475079 -2.0236412 -2.1399393 -2.3018691 -2.5166605 -2.7937975 -3.1456804 -3.5885329 -4.1436433 -4.838997 -5.7110509 -6.8049428 -8.165022 -9.7802423 -11.350009 -11.642915 -8.7159398 -2.8200692 3.8883698 9.3439353 11.536163 10.807114 9.154747 7.5596808 6.2282912
-0.87060252 -0.97503227 -1.0922466 -1.2233842 -1.3694744 -1.5313345 -1.7094361 -1.9037397 -2.1135009 -2.3370617 -2.5716453 -2.8131907 -3.05627 -3.2941372 -3.5189557 -3.7222303 -3.8954346 -4.030776 -4.1219964 -4.1650715 -4.1586759 -4.1043215 -4.0061462 -3.8704035 -3.7047639 -3.5175612 -3.3171009 -3.1111158 -2.9064032 -2.7086431 -2.5223686 -2.351047 -2.197233 -2.0627568 -1.9489242 -1.856712 -1.78695 -1.7404898 -1.7183621 -1.7219283 -1.7530347 -1.8141794 -1.9087024 -2.0410163 -2.2168934 -2.4438382 -2.7315784 -3.0927298 -3.5437049 -4.1059577 -4.8076186 -5.6852715 -6.7841664 -8.148754 -9.7680629 -11.341141 -11.641356 -8.7111238 -2.8222876 3.8831597 9.3393898 11.521903 10.793484 9.1372334 7.538795
