ncols         65
nrows         65
xllcorner     -812.5
yllcorner     -812.5
cellsize      25
NODATA_value  -9999
7.1173702 5.7710968 4.6768629 3.788005 3.060729 2.4602659 1.9600645 1.5400197 1.1849547 0.88349709 0.62727517 0.41034017 0.22873998 0.080186482 -0.036228525 -0.12030605 -0.17103174 -0.18691 -0.16635245 -0.10811672 -0.011770543 0.1218682 0.29038562 0.48959968 0.7136293 0.95523534 1.2064059 1.4590959 1.7059863 1.941118 2.1602886 2.3611571 2.5430679 2.7066532 2.8532947 2.9845179 3.1013673 3.2037753 3.2899062 3.355435 3.3927234 3.3898998 3.329981 3.1904806 2.9445544 2.5656721 2.0383393 1.3747466 0.62804479 -0.11552364 -0.76979088 -1.2818352 -1.6398672 -1.8599824 -1.9695507 -1.9965404 -1.9648978 -1.8934517 -1.7963459 -1.6839355 -1.5636888 -1.4409362 -1.3194404 -1.2018139 -1.0898166
8.6705221 7.0510306 5.6930222 4.5865684 3.6849632 2.9444074 2.3301808 1.8158563 1.3815507 1.0124343 0.69763541 0.42946424 0.20285827 0.014967527 -0.13518595 -0.24703 -0.31879372 -0.34792805 -0.33162215 -0.26741973 -0.15390693 0.0085983588 0.21746678 0.4674242 0.75059229 1.0569736 1.3753516 1.694461 2.0041981 2.296622 2.5665564 2.8117125 3.0323699 3.2307346 3.4101214 3.5740848 3.7255727 3.8661072 3.9949397 4.1080741 4.1970188 4.2471265 4.2354548 4.1283799 3.880103 3.4355226 2.7453718 1.8032747 0.69313381 -0.41285955 -1.3425868 -2.0123716 -2.4289931 -2.6423389 -2.7084037 -2.6742215 -2.5750746 -2.4360738 -2.2746259 -2.1026327 -1.9281679 -1.7566675 -1.5917422 -1.4357221 -1.2900195
10.27732 8.5895884 6.9569015 5.5848239 4.4633296 3.5456771 2.7880856 2.1559362 1.6230172 1.1698151 0.78206691 0.44971178 0.16615835 -0.072236889 -0.26657428 -0.41578052 -0.51701755 -0.56619777 -0.55865823 -0.4900176 -0.35719108 -0.15946924 0.10051107 0.41613581 0.77675999 1.1683852 1.5750497 1.980698 2.3711313 2.7356004 3.0677168 3.3655661 3.6311203 3.8691852 4.0861472 4.2887341 4.4828987 4.6728228 4.8599367 5.0417568 5.2102593 5.349408 5.4313375 5.4106346 5.21659 4.7461102 3.8715411 2.506519 0.76432514 -0.97246797 -2.3213516 -3.1692452 -3.6028832 -3.7505132 -3.7161224 -3.5717138 -3.3645162 -3.1248702 -2.8720903 -2.6184098 -2.3715353 -2.1362638 -1.9154905 -1.7108303 -1.5230048
10.951951 10.180147 8.4780296 6.8289555 5.4390185 4.298068 3.3593197 2.5790372 1.9227767 1.3646867 0.88586283 0.47297306 0.11728461 -0.18600105 -0.43822651 -0.63768781 -0.78008782 -0.85914301 -0.86744126 -0.79761495 -0.64382466 -0.40343796 -0.078646861 0.3223629 0.78512455 1.2898079 1.8133697 2.3325641 2.8271146 3.2822659 3.6901546 4.0498368 4.3662005 4.6482165 4.9070032 5.1540595 5.3998318 5.6525958 5.9174775 6.1953087 6.4808752 6.7599041 7.0037239 7.1596776 7.1337396 6.7599162 5.7591468 3.777234 0.84186134 -2.0865803 -4.0477436 -5.0140889 -5.3400984 -5.3053282 -5.0765808 -4.7491409 -4.3775498 -3.9931966 -3.6141389 -3.2506772 -2.9085639 -2.5908478 -2.2989203 -2.0331015 -1.7929722
8.7111887 10.841891 10.049511 8.3283768 6.6580703 5.2445493 4.0775437 3.1102098 2.2988967 1.6094609 1.0166586 0.50260842 0.055538276 -0.33106677 -0.6590294 -0.92591346 -1.1254916 -1.2484202 -1.2832928 -1.2182115 -1.042925 -0.75141398 -0.34455475 0.16776187 0.76583543 1.421336 2.1006211 2.7696066 3.3989575 3.9681947 4.4677374 4.8986718 5.2707479 5.599458 5.9030298 6.1999079 6.5069605 6.8383575 7.2048444 7.6129869 8.0638074 8.5499606 9.049916 9.5158047 9.8465444 9.8236179 8.9536691 6.2119777 0.92589632 -4.3514083 -7.0667779 -7.8929022 -7.8546267 -7.4456027 -6.884943 -6.2748076 -5.6648643 -5.0794657 -4.5301611 -4.0219073 -3.5562746 -3.1330896 -2.7512367 -2.4090183 -2.1043116
3.1921793 8.5767345 10.690014 9.8767655 8.1297601 6.430987 4.9854498 3.7826852 2.7757757 1.9212379 1.1854641 0.54427029 -0.018454687 -0.51180182 -0.93850409 -1.2953682 -1.5737031 -1.7600079 -1.837206 -1.7866937 -1.5913656 -1.2395298 -0.72922098 -0.07193077 0.70558636 1.5627002 2.4499727 3.3170289 4.1210654 4.8334613 5.4427799 5.953935 6.3845584 6.7601416 7.1093633 7.4605005 7.8392435 8.2677771 8.7647033 9.3452265 10.020914 10.798076 11.672873 12.61805 13.544843 14.182264 13.688705 9.8803398 1.016469 -7.8364274 -11.611824 -12.050301 -11.335553 -10.309142 -9.2422586 -8.2243467 -7.2841346 -6.4281471 -5.6544977 -4.958401 -4.3344581 -3.7774943 -3.2827081 -2.8455373 -2.4614766
-3.5805817 3.0425703 8.4060797 10.487725 9.6479241 7.8665758 6.1287185 4.6388391 3.3861242 2.3235918 1.4081191 0.60710597 -0.1017027 -0.7312531 -1.2859096 -1.7618412 -2.1473284 -2.4233697 -2.5650415 -2.5440914 -2.333131 -1.9114477 -1.2718093 -0.42679552 0.58755814 1.713129 2.8772937 4.0055168 5.0352033 5.9262746 6.6655097 7.2645011 7.7532661 8.1722835 8.5652761 8.9741011 9.4361533 9.9839816 10.646437 11.450527 12.423099 13.591072 14.976871 16.57669 18.271951 19.493216 18.349727 11.997244 1.113476 -9.7567373 -16.06843 -17.143543 -15.825797 -14.005381 -12.251306 -10.682132 -9.3024651 -8.0920552 -7.028271 -6.0916002 -5.2664976 -4.5408054 -3.9047517 -3.3499673 -2.8687533
-9.5411986 -3.7500897 2.8453908 8.182645 10.226656 9.3445091 7.5165256 5.7242121 4.1720226 2.8486859 1.7072671 0.70547329 -0.18728933 -0.98961747 -1.7086251 -2.3401797 -2.8689699 -3.2688946 -3.5044597 -3.5339803 -3.3152906 -2.8141816 -2.0147863 -0.9297873 0.39294554 1.8712115 3.3994227 4.8682428 6.1867106 7.298888 8.1900501 8.8825487 9.4250844 9.8799895 10.31219 10.781904 11.3416 12.036638 12.908458 13.998986 15.354684 17.027112 19.058712 21.406464 23.623193 24.000602 19.851532 11.394484 1.216646 -8.9446509 -17.351843 -21.417065 -20.92076 -18.548771 -16.008028 -13.744607 -11.801186 -10.136454 -8.7024611 -7.4601734 -6.3805815 -5.4425139 -4.6299424 -3.9296821 -3.3298485
-12.547534 -9.7356541 -3.9711624 2.5885246 7.8828041 9.8840393 8.9419792 7.0480665 5.1790555 3.5385015 2.1147226 0.86127913 -0.26213279 -1.2819255 -2.2095224 -3.0410763 -3.7571106 -4.322532 -4.6879851 -4.7937947 -4.5776925 -3.9868311 -2.9930038 -1.6079742 0.10579924 2.0347665 4.0291097 5.931976 7.6134937 8.9962059 10.063892 10.854521 11.443427 11.923728 12.389612 12.925737 13.603543 14.483565 15.621785 17.077429 18.91802 21.209875 23.946896 26.73664 27.957853 25.002849 18.154196 9.868248 1.3255162 -7.1972724 -15.423017 -22.170102 -24.980397 -23.569008 -20.540948 -17.514817 -14.88098 -12.644933 -10.742539 -9.1131122 -7.711378 -6.505395 -5.4717844 -4.5914982 -3.8471602
-12.327527 -12.757545 -9.9822609 -4.2596235 2.2537843 7.4874462 9.4241996 8.4045773 6.4169566 4.4391718 2.6730107 1.1068185 -0.30394034 -1.5947408 -2.7830515 -3.8660292 -4.8193036 -5.5964647 -6.1304364 -6.3385504 -6.1331454 -5.4384442 -4.2118271 -2.4646646 -0.27694971 2.2005568 4.7644016 7.1985737 9.3235026 11.033059 12.307575 13.20434 13.833729 14.330421 14.828246 15.444186 16.273267 17.39313 18.874909 20.794142 23.227307 26.185061 29.302271 30.995885 28.693608 22.746487 15.618852 8.465311 1.4394165 -5.5627232 -12.644447 -19.650558 -25.423757 -27.496073 -25.512077 -22.039297 -18.656288 -15.725009 -13.234641 -11.114074 -9.3021927 -7.7558493 -6.4439134 -5.3404116 -4.4205211
-10.838478 -12.564434 -13.034858 -10.299967 -4.6354421 1.8133118 6.9706895 8.8086308 7.6811938 5.5618604 3.4300541 1.486877 -0.27749884 -1.9017771 -3.4098751 -4.8002377 -6.0422806 -7.0751925 -7.8098007 -8.1358365 -7.9369751 -7.1142566 -5.6140841 -3.4526294 -0.73073045 2.363217 5.5716409 8.6159014 11.259735 13.359285 14.883863 15.908321 16.584008 17.098878 17.639748 18.366786 19.404369 20.847619 22.778494 25.273026 28.344251 31.638193 33.582519 31.645276 26.196074 19.723641 13.402221 7.3857571 1.5574613 -4.2428841 -10.174729 -16.352556 -22.61861 -27.793384 -29.381616 -27.00624 -23.191535 -19.503195 -16.291701 -13.547002 -11.207449 -9.2234777 -7.5580314 -6.1771473 -5.0451081
-9.3066819 -11.098924 -12.867377 -13.393641 -10.718349 -5.1268665 1.2306096 6.2837586 7.9888691 6.7038537 4.4004424 2.054023 -0.13160601 -2.158691 -4.0501806 -5.803697 -7.3795244 -8.698053 -9.6434445 -10.075481 -9.8517155 -8.8590107 -7.0468817 -4.4493339 -1.1911598 2.5121197 6.3669867 10.047244 13.263005 15.82162 17.663189 18.866357 19.621864 20.181669 20.803032 21.705686 23.051175 24.946613 27.461041 30.591527 33.976107 36.047767 34.301524 29.105575 22.985674 17.129214 11.703617 6.6025394 1.6785535 -3.2129503 -8.2155598 -13.473628 -19.088361 -24.885152 -29.667493 -30.898913 -28.199646 -24.063716 -20.050422 -16.521643 -13.494611 -10.938394 -8.819101 -7.0935956 -5.7081444
-8.0327266 -9.591967 -11.432429 -13.25808 -13.852084 -11.266304 -5.7732385 0.45992254 5.361284 6.8909099 5.3865378 2.8304168 0.1971603 -2.2985823 -4.636394 -6.8015888 -8.7384756 -10.342261 -11.466841 -11.945651 -11.624516 -10.400809 -8.2552566 -5.2591723 -1.560126 2.6254103 7.0108983 11.263593 15.059325 18.146035 20.403357 21.881698 22.795419 23.466785 24.246785 25.442293 27.263786 29.802481 33.012682 36.483681 38.640322 36.973665 31.883907 25.921236 20.288935 15.170771 10.472631 6.0589591 1.8014014 -2.4188761 -6.7193999 -11.224579 -16.063333 -21.320399 -26.79994 -31.284207 -32.206946 -29.152032 -24.615932 -20.170554 -16.241792 -12.922122 -10.214669 -8.0647468 -6.3841691
-7.0272142 -8.3436993 -9.9560779 -11.860388 -13.763914 -14.447194 -11.977407 -6.6243136 -0.55842545 4.1342173 5.4209023 3.6299598 0.74692451 -2.2347162 -5.067475 -7.6761059 -9.9713916 -11.814112 -13.028048 -13.435813 -12.904793 -11.386911 -8.9323376 -5.6650978 -1.7410851 2.6643497 7.3326542 11.985901 16.302927 19.96979 22.767436 24.666775 25.869537 26.764264 27.82575 29.498896 32.065501 35.488176 39.205875 41.528644 39.928338 34.868351 28.926595 23.344371 18.327986 13.798447 9.6312251 5.7083344 1.9245506 -1.8169799 -5.6114937 -9.559323 -13.770183 -18.356833 -23.382974 -28.623736 -32.816889 -33.363344 -29.782537 -24.597108 -19.515647 -15.160001 -11.692134 -9.0358626 -7.0295209
-6.2453483 -7.3647556 -8.7394893 -10.421903 -12.410692 -14.417216 -15.226875 -12.903465 -7.7388841 -1.8968837 2.5283332 3.4942656 1.3530717 -1.8978017 -5.2120182 -8.2632933 -10.874824 -12.857345 -14.012499 -14.186069 -13.322045 -11.483831 -8.8240855 -5.5150389 -1.6866717 2.576664 7.1836658 11.973303 16.676277 20.931719 24.392022 26.887384 28.548201 29.805016 31.285564 33.663057 37.351031 41.779218 44.72013 43.412033 38.399018 32.388225 26.710953 21.6211 17.065765 12.934534 9.1179326 5.5178405 2.0464301 -1.3776885 -4.8339635 -8.4043393 -12.176954 -16.247015 -20.706278 -25.584862 -30.603032 -34.403286 -34.257487 -29.615966 -23.267085 -17.521263 -13.115835 -9.9071272 -7.5791789
-5.6415761 -6.6104586 -7.7933698 -9.2443808 -11.018703 -13.118555 -15.258787 -16.235707 -14.107556 -9.1796736 -3.6224006 0.4791806 1.0831678 -1.4154828 -4.9483204 -8.3631479 -11.20241 -13.18387 -14.103029 -13.881956 -12.608532 -10.506297 -7.8370236 -4.7893108 -1.4211489 2.3153724 6.4934414 11.111919 16.00136 20.787611 24.988225 28.240059 30.527886 32.266552 34.228726 37.405617 42.48948 47.428481 47.503101 42.881333 36.79327 30.876067 25.522383 20.738258 16.437582 12.520279 8.8916865 5.4660502 2.1654099 -1.0829562 -4.3495018 -7.7053061 -11.224427 -14.984759 -19.064397 -23.522566 -28.322815 -33.042056 -36.020056 -34.024583 -26.928701 -19.567449 -14.216358 -10.530821 -7.9531839
-5.1790599 -6.035448 -7.0733142 -8.3389026 -9.8891486 -11.782679 -14.025796 -16.337261 -17.517639 -15.638123 -10.989889 -5.7515387 -1.9851709 -1.6753886 -4.3508819 -7.7920851 -10.698002 -12.524488 -13.060749 -12.360844 -10.709966 -8.5048772 -6.0855299 -3.6085025 -1.0229699 1.8666988 5.303387 9.4609968 14.305736 19.494375 24.43212 28.53689 31.574879 33.850572 36.181582 39.768146 45.563449 50.336716 48.448862 42.813429 36.550587 30.673626 25.384513 20.655234 16.399188 12.520626 8.928679 5.540367 2.2798686 -0.92355661 -4.1380652 -7.4316375 -10.873911 -14.536611 -18.490395 -22.791262 -27.43295 -32.18018 -35.997009 -35.769121 -28.646148 -20.426738 -14.635489 -10.753217 -8.0800228
-4.8294498 -5.603138 -6.5343458 -7.6616291 -9.0339919 -10.711449 -12.755905 -15.17687 -17.69652 -19.110538 -17.498378 -13.13176 -8.1570621 -4.5816776 -4.2659706 -6.5871674 -9.1744435 -10.692619 -10.795052 -9.674863 -7.8184812 -5.7581344 -3.8528526 -2.1845164 -0.58506619 1.2705033 3.7684934 7.2451777 11.819829 17.225713 22.803037 27.761487 31.598954 34.404522 36.876836 40.117524 44.991407 49.596521 49.311689 44.356733 37.98249 31.829677 26.286586 21.35212 16.932799 12.921986 9.2195736 5.7354558 2.3882644 -0.89736206 -4.1939108 -7.574026 -11.112971 -14.88957 -18.98264 -23.451968 -28.261543 -32.988621 -35.973244 -33.983396 -26.892317 -19.535185 -14.187645 -10.50518 -7.9302132
-4.5710625 -5.2854532 -6.1403252 -7.1682921 -8.4104881 -9.9184644 -11.75436 -13.981099 -16.606931 -19.349527 -20.993227 -19.585385 -15.370443 -10.405674 -6.5806247 -5.6094858 -6.7374192 -7.6666442 -7.3907601 -6.067111 -4.2964661 -2.662399 -1.4792745 -0.73642885 -0.17331403 0.61838026 2.1196234 4.7936175 8.9096525 14.316931 20.354462 26.069289 30.6806 33.990395 36.465499 38.975866 42.261514 46.041724 48.281371 46.321125 40.74665 34.272767 28.222654 22.836485 18.047043 13.731119 9.7685845 6.0527873 2.4892067 -1.0087381 -4.5244992 -8.1431047 -11.95507 -16.057439 -20.543393 -25.444162 -30.480878 -34.296726 -34.16411 -29.533791 -23.194476 -17.456864 -13.058511 -9.8559296 -7.5333061
-4.3871763 -5.0609493 -5.8635958 -6.8234642 -7.9755496 -9.362897 -11.037722 -13.060292 -15.487138 -18.312771 -21.22932 -22.98685 -21.561126 -17.118933 -11.609347 -6.8010545 -4.3858385 -3.77454 -3.0991628 -1.8675678 -0.52117102 0.43355689 0.7757164 0.59640128 0.2022422 0.028205827 0.59373618 2.4409349 5.9675522 11.164017 17.434946 23.734359 29.032602 32.825342 35.319805 37.204234 39.208442 41.705738 44.413304 45.791702 43.375262 37.640146 31.15352 25.137369 19.777545 14.976622 10.594659 6.5012811 2.5815202 -1.2690501 -5.1515182 -9.1707305 -13.439887 -18.074443 -23.140194 -28.413904 -32.634623 -33.204271 -29.643083 -24.474335 -19.407128 -15.063719 -11.606405 -8.9592744 -6.9608808
-4.2646944 -4.9130382 -5.6829896 -6.600013 -7.6946991 -9.0033276 -10.568025 -12.435808 -14.654279 -17.255514 -20.193013 -23.097125 -24.637613 -22.710676 -17.391586 -10.616304 -4.2369884 -0.21277772 1.5793174 2.6079125 3.2605172 3.3583132 2.8229159 1.7989137 0.59095889 -0.38852322 -0.63051289 0.4380277 3.3098284 8.1216245 14.396668 21.071577 26.925459 31.169798 33.763695 35.260185 36.400574 37.784475 39.719444 41.989841 43.103734 40.571153 34.780328 28.257824 22.181375 16.711496 11.734505 7.0990472 2.6642994 -1.6982904 -6.1137773 -10.71239 -15.627548 -20.947478 -26.479057 -31.006656 -31.965686 -28.941335 -24.43111 -20.007752 -16.09782 -12.794327 -10.100834 -7.9630096 -6.2929581
-4.1931363 -4.828585 -5.5819372 -6.4769065 -7.5411675 -8.80607 -10.305425 -12.072659 -14.135221 -16.504043 -19.151046 -21.944036 -24.413559 -25.140141 -22.016122 -15.208423 -6.8794184 0.77125118 5.4242755 6.9676625 6.9554129 6.1362532 4.7381641 2.9618142 1.0804998 -0.5472885 -1.4565578 -1.0819091 1.1275777 5.440282 11.525682 18.367083 24.621044 29.260055 32.015908 33.319054 33.907497 34.470413 35.493121 37.207763 39.355594 40.39564 37.811092 31.943571 25.289351 19.008669 13.245927 7.8760982 2.7369496 -2.3277066 -7.4704532 -12.842614 -18.550801 -24.424605 -29.270789 -30.555444 -27.900819 -23.80253 -19.82114 -16.319539 -13.31577 -10.779557 -8.6775406 -6.9670185 -5.5946135
-4.1638884 -4.796857 -5.546986 -6.4371755 -7.4934243 -8.7437472 -10.215534 -11.930301 -13.894553 -16.085767 -18.433798 -20.798409 -22.926862 -24.281541 -23.511643 -18.751277 -10.55041 -1.4018649 6.2821499 10.170188 10.397947 8.8759238 6.6819883 4.2250267 1.7676192 -0.39346755 -1.8542664 -2.0829205 -0.50372738 3.2554166 9.0117315 15.838454 22.335214 27.288506 30.226132 31.456692 31.697385 31.678197 31.948434 32.853648 34.528368 36.651967 37.641463 34.936605 28.874709 21.914383 15.20414 8.8769174 2.7992118 -3.2023173 -9.2973476 -15.608313 -21.983636 -27.248625 -28.911776 -26.598975 -22.836825 -19.192861 -16.01903 -13.306454 -10.99443 -9.0341561 -7.3891963 -6.0260958 -4.9095541
-4.1696572 -4.808767 -5.5667348 -6.4664006 -7.5330671 -8.792657 -10.267631 -11.969162 -13.883766 -15.953411 -18.052035 -19.970609 -21.433496 -22.148776 -21.752192 -19.310888 -13.423775 -4.9297682 3.6851851 10.232687 12.682502 11.488677 8.7781039 5.7185119 2.7367239 0.10575852 -1.8295528 -2.5841389 -1.5839326 1.6139763 6.9572885 13.630222 20.227793 25.401063 28.500132 29.715291 29.731846 29.298538 28.993366 29.189286 30.099749 31.775544 33.842641 34.688924 31.707997 25.218705 17.657652 10.15669 2.8511755 -4.3771224 -11.642758 -18.799281 -24.696209 -26.870899 -24.972093 -21.570602 -18.247573 -15.367023 -12.919779 -10.836045 -9.0557695 -7.5366669 -6.2483081 -5.1652943 -4.2632755
-4.2040897 -4.8563638 -5.6311395 -6.5517537 -7.6434962 -8.9309897 -10.432595 -12.149832 -14.049435 -16.036956 -17.926886 -19.42932 -20.195179 -19.961308 -18.738823 -16.730509 -13.536372 -7.9191134 -0.45315763 6.7590929 11.867066 13.063297 10.886672 7.4965266 4.0465766 0.97189448 -1.398549 -2.6236441 -2.1477746 0.51218147 5.4069831 11.831855 18.409655 23.700077 26.908116 28.118113 27.978901 27.244519 26.505738 26.139733 26.362861 27.287183 28.899586 30.778493 31.267572 27.725635 20.406207 11.741668 2.8932778 -5.8774688 -14.305429 -21.218345 -24.165407 -22.867452 -19.934003 -16.987213 -14.420265 -12.240896 -10.386765 -8.798628 -7.4323773 -6.257019 -5.249948 -4.3927515 -3.6685767
-4.2615265 -4.932522 -5.731126 -6.6815226 -7.8093518 -9.1382293 -10.682471 -12.433492 -14.336996 -16.260092 -17.956124 -19.055689 -19.140678 -17.953656 -15.68053 -13.028642 -10.723141 -8.3357502 -4.1676922 1.7336377 7.5779109 11.612879 12.041896 9.3595639 5.696201 2.219265 -0.57102067 -2.2347224 -2.2359012 -0.073837246 4.3741574 10.495713 16.952771 22.25121 25.491687 26.674468 26.411794 25.451868 24.386658 23.588563 23.260598 23.50409 24.356172 25.745065 27.18821 26.943192 22.293081 13.431692 2.9262958 -7.5015957 -16.126885 -20.371496 -20.023557 -17.774953 -15.337378 -13.160678 -11.290527 -9.6880081 -8.307091 -7.1102908 -6.0698532 -5.1656295 -4.3824282 -3.7077532 -3.1302889
-4.3368566 -5.03078 -5.8584259 -6.8449793 -8.0164964 -9.3954237 -10.991399 -12.784289 -14.696265 -16.55291 -18.045368 -18.73194 -18.148292 -16.074037 -12.850375 -9.4400224 -6.9861729 -5.9862598 -5.3602579 -2.8250496 1.8100323 6.7761122 10.236052 10.306114 7.4581943 3.8254634 0.65438925 -1.4306093 -1.874362 -0.1669023 3.8565183 9.6451273 15.89515 21.090163 24.272038 25.385352 25.008627 23.873849 22.563393 21.438807 20.686777 20.386194 20.555472 21.162695 22.054123 22.626149 20.958048 14.180614 2.9513331 -8.2010811 -14.74442 -16.010682 -14.851511 -13.16335 -11.520159 -10.044426 -8.7438936 -7.6008231 -6.5946049 -5.7073627 -4.924881 -4.2360884 -3.6321046 -3.1052956 -2.6485718
-4.4254394 -5.1452721 -6.0055419 -7.0324279 -8.2522394 -9.6857694 -11.33691 -13.172006 -15.08668 -16.861819 -18.126587 -18.378173 -17.13599 -14.25887 -10.259445 -6.2742853 -3.5536687 -2.8075278 -3.7647345 -4.7821583 -3.3830909 0.5461262 5.0978679 8.3381931 8.3259922 5.5596486 2.2570297 -0.20273435 -1.0633225 0.2242096 3.8462891 9.2807069 15.245729 20.22835 23.256101 24.247822 23.752803 22.47735 20.984021 19.618165 18.549955 17.837926 17.474979 17.406529 17.509268 17.478462 16.442781 12.193535 2.9698055 -6.178114 -10.196554 -10.836273 -10.289015 -9.4027195 -8.4536449 -7.5352756 -6.6795744 -5.8956667 -5.1837675 -4.5407967 -3.9627467 -3.4455824 -2.9854404 -2.5785343 -2.2210032
-4.5230644 -5.2707046 -6.1657622 -7.235291 -8.5055507 -9.9950428 -11.700718 -13.573426 -15.479572 -17.153196 -18.163681 -17.960847 -16.078674 -12.492586 -7.8973342 -3.5557873 -0.70381227 0.019479097 -1.2801999 -3.8174945 -5.8424892 -5.011335 -1.3610262 3.0698479 6.3028729 6.4275864 4.0153496 1.4396732 0.21765778 1.1088839 4.3386136 9.3909166 14.994665 19.661182 22.442404 23.258339 22.633447 21.240174 19.612197 18.073885 16.779248 15.771425 15.025731 14.467757 13.962792 13.25937 11.835017 8.6405696 2.9834258 -2.5992882 -5.5672086 -6.6031954 -6.7401746 -6.4782274 -6.0415964 -5.5365482 -5.0160519 -4.5071247 -4.0234766 -3.5718248 -3.1551796 -2.7745517 -2.4298031 -2.1200467 -1.8438347
-4.6259253 -5.4023429 -6.3331694 -7.4461536 -8.7671478 -10.311709 -12.068755 -13.972049 -15.857038 -17.410533 -18.146756 -17.483189 -14.995293 -10.800301 -5.7715233 -1.2555767 1.5860822 2.2631511 0.94328235 -1.8373553 -5.2586209 -7.7233839 -7.0770125 -3.4684255 1.0202521 4.4270132 4.9455501 3.2864428 1.9667856 2.5089066 5.3380814 9.9636902 15.125523 19.377945 21.827489 22.415782 21.645659 20.149069 18.423244 16.767369 15.319506 14.112179 13.112972 12.243415 11.376968 10.31577 8.7525292 6.3092705 2.994191 -0.24805107 -2.4697133 -3.6533219 -4.161394 -4.2799082 -4.1808141 -3.9635352 -3.6859533 -3.3821655 -3.0724334 -2.7688597 -2.4786765 -2.2061529 -1.9536914 -1.7224525 -1.5127192
-4.7305911 -5.5359844 -6.50262 -7.6587471 -9.0294673 -10.626822 -12.430839 -14.357126 -16.2095 -17.629026 -18.081763 -16.96846 -13.926873 -9.2263236 -3.9008584 0.65848531 3.395449 3.9798437 2.6794521 0.00023935135 -3.5455479 -7.3154056 -9.8886026 -9.2147671 -5.4993673 -0.7839014 3.0588374 4.3583138 3.9807067 4.4226346 6.8603083 10.996536 15.625042 19.368282 21.40893 21.722115 20.789887 19.198219 17.401679 15.670591 14.126894 12.795931 11.644854 10.603063 9.5685709 8.4076899 6.9656158 5.1330423 3.0043707 0.94685994 -0.66930942 -1.7409503 -2.3627332 -2.6692797 -2.7697095 -2.7401713 -2.6312547 -2.4760358 -2.2960645 -2.105409 -1.9132874 -1.7257479 -1.5467251 -1.3787008 -1.2231229
-4.8339652 -5.6679081 -6.6696816 -7.8678721 -9.2865688 -10.933901 -12.780469 -14.723241 -16.534681 -17.812999 -17.984546 -16.448446 -12.91912 -7.8150997 -2.3031923 2.2152912 4.8009148 5.2700624 3.979582 1.4472692 -1.891464 -5.7085004 -9.5265619 -12.031886 -11.194894 -7.1973943 -1.9929852 2.6891166 5.2891563 6.6502718 8.9011449 12.500208 16.491366 19.627224 21.18711 21.182933 20.072273 18.389252 16.540544 14.764642 13.166975 11.767557 10.536735 9.4162018 8.3301591 7.1942672 5.9332795 4.5187919 3.016499 1.5837515 0.3806593 -0.51878804 -1.1291793 -1.5067062 -1.7124631 -1.7976227 -1.8008372 -1.7499714 -1.6646917 -1.5587612 -1.4417926 -1.3204999 -1.1995587 -1.0821901 -0.97055437
-4.9332263 -5.7947912 -6.830516 -8.0692407 -9.5339395 -11.228722 -13.11472 -15.07051 -16.838409 -17.977418 -17.882288 -15.96257 -12.016726 -6.6012411 -0.98525366 3.446119 5.8695381 6.2248096 4.9362725 2.5339455 -0.56837843 -4.1187834 -7.9415652 -11.64577 -13.938761 -12.763323 -8.1983141 -2.0910915 3.9244705 8.2288615 11.258371 14.468055 17.740857 20.168738 21.177246 20.816366 19.51051 17.734542 15.842816 14.040009 12.414716 10.982214 9.7166999 8.5713267 7.4904198 6.4195045 5.3182344 4.1776576 3.033371 1.9572378 1.0237307 0.27628896 -0.28098167 -0.67040934 -0.92442947 -1.0751395 -1.1498621 -1.1701964 -1.1525677 -1.1092172 -1.0491781 -0.97908374 -0.90378646 -0.82681234 -0.75069059
-5.0257515 -5.9135892 -6.9816948 -8.2591972 -9.7680841 -11.50876 -13.433549 -15.4039 -17.134249 -18.148209 -17.814647 -15.559469 -11.264714 -5.609797 0.05933515 4.3894026 6.663929 6.9212141 5.6327173 3.3348494 0.43227656 -2.8391596 -6.3649164 -10.041154 -13.487226 -15.361224 -13.533215 -7.9765058 -0.48886074 7.1641779 12.962102 16.703259 19.38848 21.04507 21.433216 20.67115 19.144762 17.262763 15.323775 13.497427 11.855032 10.406668 9.1291946 7.9841269 6.928819 5.9247876 4.9456847 3.9847562 3.0580475 2.1985016 1.4415493 0.81071204 0.31168502 -0.064682023 -0.33574629 -0.52125918 -0.63986486 -0.70757012 -0.73740597 -0.73966047 -0.72231356 -0.69149098 -0.65186229 -0.60696317 -0.55944675
-5.1090289 -6.0213912 -7.1199574 -8.4343115 -9.9858395 -11.772029 -13.737855 -15.730061 -17.438619 -18.35548 -17.825945 -15.290752 -10.707272 -4.8612972 0.84210539 5.0846747 7.240211 7.4223621 6.1347236 3.9163838 1.1669823 -1.8786891 -5.1077448 -8.4627817 -11.836073 -14.79439 -15.912942 -12.978744 -5.9894284 3.0778206 12.0188 18.252239 21.281366 22.325727 22.058087 20.838097 19.044339 17.021635 15.011666 13.147761 11.482614 10.019417 8.7353179 7.5965203 6.5676357 5.6179409 4.7260972 3.8833442 3.0938757 2.3711709 1.7311217 1.1851754 0.73666506 0.3810114 0.1082397 -0.094108953 -0.23875735 -0.33739492 -0.40011325 -0.43529685 -0.44974661 -0.44889498 -0.43703619 -0.41753663 -0.39301338
-5.1805754 -6.1152754 -7.2419569 -8.590926 -10.183554 -12.015573 -14.026708 -16.052354 -17.762454 -18.62122 -17.95045 -15.198473 -10.38288 -4.3769504 1.3668763 5.557922 7.6372919 7.7724349 6.4890043 4.3281844 1.6879302 -1.1929781 -4.1895856 -7.2323897 -10.246491 -13.059363 -15.151724 -15.053344 -10.608789 -2.0936372 8.0528463 17.1727 22.513896 23.900098 23.149512 21.431856 19.299249 17.073026 14.944618 13.010039 11.300595 9.8094629 8.5107576 7.3716332 6.3595652 5.4467772 4.6129678 3.8466096 3.1445341 2.5096148 1.9471287 1.4611426 1.0522325 0.71698407 0.44881648 0.23932955 0.079559336 -0.039131084 -0.12454678 -0.18345183 -0.22154698 -0.24354683 -0.25329892 -0.25391149 -0.24787356
-5.2378793 -6.1922029 -7.344067 -8.7248078 -10.356456 -12.23432 -14.295268 -16.367206 -18.105251 -18.950801 -18.20268 -15.307464 -10.32197 -4.1826306 1.6211011 5.811832 7.8697342 7.993889 6.7239239 4.6045676 2.0363748 -0.73421096 -3.5662446 -6.365132 -9.0299127 -11.408163 -13.239154 -13.975124 -12.278382 -6.3568968 3.0418772 13.09719 21.153438 24.859803 24.5706 22.516181 19.991634 17.48033 15.1646 13.108341 11.318633 9.7744854 8.4429618 7.2884204 6.2776751 5.3827889 4.5824454 3.8622639 3.2141147 2.6345159 2.1224641 1.6773104 1.2972613 0.97876117 0.71662359 0.50458017 0.33592226 0.20403836 0.10277562 0.026634476 -0.029162219 -0.068679999 -0.095327383 -0.1119295 -0.12080593
-5.2783839 -6.2489805 -7.4223122 -8.8310286 -10.498473 -12.420842 -14.534575 -16.664156 -18.455841 -19.334962 -18.580484 -15.628428 -10.548802 -4.3090496 1.5774537 5.8288094 7.931398 8.0911981 6.8533865 4.7686274 2.2456858 -0.45658732 -3.1780041 -5.7948162 -8.1662259 -10.100729 -11.356756 -11.675295 -10.715774 -7.5807858 -1.0045996 8.006858 16.801617 23.192868 25.339607 23.888678 21.133744 18.289449 15.711005 13.469384 11.551637 9.9194618 8.5287934 7.3375194 6.3087232 5.4119509 4.6234692 3.9258853 3.3072577 2.759802 2.2783891 1.8591205 1.49825 1.1915834 0.93432262 0.72120936 0.54680011 0.40574715 0.29301794 0.20403342 0.13473346 0.081588163 0.041574577 0.012134354 -0.0088767722
-5.2995196 -6.2823025 -7.4724299 -8.9040831 -10.602484 -12.565944 -14.732853 -16.928552 -18.797313 -19.75729 -19.073674 -16.164291 -11.082529 -4.787427 1.2016494 5.5798022 7.803047 8.0563816 6.8808622 4.8357865 2.3449616 -0.3138579 -2.9561171 -5.4245495 -7.5333554 -9.0399722 -9.6718794 -9.2366291 -7.7735392 -5.4826303 -1.9878818 3.8487021 11.351347 18.442359 23.378045 24.505626 22.482125 19.484868 16.611941 14.121642 12.020107 10.256532 8.7733651 7.5187557 6.4492437 5.5297749 4.7329351 4.0379171 3.4293524 2.8960643 2.4298271 2.0242505 1.6739048 1.3737476 1.1188368 0.90426114 0.72519792 0.57701938 0.45539592 0.35637079 0.27640002 0.21236158 0.16154212 0.1216094 0.090577154
-5.2987798 -6.2888584 -7.490034 -8.9381523 -10.660785 -12.659491 -14.876992 -17.144013 -19.110538 -20.198147 -19.6667 -16.909754 -11.932975 -5.6428354 0.45891656 5.0286328 7.4543616 7.8697007 6.7998945 4.8148477 2.3608475 -0.25727279 -2.8231024 -5.1393492 -6.9710279 -8.0259926 -8.0077124 -6.770033 -4.5325607 -1.9531534 0.29402168 2.6156699 6.6875179 12.448413 18.198122 22.291634 22.985831 20.816997 17.848029 15.090703 12.751286 10.806262 9.1902787 7.8402375 6.7036706 5.7388836 4.9134216 4.2023748 3.5868223 3.0524468 2.5883186 2.185872 1.8380992 1.538975 1.2830928 1.065472 0.88148017 0.72682052 0.59754575 0.49007436 0.40119796 0.32807631 0.26822138 0.2194736 0.17997324
-5.2738331 -6.265488 -7.4708305 -8.9274072 -10.66551 -12.691007 -14.953331 -17.29327 -19.3746 -20.633675 -20.334975 -17.844354 -13.091443 -6.8856534 -0.6815963 4.1312015 6.8401149 7.4956441 6.5914491 4.7070524 2.3180155 -0.23448775 -2.6928943 -4.8122335 -6.306067 -6.8432962 -6.1343726 -4.1206162 -1.1886697 1.793074 3.8159695 4.4537191 4.7889785 7.1194463 11.68974 16.774928 20.591903 21.257395 19.179962 16.363382 13.774697 11.59887 9.8029509 8.3187944 7.0839583 6.0481664 5.1723442 4.4264611 3.7875122 3.2378452 2.7638089 2.3546775 2.0018177 1.6980726 1.4373317 1.2142496 1.0240755 0.86255427 0.72587054 0.6106142 0.5137542 0.43261398 0.36484576 0.30840327 0.26151368
-5.22266 -6.2093688 -7.4108639 -8.8663129 -10.608966 -12.649937 -14.947666 -17.357631 -19.565363 -21.033154 -21.040629 -18.926124 -14.522529 -8.5035445 -2.2415856 2.8369808 5.8990155 6.8808507 6.222275 4.5056321 2.2400011 -0.18807641 -2.4702989 -4.307825 -5.3664752 -5.2989916 -3.8696043 -1.1622652 2.2543169 5.3989562 7.2596237 7.2914968 5.8232692 4.5130933 5.8268391 9.9189751 14.882846 18.76798 19.597753 17.712792 15.084574 12.668928 10.645471 8.9812731 7.6103144 6.4730263 5.5220212 4.720755 4.0412029 3.4618062 2.9658517 2.5402272 2.1744804 1.860117 1.5900913 1.3584458 1.1600626 0.99049514 0.84585429 0.72272797 0.61812233 0.5294148 0.45431445 0.39082663 0.33722082
-5.14371 -6.1182315 -7.3068017 -8.7499729 -10.48398 -12.525854 -14.845004 -17.315822 -19.653003 -21.355322 -21.728511 -20.088366 -16.161601 -10.457636 -4.2264582 1.0983723 4.5618911 5.9592151 5.6476621 4.1978789 2.1515611 -0.053189893 -2.0502775 -3.4860178 -3.9929841 -3.2455491 -1.1171867 2.122918 5.7381977 8.7234725 10.214511 9.8362235 7.7877638 4.844067 2.7265301 3.7505222 7.8519692 12.980747 17.087504 18.136824 16.462765 14.016494 11.756647 9.8651695 8.3125812 7.0364447 5.9804266 5.0998461 4.3602929 3.735334 3.2045337 2.7519318 2.3649059 2.0333304 1.7489586 1.5049718 1.2956547 1.1161602 0.96234164 0.83062853 0.71793491 0.62158807 0.53927185 0.46897987 0.40897603
-5.0360675 -5.9906003 -7.1562732 -8.5745871 -10.284475 -12.309065 -14.629987 -17.143772 -19.600537 -21.545368 -22.322603 -21.237325 -17.913238 -12.677109 -6.6122814 -1.1112109 2.7685796 4.6639799 4.8190611 3.7701 2.0820277 0.24360135 -1.3212833 -2.213009 -2.0595271 -0.60713022 2.1111651 5.6334073 9.117081 11.63606 12.558109 11.740484 9.4501349 6.1754477 2.6524185 0.40326075 1.5554786 5.8946911 11.28569 15.646991 16.915115 15.428111 13.140514 11.012385 9.2308372 7.7705169 6.5725245 5.5833991 4.760707 4.071738 3.4913049 2.9998622 2.5820766 2.2257748 1.9211711 1.6603016 1.436608 1.244632 1.0797881 0.93819488 0.81654756 0.71201976 0.62218695 0.54496522 0.4785615
-4.8996121 -5.8260402 -6.9582512 -8.3380405 -10.006369 -11.991981 -14.288891 -16.817386 -19.367354 -21.538892 -22.729528 -22.253178 -19.645927 -15.043967 -9.3211567 -3.7686746 0.49448227 2.9485821 3.6983755 3.215722 2.0672952 0.77901138 -0.18043205 -0.38892064 0.48840082 2.5826034 5.6773412 9.1600103 12.183753 13.999475 14.240228 12.971008 10.526345 7.3037872 3.6746723 0.17290953 -1.8593427 -0.4250138 4.2098387 9.8657667 14.453809 15.918761 14.586588 12.429478 10.409094 8.7171157 7.3319455 6.1976588 5.2631119 4.4876367 3.8398429 3.2955158 2.8358213 2.4459521 2.1141354 1.8309073 1.5885799 1.3808469 1.2024885 1.0491508 0.91717677 0.80347784 0.70543319 0.62081087 0.54770481
-4.7351492 -5.6253738 -6.7134167 -8.0405264 -9.6486546 -11.571005 -13.812932 -16.318189 -18.918223 -21.274586 -22.85268 -22.999764 -21.190452 -17.377007 -12.192529 -6.7640835 -2.2098477 0.82171163 2.2829002 2.5467977 2.1462527 1.6135448 1.4309726 2.0034719 3.5819104 6.1440878 9.3131626 12.415168 14.711699 15.69486 15.246103 13.575475 11.037843 7.9668813 4.5991703 1.1144594 -2.1070539 -3.8152091 -2.0765833 2.8277319 8.714501 13.488412 15.111601 13.908487 11.85548 9.921625 8.3017304 6.9772228 5.8945085 5.0042288 4.2670664 3.6526442 3.1375051 2.7033852 2.3359141 2.0236655 1.7574624 1.529866 1.3347945 1.167237 1.0230353 0.89871777 0.79136993 0.69853342 0.61812652
-4.5444807 -5.3908138 -6.4244081 -7.6850144 -9.2142878 -11.048199 -13.201371 -15.638879 -18.232618 -20.708169 -22.609846 -23.342363 -22.353003 -19.435633 -14.972869 -9.8730552 -5.1777366 -1.6098797 0.63697219 1.8052126 2.3473338 2.7540694 3.4721563 4.8391991 6.9860314 9.7456507 12.653375 15.086591 16.503918 16.650417 15.59855 13.630093 11.074558 8.1976229 5.1600083 2.0320278 -1.1280041 -4.0143642 -5.4151104 -3.4030203 1.7224374 7.7947408 12.721463 14.462331 13.363359 11.393182 9.5281155 7.9658457 6.6900575 5.6489182 4.7944128 4.0882446 3.5008104 3.0092428 2.5957327 2.246269 1.9497171 1.6971463 1.4813321 1.296385 1.1374699 1.0005911 0.8824276 0.78020437 0.69159167
-4.3303942 -5.1259705 -6.0958705 -7.2773948 -8.7105265 -10.432023 -12.46299 -14.786154 -17.309788 -19.821098 -21.94758 -23.170141 -22.946038 -20.953787 -17.341929 -12.765255 -8.1150684 -4.119232 -1.0899825 1.063949 2.6671231 4.1124363 5.7542393 7.8173543 10.303918 12.953202 15.313282 16.911559 17.441666 16.862831 15.361718 13.228164 10.737469 8.0870087 5.382118 2.6497224 -0.13078715 -2.9535651 -5.5371921 -6.6838631 -4.4543208 0.84921688 7.0641421 12.112394 13.946801 12.925159 11.020857 9.2102685 7.6939199 6.457163 5.4494693 4.6238245 3.9426987 3.3770789 2.9045559 2.5076821 2.1727378 1.8888297 1.6472327 1.4409019 1.2641083 1.1121619 0.98119973 0.86802251 0.76996672
-4.0965609 -4.8357138 -5.7342729 -6.8262394 -8.148629 -9.7369787 -11.615763 -13.780658 -16.169808 -18.624839 -20.853053 -22.421556 -22.83113 -21.69749 -18.976321 -15.063816 -10.647301 -6.3913152 -2.6849997 0.40978613 3.0544031 5.4949419 7.9476503 10.502582 13.058531 15.337062 16.990166 17.746504 17.515919 16.402886 14.636721 12.47358 10.124595 7.7267579 5.3439981 2.9811032 0.60085446 -1.8523512 -4.388062 -6.7278268 -7.6707337 -5.2809225 0.16139022 6.4860922 11.622875 13.537037 12.573484 10.72056 8.953116 7.473333 6.2678267 5.2870258 4.4846579 3.8237688 3.2757951 2.8186831 2.4352711 2.1120735 1.8383939 1.6056759 1.4070225 1.2368363 1.0905456 0.96439532 0.85528384
-3.8473504 -4.525906 -5.347518 -6.3422293 -7.543018 -8.9824113 -10.685225 -12.655059 -14.852117 -17.161998 -19.362033 -21.105539 -21.959872 -21.528997 -19.634898 -16.444378 -12.420123 -8.110926 -3.9347219 -0.087976518 3.415114 6.6477423 9.6708178 12.451707 14.836467 16.600175 17.547585 17.600522 16.825697 15.400766 13.548103 11.472586 9.3257253 7.1970758 5.1216797 3.0924347 1.0714127 -1.0003645 -3.1866993 -5.4975146 -7.6516034 -8.4371502 -5.9243322 -0.38095091 6.0292849 11.231214 13.205197 12.291082 10.477857 8.7445843 7.2939429 6.1134761 5.1543156 4.3707382 3.7262221 3.1925469 2.7479343 2.3754475 2.0617882 1.7964185 1.5709189 1.3785126 1.2137091 1.072033 0.94981545
-3.5875848 -4.2030403 -4.9444078 -5.8373608 -6.9101015 -8.1907788 -9.7020094 -11.450736 -13.411502 -15.502396 -17.557263 -19.307049 -20.395212 -20.453746 -19.235252 -16.734801 -13.208071 -9.061396 -4.6950979 -0.40339769 3.6396248 7.3400969 10.620661 13.366541 15.426154 16.668215 17.045519 16.620758 15.546325 14.017692 12.225836 10.32488 8.4190772 6.5645549 4.7781943 3.0475311 1.3385714 -0.39907878 -2.2278504 -4.2099518 -6.3512004 -8.3661598 -9.0387683 -6.4262572 -0.80878968 5.6661515 10.923101 12.936092 12.062811 10.281227 8.5750233 7.1476521 5.9872839 5.0455669 4.2771858 3.6459437 3.123882 2.6894357 2.3258446 2.0199588 1.7613674 1.541761 1.35446 1.1940599 1.0561627
-3.32226 -3.8738339 -4.5340416 -5.3240498 -6.2669338 -7.3856477 -8.6988445 -10.213278 -11.911375 -13.733246 -15.555103 -17.171993 -18.30121 -18.626221 -17.885336 -15.97152 -12.982484 -9.1860682 -4.9299577 -0.55733701 3.6414217 7.4434803 10.676199 13.191952 14.878372 15.697354 15.706308 15.042726 13.886001 12.417056 10.789589 9.1166141 7.4692384 5.8824346 4.3631946 2.8980232 1.4583856 0.0038370046 -1.5166268 -3.1628747 -4.9931081 -7.0087243 -8.9192006 -9.5103845 -6.8247431 -1.1470646 5.3754034 10.677533 12.722737 11.87732 10.121429 8.4367609 7.0280208 5.8838267 4.9562052 4.2001444 3.5796924 3.0670905 2.6409388 2.2846151 1.985087 1.7320445 1.5172664 1.3341507 1.1773623
-3.0562677 -3.5448225 -4.1252214 -4.8142484 -5.6298882 -6.5896652 -7.7073894 -8.9874309 -10.415554 -11.94578 -13.48443 -14.876249 -15.90293 -16.307549 -15.851167 -14.386808 -11.915896 -8.5973068 -4.7106988 -0.59894346 3.393883 6.9760936 9.9311706 12.115368 13.463507 14.001477 13.837391 13.129194 12.046911 10.74346 9.3389291 7.9166446 6.5265421 5.1916043 3.9145848 2.6835669 1.4758133 0.25986607 -1.0038894 -2.3636487 -3.8756278 -5.5942061 -7.5172347 -9.3502883 -9.8757816 -7.1423315 -1.4165748 5.1428134 10.474925 12.552659 11.727003 9.9911302 8.3237119 6.9299392 5.7988026 4.8826063 4.1365647 3.5249111 3.0200392 2.600677 2.25031 1.955998 1.707511 1.496698 1.3170191
-2.7941446 -3.2220012 -3.7259303 -4.3186772 -5.0135038 -5.8227833 -6.7554169 -7.8124861 -8.9805254 -10.222117 -11.464598 -12.589983 -13.43254 -13.792665 -13.472532 -12.327947 -10.318 -7.5318655 -4.1839688 -0.57954044 2.945328 6.0917975 8.6427381 10.474521 11.556013 11.941196 11.746513 11.117432 10.197966 9.1108741 7.9491329 6.7756967 5.6276858 4.5219664 3.4603737 2.4338154 1.4250576 0.41023617 -0.64077908 -1.7650075 -3.0075383 -4.4214238 -6.0580695 -7.9126637 -9.6892914 -10.162662 -7.3912105 -1.6328279 4.9569658 10.309677 12.411045 11.605221 9.8846266 8.2310558 6.8493572 5.7288015 4.8218994 4.0840345 3.4795797 2.9810457 2.5672587 2.2217882 1.931766 1.6870254 1.4794707
-2.5398719 -2.9105442 -3.3429359 -3.8462543 -4.4296441 -5.1009805 -5.8647981 -6.718983 -7.6498748 -8.6256739 -9.5887808 -10.449111 -11.082397 -11.338838 -11.066035 -10.144461 -8.5261566 -6.2634843 -3.5170098 -0.5352308 2.3948819 5.0107359 7.1216062 8.626354 9.5098431 9.8274105 9.6800696 9.1865975 8.4608781 7.5983676 6.6709408 5.7274458 4.7971492 3.8939782 3.02039 2.1703855 1.3315631 0.4862619 -0.38812196 -1.3195863 -2.3426696 -3.4999481 -4.8421079 -6.4184242 -8.2221501 -9.9564402 -10.395295 -7.5875239 -1.8062856 4.806686 10.180601 12.293267 11.505409 9.7974356 8.1549823 6.7830679 5.671123 4.7718123 4.040646 3.4421029 2.9487825 2.5395866 2.1981494 1.9116592 1.6699985
-2.2967384 -2.6146229 -2.9815469 -3.4037658 -3.8870416 -4.4356115 -5.0505349 -5.7271972 -6.4517972 -7.1968508 -7.9162318 -8.5411476 -8.9795604 -9.1223076 -8.8584422 -8.0993262 -6.8066081 -5.0157192 -2.8453397 -0.4845637 1.8437968 3.9318406 5.6263 6.8461769 7.580165 7.8716615 7.7977622 7.4481249 6.9086375 6.2517968 5.5329899 4.7907475 4.0490477 3.3202472 2.6078174 1.9085197 1.213925 0.51129687 -0.21611388 -0.98933539 -1.8345055 -2.7842532 -3.8793335 -5.1687696 -6.700366 -8.4661007 -10.167219 -10.582549 -7.7486706 -1.9455004 4.6837138 10.077106 12.200736 11.423052 9.7259353 8.0924835 6.7285357 5.6236317 4.7305493 4.0048936 3.4112229 2.922204 2.5167962 2.1786836 1.8950976
-2.0672719 -2.3373276 -2.6455282 -2.9957825 -3.3912309 -3.8333839 -4.3208247 -4.8473606 -5.3995666 -5.9538241 -6.4732944 -6.9057875 -7.1841046 -7.2307817 -6.9687053 -6.3373903 -5.3120982 -3.9203575 -2.2488923 -0.43483865 1.3595455 2.9806829 4.3126541 5.2917476 5.9058052 6.1833058 6.1779761 5.9537106 5.5729472 5.0895915 4.5459628 3.9725316 3.3891917 2.8071104 2.2305635 1.6584582 1.0854401 0.5025693 -0.10241446 -0.74522938 -1.445606 -2.228302 -3.1245962 -4.1739856 -5.4243595 -6.9225209 -8.6596518 -10.335589 -10.72789 -7.8811086 -2.0585149 4.5839903 9.9877729 12.127592 11.355949 9.667254 8.0411867 6.6837619 5.5846457 4.6966983 3.9755951 3.3859535 2.900491 2.4982098 2.1628315
-1.8532337 -2.0806826 -2.3371565 -2.6247876 -2.9448052 -3.2968373 -3.6779197 -4.0811652 -4.4941016 -4.8968108 -5.260221 -5.5452094 -5.7034952 -5.6814284 -5.4274423 -4.9029269 -4.094687 -3.0254551 -1.7579041 -0.38843266 0.96942979 2.207036 3.2401126 4.019545 4.5320891 4.7936396 4.8390202 4.7117234 4.455755 4.1103691 3.7074651 3.2709344 2.8171746 2.3561364 1.8924765 1.4265785 0.9553328 0.47263936 -0.030370802 -0.56539818 -1.1473371 -1.7949798 -2.5321264 -3.3891365 -4.4046583 -5.6258176 -7.0987419 -8.8140249 -10.471817 -10.843497 -7.98471 -2.1510224 4.5039708 9.9133653 12.064208 11.301726 9.6192256 7.9992278 6.6471805 5.5528502 4.6691583 3.9518314 3.3655301 2.8830084 2.4833001
-1.6556669 -1.8457365 -2.0573813 -2.2914564 -2.5478898 -2.8251354 -3.1194407 -3.4239217 -3.7274854 -4.0137292 -4.2600871 -4.4376605 -4.5123268 -4.4477286 -4.2104851 -3.7773274 -3.142904 -2.3260156 -1.3715516 -0.34609828 0.67263173 1.609606 2.4049858 3.0216287 3.4463851 3.6864171 3.762892 3.7042855 3.5407776 3.3003722 3.006719 2.678272 2.3283221 1.9654947 1.5944138 1.216347 0.82972955 0.4305203 0.01237246 -0.43339308 -0.9180274 -1.4558384 -2.0649768 -2.7685985 -3.5964483 -4.5866069 -5.7856883 -7.2393686 -8.9377743 -10.581379 -10.941908 -8.0662523 -2.2259647 4.4385606 9.8576472 12.010028 11.257192 9.5801823 7.9651599 6.6175791 5.5272323 4.6470857 3.9329016 3.3493708 2.8692722
-1.474981 -1.6327024 -1.8060517 -1.9950191 -2.1987191 -2.4149777 -2.6398108 -2.8668067 -3.0864635 -3.2855922 -3.4469804 -3.5496004 -3.5697048 -3.4831163 -3.2688187 -2.9135486 -2.4165362 -1.7930175 -1.0749745 -0.30807546 0.45495745 1.1628478 1.7736066 2.2595644 2.6087298 2.8229793 2.9143638 2.9008867 2.8027447 2.6395273 2.4284636 2.1835589 1.9153651 1.631134 1.3351507 1.0291083 0.71243714 0.38254252 0.034923169 -0.33684309 -0.74126395 -1.1892717 -1.6947776 -2.2755048 -2.9541818 -3.760145 -4.7310964 -5.9133071 -7.3521487 -9.0374808 -10.668724 -11.023149 -8.1360164 -2.286127 4.3842065 9.813901 11.969671 11.220512 9.5487564 7.9378816 6.5940402 5.5070328 4.6298541 3.9182893 3.3370477
-1.3110594 -1.4411231 -1.5821694 -1.7336453 -1.8942182 -2.0614756 -2.2315682 -2.3988167 -2.5553323 -2.6907355 -2.7921097 -2.8443635 -2.8311917 -2.7367746 -2.5482072 -2.2584037 -1.8689094 -1.3918016 -0.84983643 -0.27434632 0.29890072 0.83490551 1.3043067 1.6866906 1.9717691 2.1585983 2.2535004 2.2674757 2.213738 2.1057416 1.9558257 1.7744309 1.5697603 1.3477365 1.1121257 0.86472775 0.60556459 0.33302443 0.043934964 -0.26645193 -0.60457981 -0.9788312 -1.3999243 -1.8815085 -2.4410253 -3.100921 -3.8902605 -4.8464929 -6.0156583 -7.4429191 -9.1180209 -10.739556 -11.084012 -8.1950318 -2.3351075 4.3405151 9.773754 11.939831 11.191637 9.5239047 7.9165803 6.5759005 5.4917129 4.6170265 3.9076378
-1.1633745 -1.2700402 -1.3841358 -1.504804 -1.6305232 -1.7588979 -1.8864248 -2.0082573 -2.1180089 -2.2076593 -2.2676506 -2.2872785 -2.2554747 -2.162032 -1.9992211 -1.763602 -1.4576642 -1.0908188 -0.67929316 -0.2447016 0.18854756 0.59644851 0.95842284 1.2594794 1.4911441 1.6511957 1.7425363 1.7716385 1.7469595 1.6775823 1.5722034 1.4384752 1.2826496 1.1094397 0.92202064 0.72210113 0.51001455 0.28479466 0.04421146 -0.21524985 -0.4984817 -0.81193476 -1.1639079 -1.5649796 -2.028628 -2.5721098 -3.2176845 -3.9942362 -4.9390441 -6.097992 -7.5160986 -9.1829805 -10.797935 -11.131605 -8.2389991 -2.3751435 4.3068274 9.7403981 11.912942 11.169957 9.5049749 7.9006988 6.5627239 5.4809326 4.6083367
-1.0310986 -1.1181517 -1.2099739 -1.3055711 -1.4034034 -1.5012437 -1.5960327 -1.683749 -1.7593253 -1.8166559 -1.8487498 -1.8480871 -1.8072258 -1.7196643 -1.5809043 -1.3895685 -1.1483456 -0.86448811 -0.54962638 -0.21880124 0.11117179 0.42368321 0.70422174 0.9417828 1.1295659 1.2649473 1.348887 1.3850116 1.3786089 1.3357091 1.2623496 1.164052 1.0454956 0.91034602 0.76119158 0.59954376 0.4258651 0.2395973 0.039169249 -0.1780306 -0.41573055 -0.67891405 -0.97403662 -1.309344 -1.6953244 -2.1453446 -2.6765395 -3.3110444 -4.0776222 -5.013437 -6.1642656 -7.5750311 -9.2351914 -10.844633 -11.17457 -8.2714515 -2.4064511 4.2803588 9.7195727 11.890148 11.153758 9.4915922 7.8899234 6.5542895 5.4745401
-0.91320481 -0.9839482 -1.0575102 -1.1328716 -1.2085771 -1.2826448 -1.3524822 -1.4148232 -1.4657104 -1.5005506 -1.514277 -1.5016478 -1.4577001 -1.3783474 -1.2610711 -1.1056065 -0.91448082 -0.69325028 -0.4503099 -0.19623869 0.057243178 0.298517 0.51726174 0.7053767 0.85748954 0.97102376 1.0458999 1.0840012 1.0885428 1.0634588 1.0128792 0.94073012 0.85045651 0.74485206 0.62596843 0.49507718 0.35265949 0.19840355 0.031193329 -0.15092413 -0.35080414 -0.57231359 -0.82049685 -1.1018148 -1.4244802 -1.7989235 -2.2384383 -2.760079 -3.3858973 -4.1445739 -5.0731939 -6.2174599 -7.622229 -9.2768998 -10.880487 -11.209902 -8.3001003 -2.4296176 4.2594551 9.7062179 11.877532 11.142503 9.483545 7.8841832 6.5505924
-0.80855126 -0.86582343 -0.92451701 -0.98365686 -1.0419277 -1.0976194 -1.1485834 -1.1922104 -1.2254477 -1.2448718 -1.2468367 -1.227712 -1.1842132 -1.1138117 -1.0151812 -0.88861731 -0.73634114 -0.56260133 -0.37350913 -0.17659344 0.019872448 0.20766144 0.37935874 0.5289708 0.65228972 0.74698816 0.81247793 0.84960213 0.86024255 0.84691449 0.81240079 0.75945311 0.69056892 0.60783862 0.51284951 0.40663034 0.28962034 0.16164825 0.021909313 -0.13107042 -0.2994915 -0.48636944 -0.69566402 -0.93246201 -1.2032299 -1.5161604 -1.8816463 -2.3129329 -2.8270201 -3.4459025 -4.1982039 -5.1209541 -6.2598034 -7.6595584 -9.3096444 -10.908369 -11.231972 -8.32388 -2.4464066 4.2453496 9.6934199 11.873107 11.137348 9.4808901 7.883663
