ncols         65
nrows         65
xllcorner     -812.5
yllcorner     -812.5
cellsize      25
NODATA_value  -9999
-0.79463726 -0.35148356 -0.15649516 -0.1037049 -0.13494506 -0.21627257 -0.32664187 -0.45216242 -0.58298465 -0.71149409 -0.83120154 -0.93603382 -1.019881 -1.0763315 -1.098569 -1.0794259 -1.0115993 -0.88803482 -0.70247114 -0.45011654 -0.12839341 0.26234911 0.71828774 1.2318871 1.7920912 2.3849967 2.9949581 3.605965 4.2030514 4.773482 5.3075102 5.798609 6.2431912 6.6399247 6.9887969 7.2900706 7.543235 7.7459905 7.8932462 7.9760575 7.9804228 7.8858993 7.6641893 7.2783244 6.6841454 5.8376496 4.7133699 3.3348982 1.8010885 0.27294621 -1.0887191 -2.185653 -2.9952978 -3.5446414 -3.879761 -4.0475254 -4.0883305 -4.0346957 -3.9121282 -3.7405367 -3.5355342 -3.3094488 -3.0720491 -2.8310464 -2.5924464
-1.8883064 -0.99982738 -0.56397076 -0.3780244 -0.33587532 -0.37914967 -0.47361316 -0.59781358 -0.73730161 -0.88147579 -1.0217349 -1.1503309 -1.2596344 -1.3416796 -1.3879327 -1.3892715 -1.3361871 -1.2192206 -1.0296411 -0.76034035 -0.40686912 0.031515165 0.55098406 1.1426818 1.7928822 2.4838685 3.195486 3.9071317 4.5998085 5.2578373 5.8699107 6.4293496 6.9336134 7.3832589 7.7805996 8.1282939 8.4280108 8.6792152 8.8780108 9.015886 9.0781411 9.0417422 8.8724052 8.5210566 7.9210623 6.9912511 5.6575464 3.9112907 1.8892353 -0.12555519 -1.8502106 -3.1485788 -4.0303621 -4.5711987 -4.8544324 -4.9495981 -4.9095286 -4.773256 -4.5696606 -4.3204467 -4.0422558 -3.7480656 -3.4480786 -3.1502769 -2.860783
-3.8098284 -2.1017995 -1.2230192 -0.7987274 -0.626204 -0.59921214 -0.65916132 -0.77146976 -0.91416037 -1.0720269 -1.2334196 -1.3883389 -1.5272405 -1.6402767 -1.7168578 -1.7455007 -1.7139734 -1.6097664 -1.4209135 -1.1371517 -0.7513452 -0.26100366 0.3303751 1.012485 1.7682556 2.5749779 3.4064766 4.2359897 5.0391702 5.7965618 6.4950561 7.1281368 7.6950339 8.1991303 8.6460348 9.0416765 9.3906391 9.6947821 9.9520383 10.155136 10.289876 10.332443 10.245085 9.9692902 9.4159627 8.4553295 6.9244618 4.7119158 1.9759138 -0.75102273 -2.936556 -4.423032 -5.3229021 -5.8006323 -5.988189 -5.9776786 -5.8316265 -5.5930067 -5.2922554 -4.9517461 -4.5885243 -4.2159156 -3.8444349 -3.4822904 -3.1356859
-6.9987648 -4.0310796 -2.334677 -1.4700049 -1.061981 -0.90785594 -0.90127286 -0.98337886 -1.1191314 -1.2858228 -1.4671651 -1.6499895 -1.822261 -1.971827 -2.085648 -2.149425 -2.1476229 -2.0639351 -1.8822419 -1.5880803 -1.1705602 -0.62452663 0.04740092 0.8334272 1.7123736 2.6550688 3.6273644 4.5942896 5.5244344 6.3935265 7.186429 7.8972951 8.5281348 9.0863769 9.5820922 10.025418 10.424496 10.783981 11.103934 11.378748 11.595586 11.731591 11.748792 11.584792 11.135837 10.227349 8.5758453 5.833124 2.0596535 -1.7027639 -4.4124857 -6.0095446 -6.8430529 -7.1979226 -7.2508426 -7.1085698 -6.8376528 -6.4816527 -6.0707613 -5.6271775 -5.1680722 -4.7071461 -4.2553809 -3.8213727 -3.4115035
-10.946184 -7.2258762 -4.2720399 -2.5926072 -1.7469365 -1.3605311 -1.2305881 -1.2506029 -1.3613597 -1.5271497 -1.7241868 -1.9345721 -2.1428735 -2.3340406 -2.4921021 -2.5994362 -2.6365736 -2.582589 -2.416169 -2.1174217 -1.6703935 -1.0660706 -0.30538847 0.59848904 1.6194881 2.720257 3.856281 4.9818223 6.0562787 7.0493215 7.9436065 8.7347092 9.4287646 10.038774 10.580611 11.06953 11.517614 11.932211 12.315074 12.661687 12.960066 13.188121 13.30816 13.255886 12.918225 12.087783 10.375239 7.1380371 2.1387762 -2.847287 -6.0450182 -7.6922104 -8.4321618 -8.6554167 -8.5712723 -8.2956485 -7.8969658 -7.4187167 -6.8909137 -6.3360343 -5.7720347 -5.2137162 -4.6731942 -4.1599633 -3.6808873
-13.659684 -11.176492 -7.4763313 -4.5387405 -2.8812855 -2.0602503 -1.7016276 -1.602609 -1.6564576 -1.803396 -2.0066808 -2.2408576 -2.4855536 -2.7219024 -2.9303552 -3.0893798 -3.174901 -3.160521 -3.0186452 -2.7226413 -2.2500482 -1.5866115 -0.7305523 0.30392936 1.4851958 2.7659384 4.0886325 5.3938556 6.6293676 7.7573963 8.7582763 9.6299923 10.384458 11.042036 11.625842 12.156998 12.651431 13.118259 13.559282 13.968768 14.332452 14.624364 14.799289 14.776444 14.40468 13.391435 11.209105 7.3161603 2.2114183 -2.8778723 -6.7245326 -8.829986 -9.7362572 -9.9718614 -9.8309146 -9.4670805 -8.9650377 -8.3758004 -7.7336521 -7.0643557 -6.3889571 -5.7252232 -5.0878632 -4.4882926 -3.9344369
-14.000138 -13.896036 -11.428178 -7.7504357 -4.8369987 -3.2063645 -2.4163183 -2.0925008 -2.0320812 -2.1278984 -2.3192214 -2.5676096 -2.8449339 -3.1269469 -3.3895426 -3.6065276 -3.7484911 -3.782729 -3.6743627 -3.388841 -2.8959074 -2.1748099 -1.2200425 -0.046343183 1.3087696 2.7866819 4.3145638 5.8165805 7.2264608 8.4975852 9.6078318 10.558603 11.369326 12.069594 12.691155 13.26141 13.799295 14.313565 14.802679 15.254874 15.64649 15.935842 16.047881 15.839597 15.027808 13.093859 9.5488579 5.378657 2.2755691 -0.80977086 -4.9267322 -8.383046 -10.19304 -10.846097 -10.86193 -10.525725 -9.9839432 -9.3171865 -8.5756037 -7.7951598 -7.0047273 -6.2285661 -5.4865784 -4.7938223 -4.1601934
-11.902301 -14.237104 -14.15256 -11.708497 -8.0522073 -5.17047 -3.5728029 -2.8205809 -2.539186 -2.5255182 -2.6715636 -2.9148702 -3.2141 -3.5367469 -3.852477 -4.1293228 -4.3316637 -4.4197099 -4.3505673 -4.0810975 -3.5726848 -2.7976466 -1.7464023 -0.43386665 1.0969125 2.7760707 4.5148886 6.2198876 7.8092846 9.2264039 10.446149 11.47373 12.337288 13.077184 13.734901 14.344006 14.924567 15.48113 16.002941 16.463809 16.817708 16.984242 16.813028 16.00803 14.025268 10.351143 6.0270605 3.3254221 2.3291284 1.3528371 -1.2887211 -5.5124594 -9.0457787 -10.847253 -11.430921 -11.342093 -10.87961 -10.198932 -9.3888265 -8.5082202 -7.6021041 -6.7071911 -5.8528205 -5.0603535 -4.3429101
-8.2085506 -12.139741 -14.494818 -14.431828 -12.016518 -8.3886017 -5.5410718 -3.9832923 -3.2756692 -3.0439666 -3.0842633 -3.2867598 -3.5857952 -3.935 -4.2947255 -4.6253395 -4.8837704 -5.0223876 -4.9900526 -4.7354458 -4.2126827 -3.3887563 -2.25156 -0.81669515 0.86862691 2.72638 4.6555585 6.5477604 8.3066944 9.8648695 11.192441 12.296844 13.214426 13.996815 14.695788 15.350297 15.978253 16.573604 17.106673 17.522679 17.730248 17.567067 16.722914 14.635009 10.767876 6.1435351 3.14038 2.1995844 2.3699824 2.5624942 1.6881973 -1.2036379 -5.6712266 -9.3355867 -11.174444 -11.723818 -11.548517 -10.963208 -10.138327 -9.178625 -8.1593471 -7.1395295 -6.1647472 -5.2666219 -4.4630357
-4.9397228 -8.445917 -12.393142 -14.773576 -14.7362 -12.349 -8.7592724 -5.9483923 -4.435476 -3.7776187 -3.6001783 -3.6972688 -3.955376 -4.3028561 -4.6847508 -5.05029 -5.3468931 -5.5182232 -5.5054345 -5.2512793 -4.7066511 -3.8385366 -2.6374189 -1.1220078 0.65905479 2.6278549 4.6823685 6.7094979 8.6041858 10.288048 11.722018 12.910102 13.892851 14.731712 15.488604 16.206502 16.895966 17.529775 18.042743 18.326453 18.20114 17.341342 15.171795 11.137838 6.2618781 2.9277129 1.6591178 1.7206109 2.3960981 3.0955552 3.2291984 2.0816202 -1.0816367 -5.7356382 -9.4956277 -11.338954 -11.821514 -11.522392 -10.774966 -9.7729701 -8.6471992 -7.4960283 -6.3924526 -5.3841783 -4.4954045
-2.9554674 -5.1708859 -8.6990215 -12.666371 -15.071131 -15.06309 -12.705328 -9.1537465 -6.3843773 -4.9168693 -4.3086355 -4.1821757 -4.3271166 -4.622531 -4.9861155 -5.3493628 -5.6465176 -5.8113047 -5.7788046 -5.4909326 -4.9038938 -3.9953391 -2.7681946 -1.2489462 0.51709209 2.4673911 4.5207483 6.5802884 8.5448296 10.326034 11.867132 13.15684 14.230475 15.154891 16.001503 16.815956 17.593647 18.267818 18.707247 18.70212 17.902566 15.718197 11.584528 6.5307303 2.9286951 1.338169 1.0828944 1.5714711 2.4056302 3.265243 3.8304955 3.704029 2.2958363 -1.0686776 -5.8281934 -9.6099099 -11.385277 -11.722219 -11.219188 -10.241147 -9.0229371 -7.7337678 -6.4934857 -5.3744056 -4.4078155
-1.886408 -3.1820258 -5.4156295 -8.962122 -12.955642 -15.382483 -15.402323 -13.076859 -9.5551177 -6.8249584 -5.3953465 -4.8239339 -4.7270859 -4.8849698 -5.1631248 -5.4625309 -5.6976378 -5.7902736 -5.6726355 -5.2948455 -4.632691 -3.6909342 -2.4982822 -1.0934433 0.4901099 2.2272294 4.0885352 6.0240397 7.9562401 9.7899334 11.439034 12.85858 14.062487 15.114789 16.095951 17.0547 17.960004 18.671255 18.93025 18.333597 16.257136 12.132641 6.9831846 3.1980631 1.3515582 0.79263955 0.97817085 1.5849327 2.3970357 3.2355917 3.9220841 4.2417018 3.8728919 2.2745416 -1.2023966 -5.9823427 -9.6763963 -11.265086 -11.325615 -10.499402 -9.2189181 -7.7868363 -6.4058279 -5.18486 -4.1601568
-1.3193316 -2.1060218 -3.4180472 -5.66997 -9.2324804 -13.247287 -15.695029 -15.734917 -13.433716 -9.9314586 -7.2196882 -5.8026956 -5.2294768 -5.1048353 -5.1917806 -5.3354889 -5.418547 -5.3476382 -5.0573096 -4.5195744 -3.7494144 -2.7980831 -1.7312321 -0.59763338 0.59600771 1.8863895 3.3266541 4.9449927 6.7108921 8.5301574 10.277897 11.854162 13.229147 14.450989 15.609635 16.763197 17.840103 18.557893 18.40588 16.660709 12.718282 7.5999782 3.7355895 1.7121857 0.90747757 0.80543786 1.1189118 1.6797279 2.369186 3.0855153 3.7273471 4.1771457 4.2685362 3.7165313 2.0071893 -1.4805256 -6.1603113 -9.606975 -10.810178 -10.395019 -9.1200013 -7.5490999 -6.0378527 -4.7463578 -3.7057978
-1.0234475 -1.5309852 -2.3319039 -3.65808 -5.9238367 -9.5009041 -13.522902 -15.981754 -16.02584 -13.721706 -10.21325 -7.4744109 -6.0095521 -5.3495879 -5.0790288 -4.9375211 -4.7529679 -4.4108563 -3.8550548 -3.096471 -2.2097341 -1.3065737 -0.48889013 0.19971042 0.80015935 1.4292341 2.238082 3.3500914 4.8009273 6.5121948 8.3210437 10.056386 11.619482 13.022495 14.363358 15.728051 16.997078 17.613402 16.599899 13.159219 8.3013338 4.5004546 2.4003568 1.4226701 1.0820802 1.1184922 1.3916204 1.814382 2.3214671 2.8551902 3.3582645 3.7665283 3.9946443 3.9043657 3.2373957 1.5090861 -1.8608236 -6.2351862 -9.1543111 -9.6348365 -8.5176603 -6.8444672 -5.2580326 -3.9758534 -2.9988376
-0.87899696 -1.2265782 -1.7458466 -2.5572491 -3.8917827 -6.1615913 -9.7409666 -13.753827 -16.195005 -16.209705 -13.85422 -10.273404 -7.4244395 -5.7955618 -4.8964133 -4.2877071 -3.6985185 -2.9794172 -2.0889076 -1.0910271 -0.13064426 0.62428757 1.0563149 1.1536186 1.0225759 0.86158661 0.9103487 1.3808166 2.3819501 3.8698299 5.6594655 7.5070574 9.2232859 10.753553 12.185053 13.654785 15.031512 15.302099 13.01768 8.8670901 5.3833318 3.3582914 2.303132 1.7893501 1.5918173 1.5953004 1.7344375 1.965539 2.2538578 2.5678946 2.8765082 3.1459694 3.3340844 3.3771015 3.1608738 2.4597698 0.84148306 -2.1925405 -5.8698082 -7.6912985 -7.0221005 -5.388581 -3.9022812 -2.7979349 -2.0123843
-0.82164223 -1.0735994 -1.4304131 -1.9563631 -2.7703444 -4.1012926 -6.3583422 -9.9105133 -13.884447 -16.256998 -16.1758 -13.686365 -9.9143909 -6.8127753 -4.8403442 -3.493592 -2.3382669 -1.1565863 0.085154765 1.271426 2.2012354 2.6824935 2.620544 2.0606542 1.1758086 0.22510665 -0.49513741 -0.71139739 -0.24923079 0.89702298 2.5472914 4.4030878 6.1758138 7.7045662 9.0040499 10.218776 11.314625 11.090982 8.651015 6.0615979 4.410073 3.4427728 2.8575537 2.4942763 2.2738612 2.1539662 2.1084347 2.1181548 2.1669751 2.2399128 2.3222658 2.3986592 2.451033 2.4541252 2.3655711 2.1040885 1.5031394 0.24691626 -1.9435384 -4.0233275 -3.9907325 -2.832819 -1.858443 -1.2030289 -0.76898556
-0.8150475 -1.0082401 -1.2672024 -1.6272214 -2.1503753 -2.9524693 -4.258163 -6.4719167 -9.9513994 -13.822126 -16.045223 -15.756764 -12.995649 -8.8671273 -5.319665 -2.8128527 -0.87552938 0.83474248 2.3838071 3.6408665 4.3983329 4.4964337 3.9046416 2.7347696 1.2052445 -0.40315607 -1.7813717 -2.6316857 -2.7335013 -2.0246483 -0.65014505 1.0718506 2.7678202 4.145306 5.0669956 5.538225 5.6468549 5.5042942 5.2100982 4.8390055 4.4410746 4.0468977 3.673472 3.3290179 3.0164255 2.7355357 2.4845734 2.2610131 2.0620815 1.8850355 1.727305 1.5865564 1.4607112 1.34794 1.2466445 1.1554344 1.073103 0.99860355 0.93102798 0.86958775 0.81359697 0.76245798 0.71564885 0.6727128 0.63324907
-0.83773983 -0.99457033 -1.1930582 -1.4524603 -1.8052447 -2.3094516 -3.0752419 -4.3195496 -6.4370455 -9.7747833 -13.437185 -15.384089 -14.731598 -11.516972 -6.86199 -2.7356013 0.32033813 2.653242 4.4437045 5.6345313 6.0954972 5.7636853 4.7003618 3.0728743 1.1095237 -0.93092955 -2.7696972 -4.1229181 -4.7490061 -4.5306609 -3.5515771 -2.1058715 -0.61122074 0.52952389 1.0274319 0.73836728 -0.13936372 -0.19103342 1.6738523 3.5348915 4.4033982 4.5936444 4.4416488 4.1240894 3.7260109 3.2896419 2.8377834 2.3846689 1.9410493 1.5165435 1.1208136 0.76464884 0.46201852 0.23457955 0.12154355 0.2014469 0.63844247 1.7462674 3.8020817 5.7594265 5.6152236 4.3553535 3.2876367 2.5465908 2.0338288
-0.8764922 -1.0113082 -1.1724021 -1.3695465 -1.6186758 -1.9474101 -2.4068648 -3.0976043 -4.22389 -6.1637043 -9.2508517 -12.566577 -14.069171 -12.885724 -9.0869095 -3.8783562 0.66043371 3.8422182 5.8863701 6.9425642 7.0676159 6.3527968 4.9589316 3.0854057 0.93673063 -1.2826273 -3.354229 -5.0380026 -6.0969794 -6.3683851 -5.8585996 -4.7969452 -3.5898812 -2.6886756 -2.4522833 -3.0443432 -4.2008743 -4.7189384 -2.9714708 0.4905266 3.2284518 4.5092881 4.8553456 4.7119081 4.3105742 3.7670396 3.1438656 2.4803575 1.8062862 1.1481414 0.53231658 -0.011805664 -0.44592794 -0.70974621 -0.69213938 -0.17011815 1.2863222 4.1737331 7.7178795 9.4182227 8.638529 6.9040099 5.3251957 4.1359337 3.2722869
-0.92277476 -1.04514 -1.1838896 -1.3429101 -1.5283126 -1.7506052 -2.0295252 -2.4050649 -2.962781 -3.8882033 -5.5385125 -8.2290321 -11.046134 -11.964207 -10.19416 -5.9284126 -0.51724056 3.8161911 6.3473171 7.3794269 7.2706233 6.3183692 4.7821027 2.8739808 0.75826921 -1.4252942 -3.5286093 -5.3706674 -6.73993 -7.4456533 -7.4171437 -6.7934642 -5.9208667 -5.2355473 -5.0993148 -5.6592007 -6.7063489 -7.5289504 -6.9946699 -4.1815115 -0.011768537 3.0963189 4.5316346 4.8895585 4.6625647 4.1120489 3.3763279 2.5388568 1.6606259 0.7948652 -0.0054255418 -0.68005258 -1.147266 -1.2720151 -0.7988243 0.75447768 3.9659844 8.1966554 10.985146 11.346651 10.120803 8.3481818 6.6705906 5.3046729 4.2505851
-0.97075667 -1.0871621 -1.2136992 -1.3505205 -1.4976747 -1.6555195 -1.8261021 -2.0170699 -2.2519252 -2.5954525 -3.2106343 -4.4388962 -6.595673 -8.8224253 -9.1975221 -7.0962449 -2.8836097 2.0130276 5.4245531 6.8237239 6.7672084 5.8116615 4.3336559 2.5626829 0.63098631 -1.3748299 -3.3679913 -5.2260649 -6.7750334 -7.8175841 -8.2226772 -8.0353767 -7.513242 -7.0362552 -6.9417907 -7.380706 -8.2376349 -9.1144674 -9.3722559 -8.179258 -4.8524727 -0.36142695 2.8953116 4.3476757 4.6257922 4.2479339 3.5002775 2.5482965 1.5071952 0.47499482 -0.45063002 -1.1556204 -1.4767845 -1.1320007 0.39012079 3.7083587 8.2344223 11.541371 12.617332 12.086055 10.70486 9.0366802 7.4361368 6.0625182 4.9462922
-1.0161663 -1.1309396 -1.2520528 -1.3772773 -1.5028524 -1.6229153 -1.7290664 -1.8107647 -1.8584396 -1.8740193 -1.8996265 -2.0838607 -2.7812212 -4.3755188 -6.1402097 -6.3559766 -4.5450558 -1.089598 2.7401709 5.0554383 5.5602887 4.934616 3.7251384 2.2244164 0.56717344 -1.1850867 -2.9852777 -4.7573121 -6.3671512 -7.6298631 -8.3797289 -8.5822113 -8.3996659 -8.1372512 -8.0975088 -8.4433904 -9.1389481 -9.9646096 -10.561311 -10.43515 -8.8935328 -5.3217887 -0.71403932 2.5569465 3.9251867 4.0448433 3.4590952 2.4894679 1.3492706 0.21444276 -0.73951114 -1.3006849 -1.1502348 0.25047693 3.5482657 8.1655566 11.711675 13.165576 13.103072 12.164351 10.780796 9.254119 7.7861389 6.4850678 5.38646
-1.0556684 -1.1714854 -1.2914601 -1.4118217 -1.5263509 -1.6252276 -1.6935875 -1.7100997 -1.6466566 -1.4721258 -1.167135 -0.76429255 -0.436529 -0.62400263 -1.8765732 -3.6558535 -4.3684895 -3.4732255 -1.1024145 1.75743 3.4134708 3.60417 2.9331052 1.8389279 0.52401891 -0.93267726 -2.4942516 -4.1117009 -5.6852141 -7.0539209 -8.04226 -8.5595711 -8.6828428 -8.6395113 -8.6905349 -9.0030681 -9.594183 -10.348147 -11.058333 -11.442841 -11.095139 -9.3850629 -5.7223882 -1.1208547 2.0560417 3.2523767 3.1453873 2.3257663 1.1901371 0.056518189 -0.75756189 -0.8570321 0.34592256 3.5238511 8.113557 11.740535 13.374701 13.582602 12.961462 11.875144 10.557514 9.1769075 7.852395 6.6555987 5.6171882
-1.0865634 -1.2047888 -1.3259453 -1.4451895 -1.5545785 -1.6415375 -1.6868103 -1.6620635 -1.5279776 -1.2352334 -0.73401399 -0.0029393277 0.88589562 1.6512559 1.6757436 0.22950384 -2.2194787 -3.9248639 -4.064792 -2.4958997 -0.073296894 1.4646087 1.7533418 1.2801758 0.4060861 -0.70750467 -1.9942613 -3.4071728 -4.8679752 -6.2424558 -7.3632818 -8.1088772 -8.4902346 -8.6626901 -8.838683 -9.1746362 -9.7159768 -10.408978 -11.135783 -11.734164 -11.980307 -11.516641 -9.7462308 -6.1007108 -1.5944297 1.3930559 2.3397236 1.9812448 1.032961 0.083610265 -0.27857922 0.66014138 3.6325701 8.1121737 11.71269 13.410071 13.758935 13.337197 12.477181 11.371667 10.15059 8.9115498 7.7268481 6.6435659 5.6853411
-1.1066768 -1.2276573 -1.3508107 -1.4704293 -1.5771629 -1.6561946 -1.68478 -1.629319 -1.4428436 -1.0654361 -0.43311316 0.49526106 1.6820134 2.9236372 3.7544352 3.4084308 1.1693112 -2.2969562 -4.9392308 -5.7087693 -4.4073377 -1.9588802 -0.23304939 0.29975731 0.062658617 -0.61352204 -1.5720619 -2.7324752 -4.0177007 -5.3136392 -6.4708588 -7.3596123 -7.9474294 -8.3258012 -8.6509174 -9.0527546 -9.5859911 -10.234542 -10.936428 -11.600831 -12.105257 -12.263547 -11.748492 -9.9858512 -6.4328305 -2.1070813 0.61532877 1.2941775 0.88068357 0.46341014 1.1304212 3.831398 8.1234208 11.626352 13.316783 13.72965 13.428739 12.727764 11.796284 10.738243 9.6281506 8.5243714 7.471871 6.5017184 5.6312944
-1.1143377 -1.2376972 -1.3626238 -1.4826023 -1.5869576 -1.6587788 -1.6721491 -1.5889493 -1.3563787 -0.90821106 -0.17585218 0.88191164 2.2245317 3.6621525 4.8127942 5.1159742 3.8927041 0.67400274 -3.5930045 -6.7084738 -7.6079541 -6.191678 -3.511097 -1.5171513 -0.74349344 -0.78581098 -1.3143703 -2.1575646 -3.2072612 -4.3538208 -5.4666899 -6.4240625 -7.1692474 -7.7377052 -8.2231992 -8.7166846 -9.2685465 -9.8854784 -10.542934 -11.195754 -11.779597 -12.198669 -12.290598 -11.750481 -10.028066 -6.6055212 -2.5215572 -0.047017421 0.73594003 1.5128264 3.968688 8.0199571 11.393393 13.046836 13.493551 13.278063 12.698445 11.909416 10.999042 10.025591 9.0334419 8.0587391 7.1302999 6.2690058 5.4875375
-1.1083713 -1.2333065 -1.3592125 -1.4787745 -1.580015 -1.6439997 -1.6418487 -1.5314835 -1.2556483 -0.74494364 0.067329093 1.210463 2.6216852 4.0957356 5.2873415 5.786183 5.1895517 3.0835935 -0.78372566 -5.369116 -8.5134588 -9.2510092 -7.5794779 -4.6341605 -2.4032032 -1.4380226 -1.3352677 -1.7518419 -2.4937086 -3.4275836 -4.4323857 -5.399199 -6.2578622 -6.9940337 -7.637053 -8.2317242 -8.815358 -9.4076916 -10.010049 -10.607743 -11.171074 -11.651228 -11.966203 -11.966873 -11.365035 -9.6381372 -6.294408 -2.3176917 0.60100165 3.5117874 7.4643661 10.766492 12.432295 12.950812 12.841311 12.388475 11.738234 10.970651 10.13534 9.2677525 8.3962665 7.5446764 6.7324474 5.9742305 5.2795437
-1.0880602 -1.2136094 -1.3395501 -1.4578094 -1.5551949 -1.6109379 -1.5935991 -1.4579705 -1.1439565 -0.58190037 0.28824385 1.4771966 2.8926121 4.3069588 5.3983967 5.8634492 5.5013911 4.1604137 1.5803975 -2.4677846 -7.0108024 -9.9658775 -10.455992 -8.532998 -5.3572353 -2.9426934 -1.8323074 -1.6176416 -1.9405797 -2.5923794 -3.4361311 -4.3664073 -5.299597 -6.1750669 -6.9597833 -7.650962 -8.2682827 -8.8378749 -9.3788014 -9.8968829 -10.383136 -10.812222 -11.136805 -11.272715 -11.065118 -10.218027 -8.2009247 -4.4699746 0.47773673 5.4161766 9.1189554 11.087945 11.865357 11.979695 11.724923 11.254455 10.652651 9.9701716 9.2409229 8.4902849 7.7389235 7.0042361 6.3005769 5.6390244 5.027186
-1.0530573 -1.1783102 -1.3035087 -1.419945 -1.5134255 -1.5617256 -1.5315211 -1.3756493 -1.0331077 -0.43682519 0.46323737 1.6569333 3.0237612 4.3198851 5.2496419 5.5951059 5.2883895 4.3440452 2.6953423 0.049898403 -3.8939607 -8.2440769 -10.967258 -11.222779 -9.0896661 -5.7311995 -3.170714 -1.9489017 -1.6514298 -1.9174402 -2.5412833 -3.3929252 -4.3631778 -5.3441207 -6.2444132 -7.0165013 -7.6611428 -8.2062832 -8.6826303 -9.1096103 -9.4904702 -9.8106879 -10.034839 -10.097778 -9.8840588 -9.1834015 -7.6036622 -4.4998076 0.36758503 5.2248201 8.2979055 9.8254203 10.451159 10.565933 10.379135 10.006648 9.5167635 8.9527805 8.3444743 7.7140591 7.0792147 6.4544614 5.8516361 5.2799621 4.746042
-1.0032551 -1.1274805 -1.2515171 -1.3662453 -1.456819 -1.5001082 -1.4617673 -1.2940094 -0.93685912 -0.32826732 0.56977689 1.7271077 3.0020014 4.1467166 4.899503 5.1141237 4.8082806 4.081017 2.9732371 1.3529447 -1.1521858 -4.9031456 -9.0350553 -11.547213 -11.601999 -9.28913 -5.7864318 -3.1121172 -1.8233433 -1.5104096 -1.8194461 -2.5385992 -3.503607 -4.550257 -5.5320729 -6.3616156 -7.0214148 -7.5381461 -7.9495985 -8.2840263 -8.5519945 -8.743989 -8.8280043 -8.7429821 -8.3839806 -7.5740924 -6.027189 -3.3925496 0.27154056 3.92506 6.5277504 8.0206729 8.7536678 9.0121295 8.9730356 8.7432814 8.3894411 7.9550182 7.4700867 6.9566871 6.4318049 5.9089393 5.3988628 4.9099604 4.4484056
-0.93862962 -1.0613107 -1.1841769 -1.2980199 -1.3878181 -1.4302231 -1.3908277 -1.2224969 -0.86783746 -0.27134368 0.59252309 1.6765623 2.8269592 3.805576 4.3916564 4.4981782 4.1940043 3.6126964 2.8360024 1.8227812 0.36622269 -1.9480714 -5.5040164 -9.4367619 -11.756404 -11.633018 -9.162883 -5.5491886 -2.8252165 -1.5679259 -1.3754859 -1.8689668 -2.7702389 -3.8341693 -4.8562927 -5.7133412 -6.3713583 -6.853942 -7.2025217 -7.4506891 -7.6135489 -7.6848507 -7.635563 -7.4102111 -6.9195009 -6.0318676 -4.5819904 -2.4559852 0.19013958 2.8257372 4.9199831 6.3163979 7.1283112 7.5208198 7.6263194 7.537186 7.3160906 7.0060584 6.6375061 6.2327359 5.8086859 5.3785492 4.9526922 4.539166 4.1440132
-0.85908136 -0.97985803 -1.1018754 -1.2162559 -1.308403 -1.3555725 -1.3243471 -1.1694349 -0.83707152 -0.2785691 0.52077602 1.5018933 2.5083967 3.3222515 3.7661862 3.7995918 3.517253 3.0576119 2.5089052 1.8674773 1.0274556 -0.24800855 -2.3801404 -5.7497331 -9.498639 -11.63055 -11.341319 -8.7538465 -5.100936 -2.459982 -1.4026984 -1.4819428 -2.2180258 -3.2317381 -4.2430431 -5.0912508 -5.7266971 -6.168419 -6.4583218 -6.6321874 -6.7077017 -6.6817346 -6.5303849 -6.2087629 -5.6508193 -4.7741129 -3.502509 -1.8251078 0.12345389 2.0619568 3.7090634 4.929848 5.7349631 6.2007605 6.4111013 6.4358781 6.3281552 6.1270971 5.8616405 5.5534884 5.2192384 4.8717938 4.5212606 4.1755104 3.8405465
-0.76429982 -0.88282363 -1.0044339 -1.1210803 -1.2193034 -1.2779306 -1.2657317 -1.1404821 -0.85273317 -0.35968592 0.34648263 1.2025237 2.0590392 2.7240368 3.0599301 3.0583473 2.8215772 2.4763442 2.1015866 1.7063343 1.2349268 0.56259886 -0.54628219 -2.5061846 -5.6885905 -9.2470085 -11.198905 -10.778585 -8.1678757 -4.6376278 -2.271078 -1.5626879 -1.9297826 -2.7790449 -3.7089757 -4.5048547 -5.0953382 -5.4905908 -5.7286502 -5.8439699 -5.8548991 -5.761312 -5.5459142 -5.1765929 -4.6104007 -3.8026001 -2.726091 -1.4025398 0.071092351 1.5355027 2.8313343 3.861525 4.6044682 5.0878889 5.3584208 5.4633393 5.4433251 5.3310851 5.1522377 4.9267432 4.6702206 4.3949699 4.1107067 3.825071 3.5439853
-0.65367901 -0.76939881 -0.89084173 -1.0113141 -1.1192623 -1.1961433 -1.2142334 -1.135694 -0.91594931 -0.51642439 0.069372986 0.78341132 1.4925985 2.0335735 2.300375 2.3015324 2.1324794 1.8996623 1.6671487 1.4468183 1.2091178 0.88841863 0.36632736 -0.58143264 -2.3614091 -5.3489792 -8.7113376 -10.52509 -10.083305 -7.6286728 -4.4346163 -2.4686878 -2.0722145 -2.5406074 -3.2764501 -3.9631994 -4.4845339 -4.8292912 -5.0241651 -5.0978878 -5.0673213 -4.9347043 -4.6893029 -4.3107915 -3.7744029 -3.0593247 -2.1615224 -1.1086211 0.032215588 1.1649478 2.1935476 3.0509469 3.7098921 4.1754393 4.4707141 4.6251265 4.6675621 4.6234656 4.5141188 4.3568998 4.1658618 3.9523282 3.7253966 3.4923323 3.2588692
-0.52631061 -0.63822606 -0.75915679 -0.88425799 -1.0046043 -1.1052878 -1.1633598 -1.1466619 -1.0160873 -0.7357572 -0.29522186 0.26164082 0.82663852 1.2669355 1.500123 1.53749 1.4559243 1.3368297 1.2282883 1.1416589 1.0625717 0.95832848 0.77273276 0.40036028 -0.37351449 -1.9556476 -4.7473862 -7.9602846 -9.7549208 -9.4929384 -7.4033316 -4.6444405 -2.9974334 -2.6875274 -3.0240675 -3.5076082 -3.9218452 -4.2063469 -4.3629133 -4.4081601 -4.3545579 -4.2052997 -3.9549087 -3.5922216 -3.1049431 -2.4859112 -1.740743 -0.8946927 0.0055685723 0.8989933 1.7246094 2.4360263 3.0086512 3.4382426 3.7346102 3.9148393 3.9982962 4.0037298 3.9479369 3.8453558 3.7081192 3.5462907 3.3681414 3.1804076 2.9885116
-0.38107074 -0.48750537 -0.60663552 -0.73585024 -0.86942204 -0.99687262 -1.1010457 -1.1565687 -1.1305779 -0.98943772 -0.71574801 -0.33293749 0.083410278 0.43482948 0.65809097 0.7569519 0.78059571 0.78132858 0.79041809 0.81724269 0.85745603 0.89881175 0.9198854 0.8779314 0.67730021 0.10192647 -1.2777828 -3.9170727 -7.1192789 -9.1061321 -9.2380216 -7.6072406 -5.173833 -3.616385 -3.1739155 -3.2638578 -3.4851138 -3.6735031 -3.7800967 -3.7977632 -3.729188 -3.5755579 -3.3341703 -2.9997686 -2.5676402 -2.0377176 -1.4189022 -0.73216309 -0.010468044 0.7056348 1.3757178 1.9672217 2.4600253 2.8467911 3.1303105 3.3198204 3.4277245 3.4672799 3.4512279 3.3911187 3.2970656 3.1777332 3.0404312 2.8912476 2.7351882
-0.21679604 -0.31524203 -0.4300923 -0.56120836 -0.70642646 -0.86022641 -1.0119682 -1.1440088 -1.230866 -1.2422118 -1.1536673 -0.96512488 -0.71266046 -0.45364234 -0.23148287 -0.055552176 0.088822637 0.2203972 0.35154748 0.48824956 0.63353144 0.78965718 0.95703543 1.1275859 1.2672862 1.2768078 0.91267717 -0.31750445 -2.9555554 -6.3881171 -8.8150331 -9.4493374 -8.1867313 -5.8616996 -4.185034 -3.5033371 -3.3331088 -3.3273586 -3.3357286 -3.3030974 -3.2107206 -3.0514941 -2.8212189 -2.5166864 -2.1366454 -1.6839167 -1.1675973 -0.60434506 -0.01781425 0.56412582 1.1137281 1.6077394 2.0302862 2.37362 2.6370829 2.825171 2.9455018 3.00715 3.0194899 2.9914898 2.9313421 2.8463071 2.742684 2.6258472 2.5003137
-0.032523581 -0.11959044 -0.22640309 -0.35538795 -0.50812819 -0.68438593 -0.88059553 -1.0878101 -1.2895488 -1.4610919 -1.5730694 -1.6009547 -1.535551 -1.3850545 -1.1685132 -0.9096879 -0.6328065 -0.35691939 -0.091365028 0.16468478 0.41993413 0.68823317 0.98569185 1.3254638 1.7055697 2.0821974 2.3176619 2.0926682 0.81374393 -2.1349466 -6.0974038 -9.1149496 -10.174504 -9.053521 -6.6239386 -4.6986958 -3.741016 -3.3242759 -3.1207473 -2.9770262 -2.8278803 -2.6450542 -2.415386 -2.1325824 -1.794805 -1.4045806 -0.96935661 -0.50171359 -0.01863136 0.46035732 0.91576578 1.3307597 1.6930176 1.9954576 2.235912 2.4161382 2.5406026 2.6153502 2.6471164 2.6427061 2.6086054 2.5507641 2.4744951 2.384445 2.2846078
0.17224268 0.10077048 0.006965917 -0.11412822 -0.26788769 -0.45955966 -0.69315613 -0.96947477 -1.2829396 -1.6172628 -1.9409461 -2.2057403 -2.353606 -2.3364382 -2.1420764 -1.8056387 -1.3911961 -0.95841883 -0.54126869 -0.14639867 0.23871523 0.63750247 1.0783557 1.5883409 2.1812182 2.8333974 3.4431544 3.774622 3.3975339 1.6656077 -1.9623494 -6.6131516 -10.107167 -11.32383 -10.08041 -7.3812992 -5.148468 -3.9122062 -3.2705322 -2.8945463 -2.6214196 -2.3758827 -2.1223385 -1.8436566 -1.5324901 -1.1878959 -0.81400763 -0.41923891 -0.015295019 0.38424414 0.7656451 1.1166974 1.4279723 1.6934421 1.9104653 2.0793082 2.2024384 2.2837872 2.3281064 2.34047 2.325923 2.2892553 2.2348685 2.1667098 2.0882487
0.39727329 0.34628307 0.2714878 0.16555164 0.019385392 -0.17783273 -0.4381057 -0.7729332 -1.1893932 -1.682302 -2.2213351 -2.7373226 -3.1236249 -3.2716135 -3.129725 -2.7359797 -2.189642 -1.5912224 -1.0025236 -0.44146125 0.10518758 0.66779887 1.2837502 1.9879661 2.7977051 3.685806 4.5433058 5.1462091 5.1506111 4.1189724 1.5537086 -2.8333808 -7.9620464 -11.572147 -12.62685 -11.075293 -8.0298745 -5.4910877 -4.0041899 -3.1707271 -2.6521726 -2.2750998 -1.9557475 -1.652961 -1.3466476 -1.0282756 -0.69651362 -0.3549361 -0.010439312 0.32817358 0.65156205 0.95107916 1.2197084 1.4526 1.6471999 1.8030559 1.9214269 2.0048204 2.0565474 2.0803457 2.0800897 2.0595829 2.0224205 1.9719068 1.9110108
0.64138622 0.61620175 0.56717693 0.48488411 0.35676554 0.1665316 -0.10598653 -0.48362243 -0.98738772 -1.6254091 -2.3721836 -3.1430291 -3.7881853 -4.1391059 -4.0960764 -3.68469 -3.0269491 -2.2609114 -1.480135 -0.71986391 0.028439679 0.79754131 1.6287459 2.5571397 3.5906559 4.678834 5.6790775 6.3471902 6.3826809 5.5139933 3.5338508 0.21667315 -4.5555236 -9.7085073 -13.0868 -13.788579 -11.872129 -8.4989797 -5.6957728 -4.0066092 -3.0226367 -2.3951711 -1.9417358 -1.5720902 -1.2409065 -0.92557617 -0.61594143 -0.30921423 -0.0071214237 0.28598658 0.56456392 0.82298777 1.0563811 1.2611268 1.4350872 1.5775825 1.6892049 1.7715464 1.8269077 1.8580283 1.8678612 1.8593987 1.8355464 1.7990383 1.7523837
0.90226691 0.9083347 0.89223722 0.84290781 0.74480607 0.5766179 0.3102787 -0.088469364 -0.65528805 -1.4134769 -2.3465359 -3.3623183 -4.2787512 -4.8733275 -4.9897999 -4.6201081 -3.888949 -2.9641931 -1.9745926 -0.98071559 0.013022006 1.0340709 2.1193788 3.293332 4.5397091 5.7678 6.7892566 7.3399434 7.1689537 6.1505259 4.3098877 1.6924776 -1.8455292 -6.5008998 -11.333195 -14.325544 -14.648936 -12.404191 -8.7722963 -5.7647452 -3.925793 -2.8330942 -2.1295355 -1.6259818 -1.2275164 -0.88563009 -0.57543795 -0.28486932 -0.0091709243 0.25218828 0.49745705 0.72391185 0.92875258 1.1096782 1.2651999 1.3947479 1.49863 1.5779003 1.6341854 1.6695058 1.6861121 1.6863492 1.6725499 1.6469572 1.6116716
1.1763531 1.2188489 1.2427478 1.2359795 1.1808086 1.0518093 0.81395845 0.42229384 -0.17349892 -1.0136257 -2.0958557 -3.3313239 -4.5203635 -5.396118 -5.7391237 -5.485098 -4.7368489 -3.6786538 -2.474489 -1.2185388 0.060529646 1.372942 2.7387137 4.1572464 5.5726915 6.8431083 7.7391107 8.0036178 7.4694026 6.1589896 4.2651865 1.9961093 -0.6239246 -3.8841429 -8.1418975 -12.556868 -15.173989 -15.18606 -12.690814 -8.8707308 -5.7219684 -3.7798224 -2.6150756 -1.8638397 -1.3324223 -0.92258433 -0.58333516 -0.28774371 -0.021816305 0.22119017 0.44392614 0.64684265 0.8293826 0.99073286 1.1302741 1.2478139 1.3436682 1.4186426 1.4739564 1.5111405 1.5319312 1.5381732 1.531737 1.514455 1.4880728
1.458811 1.5421774 1.6124399 1.6573138 1.6579439 1.5862031 1.4018234 1.0508977 0.46950743 -0.40074068 -1.5779717 -2.9893123 -4.4344141 -5.614526 -6.2451866 -6.1876909 -5.4968665 -4.3530324 -2.9491167 -1.4195364 0.16901096 1.793127 3.4388618 5.0641646 6.561482 7.7390301 8.3513842 8.1938518 7.221185 5.5999402 3.6303465 1.5802655 -0.46072257 -2.6572529 -5.4498889 -9.2767435 -13.335176 -15.661191 -15.44964 -12.786033 -8.8354864 -5.59734 -3.5902582 -2.3827246 -1.606317 -1.0642363 -0.65586837 -0.3282688 -0.052744229 0.18641772 0.39769713 0.58548835 0.75193184 0.89802224 1.0242819 1.1311558 1.2192214 1.2892773 1.342356 1.3796916 1.4026683 1.4127611 1.4114805 1.4003247 1.3807407
1.7436344 1.8710881 1.9926789 2.0967632 2.1646131 2.1671644 2.061255 1.7867988 1.2686752 0.4305065 -0.77100137 -2.290952 -3.9460876 -5.4231512 -6.3806477 -6.5963846 -6.0524068 -4.8981485 -3.3413917 -1.5594544 0.32875311 2.2470249 4.1278921 5.8727049 7.3195603 8.2467284 8.4366265 7.7855993 6.3904946 4.5342073 2.5616607 0.72845818 -0.88623021 -2.3912149 -4.0797396 -6.4471466 -9.9351011 -13.737324 -15.868882 -15.510483 -12.742022 -8.7120335 -5.4191488 -3.37664 -2.148192 -1.363198 -0.82272615 -0.42444488 -0.11388624 0.13908357 0.35158701 0.53348737 0.69050405 0.82599558 0.94201825 1.039962 1.1209262 1.1859298 1.2360168 1.2722961 1.2959433 1.3081822 1.310257 1.3034047 1.288828
2.0238899 2.1969677 2.3727658 2.5410813 2.6845461 2.7750093 2.7690601 2.603896 2.1970119 1.4568072 0.31390367 -1.222651 -3.0036335 -4.7249063 -6.0083929 -6.5522447 -6.247866 -5.1852088 -3.5657527 -1.6054288 0.51475583 2.6489592 4.659663 6.3841742 7.6188095 8.1499614 7.8385964 6.7142346 5.0036615 3.054629 1.1966404 -0.37119917 -1.6124624 -2.6260994 -3.6152732 -4.8991513 -6.9633683 -10.230048 -13.865216 -15.880329 -15.435158 -12.603303 -8.534686 -5.2117664 -3.1542801 -1.9204437 -1.1383068 -0.6075307 -0.22453764 0.066301899 0.29624149 0.48348895 0.63894183 0.76927274 0.8786803 0.96992131 1.0449314 1.1051975 1.1519771 1.1864196 1.2096288 1.2226879 1.2266644 1.2226033 1.2115165
2.2921043 2.5103291 2.7405971 2.9747722 3.1978786 3.384336 3.4930458 3.4622196 3.2069109 2.6258127 1.6274554 0.18316376 -1.6052671 -3.4692856 -5.0248105 -5.9092142 -5.9203158 -5.0676591 -3.522523 -1.5257967 0.68047591 2.8747988 4.8451178 6.3725511 7.2405589 7.2886274 6.4925417 5.0137231 3.1643983 1.2951751 -0.32589953 -1.574681 -2.4617038 -3.0885329 -3.6109185 -4.2343121 -5.2560144 -7.1342539 -10.272959 -13.814216 -15.763961 -15.274928 -12.410401 -8.3250907 -4.9934536 -2.9341382 -1.7052848 -0.93336068 -0.41711742 -0.052082827 0.21823215 0.42591346 0.58996362 0.72201727 0.82940419 0.91688083 0.98764994 1.0439766 1.0875645 1.119784 1.1418092 1.1546953 1.159421 1.1569093 1.1480346
2.5407587 2.8014919 3.08361 3.3814136 3.6830161 3.9666561 4.1956873 4.3128267 4.2360046 3.8614304 3.0833405 1.8395102 0.17776212 -1.6915295 -3.412967 -4.5961018 -4.9619663 -4.4347796 -3.1355636 -1.3077806 0.76230241 2.7901624 4.5049819 5.6584813 6.0591184 5.6325404 4.472444 2.833457 1.0499864 -0.57815062 -1.8669497 -2.763773 -3.3150222 -3.6219147 -3.809437 -4.0185634 -4.4263604 -5.3022418 -7.0821899 -10.153001 -13.653887 -15.572029 -15.065581 -12.193484 -8.101681 -4.7755466 -2.7234106 -1.505926 -0.74851452 -0.24927842 0.096881311 0.3470692 0.53396515 0.67712919 0.78870006 0.87644304 0.94547064 0.99925692 1.0402539 1.0702728 1.0907217 1.1027524 1.1073506 1.10539 1.0976636
2.762829 3.0613413 3.3898591 3.7451967 4.1188458 4.4935591 4.8385726 5.1037856 5.2146086 5.0718927 4.5649628 3.6070835 2.1944906 0.46654921 -1.2817434 -2.6738876 -3.3884308 -3.2770219 -2.3989837 -0.97345566 0.70050395 2.3078262 3.5552455 4.2050895 4.1235885 3.328536 1.997882 0.41661771 -1.119375 -2.3920248 -3.2997774 -3.8439516 -4.0903188 -4.1327559 -4.071297 -4.0064482 -4.0491802 -4.3500637 -5.1584144 -6.8973288 -9.9404563 -13.429045 -15.341303 -14.833016 -11.967289 -7.8811393 -4.5650355 -2.5262187 -1.3236734 -0.5828966 -0.10151637 0.22599512 0.45716746 0.62508773 0.74969122 0.84344722 0.91439705 0.96786901 1.0074911 1.0358094 1.0546749 1.0654874 1.0693518 1.067176 1.0597338
2.9522986 3.2820539 3.6490518 4.0524144 4.4868831 4.9398033 5.3868224 5.7864233 6.0744354 6.1617312 5.9413592 5.3135422 4.2331645 2.7681255 1.131806 -0.35405072 -1.369237 -1.7190419 -1.3994779 -0.57964182 0.46774835 1.4419105 2.0734445 2.1740876 1.6823932 0.68496593 -0.61201689 -1.9555355 -3.1272394 -3.9957985 -4.5246131 -4.7471752 -4.7336702 -4.5650662 -4.3194168 -4.0689997 -3.8862399 -3.8589255 -4.1205965 -4.9089446 -6.6398502 -9.6840507 -13.172782 -15.094967 -14.595991 -11.740162 -7.6711902 -4.3671495 -2.3444423 -1.1585371 -0.43503741 0.028698631 0.33848433 0.5521308 0.7029921 0.81124443 0.88956281 0.94615311 0.98646399 1.0141997 1.0319412 1.0415368 1.0443527 1.0414341 1.0336105
3.1045813 3.457694 3.8533992 4.2926875 4.7730583 5.2859559 5.813063 6.3214446 6.7582439 7.0471065 7.09089 6.7875165 6.0647398 4.9296556 3.5089252 2.0414885 0.80479733 0.0066239147 -0.29409519 -0.19745341 0.08795346 0.32046831 0.29481013 -0.10568702 -0.87920885 -1.9114741 -3.0220615 -4.02933 -4.8025379 -5.2832968 -5.4777736 -5.4333889 -5.2148964 -4.8880131 -4.5117984 -4.1378427 -3.8143483 -3.5947343 -3.5531147 -3.8138633 -4.6089395 -6.3498523 -9.40961 -12.910841 -14.847575 -14.365308 -11.522829 -7.4718965 -4.1848387 -2.1785806 -1.0097066 -0.30317414 0.14377933 0.43714628 0.63491452 0.77060319 0.86453335 0.9294984 0.97379232 1.0029204 1.0206126 1.0294473 1.0312457 1.0273259 1.0186693
3.2168039 3.5846088 3.9981773 4.4597785 4.9689281 5.5202564 6.1004027 6.6838651 7.2281984 7.6699746 7.9246538 7.8955148 7.4970339 6.6926236 5.5329267 4.1667131 2.8019523 1.6277398 0.74043361 0.11567082 -0.36429507 -0.84990869 -1.4612588 -2.2448792 -3.1619863 -4.1101447 -4.9663087 -5.6290543 -6.0428099 -6.200696 -6.1326923 -5.8886684 -5.5236925 -5.0889207 -4.6279732 -4.1773028 -3.7692315 -3.4372163 -3.2242423 -3.1975113 -3.4770968 -4.2925356 -6.0538543 -9.1318793 -12.656423 -14.609316 -14.145703 -11.322785 -7.2853927 -4.0180451 -2.0282753 -0.87590308 -0.18544892 0.24594749 0.52437962 0.70793723 0.83023243 0.91166405 0.96508388 0.99882262 1.0184002 1.0275403 1.0287958 1.0239465 1.0142562
3.2879235 3.6615862 4.0819454 4.5519074 5.0721611 5.6394132 6.2438173 6.8655027 7.4704123 8.006348 8.401338 8.5679824 8.4181266 7.8894287 6.9768189 5.751027 4.3455005 2.9106724 1.5591794 0.33391345 -0.78608809 -1.851022 -2.8978417 -3.9216765 -4.8747708 -5.6885558 -6.3016248 -6.6790638 -6.8181662 -6.7432128 -6.4950901 -6.1207646 -5.6654597 -5.1683804 -4.6615232 -4.1706409 -3.7175916 -3.3237803 -3.0150507 -2.8294144 -2.8310491 -3.1383523 -3.9800115 -5.7667152 -8.8651204 -12.412815 -14.38626 -13.940496 -11.138338 -7.1166483 -3.8657194 -1.8925138 -0.75561868 -0.080027862 0.33720888 0.6022338 0.77318629 0.88372137 0.95426967 0.99770079 1.0223481 1.0337191 1.0355109 1.0302377 1.0196307
3.3186768 3.6897711 4.1064146 4.5715546 5.0862548 5.6482209 6.2496695 6.8744518 7.4945457 8.0665013 8.529256 8.8058497 8.8122665 8.4753011 7.7563754 6.6710704 5.2913843 3.7256648 2.0861964 0.46271607 -1.0868028 -2.5284843 -3.8351799 -4.9725553 -5.9003975 -6.5857688 -7.0149459 -7.1970591 -7.1603935 -6.9450287 -6.5952131 -6.1534647 -5.6570058 -5.1363256 -4.6153509 -4.1126719 -3.6434215 -3.2216609 -2.8634387 -2.5911649 -2.4408309 -2.4755739 -2.813394 -3.6828992 -5.4951448 -8.618664 -12.183979 -14.180051 -13.752611 -10.966357 -6.9653012 -3.7276755 -1.7698846 -0.64726095 0.014834711 0.41935722 0.67246468 0.83231013 0.93255728 0.99363729 1.0284105 1.0451906 1.0494552 1.0448628 1.0338816
3.3113822 3.6723722 4.0760143 4.5248185 5.0195829 5.558142 6.1335885 6.7318986 7.3290405 7.8879693 8.3564871 8.6677167 8.7454828 8.5162833 7.9267683 6.961274 5.6512876 4.0715789 2.3251975 0.52455288 -1.2254738 -2.838355 -4.2481303 -5.4069063 -6.285197 -6.8752842 -7.1917097 -7.2666736 -7.1427255 -6.8656111 -6.4788778 -6.0206676 -5.5223855 -5.0086909 -4.4983169 -4.0053586 -3.5408223 -3.1143737 -2.7363846 -2.4205992 -2.1881381 -2.0744077 -2.1424182 -2.5103193 -3.4070673 -5.2431476 -8.3916559 -11.975846 -13.990554 -13.582062 -10.809809 -6.8260391 -3.6033835 -1.6589147 -0.54923618 0.1007687 0.493994 0.7365891 0.8866962 0.97796429 1.0308039 1.058048 1.0679756 1.0660239 1.0558053
3.2696311 3.6142173 3.9972454 4.4204692 4.8839983 5.3852236 5.9173283 6.4673425 7.0138153 7.5244114 7.9541416 8.2454509 8.3317737 8.1458707 7.63273 6.7642344 5.5507308 4.0451006 2.3377496 0.54348809 -1.2170963 -2.8364339 -4.2324539 -5.3530013 -6.1756216 -6.7049645 -6.9673048 -7.0026994 -6.8569755 -6.5753875 -6.1985936 -5.7607438 -5.2890952 -4.8045512 -4.3226759 -3.8549134 -3.4098828 -2.9947205 -2.6165359 -2.2841559 -2.0105183 -1.8164497 -1.7373952 -1.8366033 -2.2325607 -3.1546661 -5.0136069 -8.1812339 -11.788474 -13.818199 -13.426445 -10.671118 -6.6975689 -3.4906709 -1.5581723 -0.46000219 0.17928421 0.56255641 0.79593537 0.9375355 1.0209748 1.0666284 1.0872892 1.0911922 1.0837266
3.1979173 3.5212277 3.8779317 4.2688722 4.6932715 5.1478078 5.6253773 6.1135264 6.5926366 7.0341147 7.3991246 7.638735 7.6966035 7.5151495 7.0452853 6.258221 5.1563538 3.7797385 2.205312 0.53748875 -1.1086763 -2.6268516 -3.9346608 -4.9810191 -5.7463505 -6.2381153 -6.4835454 -6.5213658 -6.3943274 -6.1437129 -5.806061 -5.4117492 -4.984856 -4.54376 -4.1020857 -3.6697661 -3.2541152 -2.8608882 -2.4953678 -2.1635783 -1.8738204 -1.6388931 -1.4797366 -1.4320609 -1.5594565 -1.9807779 -2.9257312 -4.8062605 -7.9903044 -11.616637 -13.662743 -13.284507 -10.545401 -6.5827826 -3.3872981 -1.4661523 -0.3780929 0.25178182 0.62634881 0.85168877 0.98587578 1.0624848 1.1018447 1.1166991 1.1152317
3.1012515 3.3998859 3.7264791 4.0809518 4.4616284 4.8644543 5.2819848 5.7021566 6.1069312 6.471028 6.7611606 6.9364076 6.950485 6.7565673 6.3147481 5.6012448 4.6173647 3.3955196 1.999576 0.51785569 -0.95048999 -2.311912 -3.4923631 -4.4449502 -5.1508843 -5.6154879 -5.8615244 -5.9218818 -5.8331509 -5.6309287 -5.3469828 -5.0079645 -4.6352055 -4.2451521 -3.8501131 -3.459116 -3.0787717 -2.7141156 -2.3694418 -2.0491888 -1.7589845 -1.507045 -1.3062895 -1.1779027 -1.1579038 -1.3102164 -1.754027 -2.7192835 -4.6183739 -7.8210615 -11.458944 -13.521888 -13.156355 -10.427623 -6.4801454 -3.2924874 -1.3813026 -0.30211262 0.31957186 0.6865756 0.90493232 1.0326655 1.1032969 1.1371002 1.1467622
2.9848035 3.2567551 3.5512296 3.867319 4.2025722 4.5523468 4.9090065 5.260995 5.5918757 5.8795274 6.0958118 6.207164 6.1766195 5.9676791 5.5500339 4.9065123 4.0398424 2.9772171 1.7705684 0.491273 -0.78016193 -1.9667161 -3.0059794 -3.8568562 -4.501032 -4.9402249 -5.1910242 -5.2790661 -5.2338201 -5.0846629 -4.8583824 -4.5779173 -4.2619968 -3.9253469 -3.5791991 -3.2319283 -2.8897205 -2.55723 -2.2382264 -1.9362588 -1.6554007 -1.4011826 -1.1819013 -1.0106689 -0.90892468 -0.91296863 -1.0870066 -1.5504939 -2.5336756 -4.4482316 -7.6683164 -11.31809 -13.393142 -13.040366 -10.319693 -6.3837514 -3.2054807 -1.3021994 -0.23071729 0.38389999 0.74437452 0.95668356 1.0787901 1.1441531 1.1729819
2.8536021 3.0980921 3.3599628 3.6376347 3.9280767 4.2262852 4.5246709 4.8123926 5.074726 5.2926234 5.4427047 5.4979921 5.4297156 5.2104132 4.81827 4.2421943 3.486609 2.5745342 1.5475325 0.46170805 -0.6197913 -1.6359376 -2.5361245 -3.2855374 -3.8668017 -4.2784055 -4.5311067 -4.6436209 -4.6385888 -4.539392 -4.3679924 -4.143712 -3.8827371 -3.5981155 -3.3000423 -2.996293 -2.6927121 -2.3937118 -2.1027692 -1.8229298 -1.5573548 -1.3099699 -1.0863223 -0.89483266 -0.74880049 -0.66988434 -0.69461332 -0.88741689 -1.3679548 -2.3667252 -4.2954039 -7.5267028 -11.19228 -13.275618 -12.933255 -10.223506 -6.2920604 -3.1240728 -1.2275353 -0.16259698 0.44597773 0.8008503 1.0079279 1.1251018 1.1857569
2.7123074 2.9295693 3.1595627 3.4002201 3.6481483 3.8982248 4.14315 4.3729961 4.5748322 4.7325515 4.8270729 4.8371294 4.7408352 4.5181349 4.1540318 3.6421896 2.9881747 2.2113768 1.3446977 0.43155575 -0.47943971 -1.340945 -2.112847 -2.7663523 -3.2855657 -3.6667516 -3.9160118 -4.0462592 -4.074224 -4.0179546 -3.895005 -3.7213023 -3.5105782 -3.2742101 -3.0213279 -2.7590734 -2.4929339 -2.2271064 -1.9648701 -1.708968 -1.4620133 -1.2269552 -1.0076634 -0.80973458 -0.64170623 -0.51703274 -0.45754532 -0.4999488 -0.708842 -1.2040413 -2.2161336 -4.1578444 -7.39779 -11.075322 -13.168411 -12.833352 -10.133962 -6.2078969 -3.0460675 -1.1559239 -0.096450344 0.50701684 0.85710878 1.0596488 1.172442
2.5650603 2.7561068 2.9558409 3.1618879 3.370697 3.5772422 3.7747111 3.9542242 4.1046482 4.212602 4.2627752 4.238693 4.1240339 3.9045246 3.5702948 3.1183712 2.5547976 1.8957534 1.1671179 0.40224824 -0.36175938 -1.0885524 -1.7467256 -2.3128458 -2.7728315 -3.1217259 -3.3622834 -3.5029296 -3.5556127 -3.533901 -3.451512 -3.3213116 -3.1547326 -2.9615218 -2.749718 -2.5257762 -2.2947761 -2.0606732 -1.8265697 -1.5949989 -1.3682276 -1.1485956 -0.93892662 -0.74306912 -0.56666852 -0.41835512 -0.31170078 -0.26866487 -0.32608138 -0.54867294 -1.0563748 -2.0798136 -4.0319781 -7.2831542 -10.96539 -13.06894 -12.740603 -10.045953 -6.1297173 -2.9707178 -1.0858642 -0.030940185 0.56826774 0.91429149 1.1128543
2.4154017 2.5818001 2.7534881 2.9279434 3.1016289 3.2697812 3.4262087 3.563137 3.6711528 3.7393171 3.7555292 3.7072202 3.5824255 3.3712227 3.0674178 2.67024 2.1856912 1.627153 1.0149266 0.37459554 -0.26558903 -0.87780559 -1.4376009 -1.9260937 -2.3311131 -2.6472481 -2.8750334 -3.0196182 -3.0892637 -3.0939338 -3.0441368 -2.9500769 -2.8211071 -2.665434 -2.4900131 -2.3005774 -2.1017488 -1.8972 -1.6898428 -1.4820351 -1.2758033 -1.0730917 -0.8760557 -0.68743624 -0.51107006 -0.35263892 -0.22083951 -0.12932696 -0.10015116 -0.17023734 -0.40439573 -0.92264375 -1.9557357 -3.9158044 -7.177403 -10.865042 -12.974624 -12.653327 -9.9613466 -6.0515737 -2.8972131 -1.0158645 0.035359455 0.63106287 0.9736099
2.2662497 2.409922 2.5561192 2.7023011 2.8450739 2.9800487 3.1017235 3.2034166 3.2772942 3.3145384 3.3057091 3.2413424 3.1128006 2.9133436 2.6393195 2.2912987 1.8749144 1.4011621 0.88597037 0.34899934 -0.18819043 -0.70428113 -1.1802504 -1.6009656 -1.9560909 -2.2402641 -2.4526579 -2.5961331 -2.6762106 -2.7000492 -2.6755568 -2.6106961 -2.5129983 -2.3892629 -2.24541 -2.0864448 -1.9165 -1.738929 -1.5564297 -1.3711899 -1.1850481 -0.99967548 -0.8167878 -0.6384083 -0.46721567 -0.30703445 -0.16356781 -0.045555148 0.033293649 0.050868444 -0.029817203 -0.27363299 -0.80064841 -1.8417348 -3.808904 -7.0751707 -10.772469 -12.884539 -12.568169 -9.881928 -5.9717723 -2.8231505 -0.94438213 0.10401511 0.6968648
2.1199203 2.2429767 2.3663793 2.4876668 2.6036768 2.7104583 2.8032127 2.8762876 2.9232509 2.9370789 2.9104884 2.836434 2.708768 2.5230273 2.2772641 1.9727966 1.6147217 1.2120379 0.77727221 0.32559855 -0.12645046 -0.56247472 -0.96764592 -1.3298589 -1.6404398 -1.8943648 -2.0900465 -2.2288081 -2.3141919 -2.3512302 -2.3457775 -2.3039577 -2.2317497 -2.1347073 -2.0177941 -1.8853119 -1.7408954 -1.5875563 -1.4277578 -1.2635118 -1.0964928 -0.9281684 -0.75995251 -0.59339213 -0.43040907 -0.27363018 -0.12686346 0.0041804496 0.11073925 0.17907122 0.18703006 0.097591859 -0.15415013 -0.68830084 -1.7357136 -3.7093597 -6.978085 -10.681462 -12.797687 -12.483286 -9.8023388 -5.8927992 -2.7459253 -0.86957438 0.1767971
