ncols         65
nrows         65
xllcorner     -812.5
yllcorner     -812.5
cellsize      25
NODATA_value  -9999
-0.66236644 -1.8136742 -2.4677837 -2.8364453 -3.0353633 -3.1311927 -3.1640234 -3.1586813 -3.1307581 -3.0900199 -3.0424337 -2.9914246 -2.9386873 -2.8847309 -2.8292596 -2.7714557 -2.7101999 -2.6442524 -2.5724012 -2.4935782 -2.4069341 -2.3118634 -2.207971 -2.0949869 -1.9726435 -1.8405477 -1.6980856 -1.5443915 -1.3784003 -1.1989747 -1.0050838 -0.79599618 -0.57145575 -0.33181979 -0.078155533 0.18769629 0.46307622 0.7444664 1.0274535 1.3067084 1.576023 1.82848 2.0568804 2.2546004 2.4170427 2.5436502 2.6397623 2.7163746 2.7855309 2.8526248 2.9123227 2.9526171 2.962501 2.9365529 2.8751559 2.7826221 2.6651654 2.5294419 2.381697 2.2273548 2.0708814 1.9158004 1.7647826 1.6197651 1.4820747
1.2670084 -0.79009075 -1.9452563 -2.6037001 -2.9770787 -3.180975 -3.2818887 -3.3197158 -3.3190439 -3.2951787 -3.2575512 -3.2117468 -3.1607728 -3.1058878 -3.0471748 -2.983963 -2.9151601 -2.839529 -2.7559208 -2.6634602 -2.5616649 -2.4504765 -2.3301869 -2.2012585 -2.0640702 -1.9186468 -1.7644498 -1.6002976 -1.4244522 -1.2348576 -1.0294742 -0.80663643 -0.56536324 -0.30558791 -0.028301213 0.26436796 0.56910008 0.88132813 1.1951591 1.5032821 1.796912 2.0658785 2.2990775 2.4856677 2.617628 2.6943904 2.7292768 2.7531578 2.8041938 2.9007333 3.0245091 3.1374107 3.2085556 3.2245169 3.1856355 3.099557 2.9765778 2.8270767 2.6603213 2.4840408 2.3043871 2.1260719 1.9525712 1.7863379 1.6290021
4.846592 1.1338406 -0.92805793 -2.0884502 -2.7524672 -3.1316198 -3.3412999 -3.4477616 -3.490593 -3.4940039 -3.4728489 -3.4360376 -3.3885757 -3.332859 -3.2695457 -3.1981939 -3.1177664 -3.0270603 -2.9250809 -2.8113486 -2.6861045 -2.5503636 -2.4057734 -2.2542673 -2.0975591 -1.936592 -1.7710998 -1.5994236 -1.4186626 -1.2251287 -1.0149843 -0.78490482 -0.53263162 -0.25734741 0.040122209 0.35722537 0.68964154 1.0312084 1.3737685 1.7069205 2.0177097 2.2903709 2.5063979 2.6455625 2.6893081 2.6296189 2.4883748 2.3447895 2.3265261 2.5043608 2.8076142 3.1086791 3.3283151 3.4444922 3.4649109 3.4076102 3.292066 3.1357786 2.9532545 2.7559688 2.5526961 2.3499456 2.1523908 1.9632503 1.78461
10.96277 4.7072139 0.98919055 -1.078813 -2.2456032 -2.9161282 -3.3016551 -3.5172549 -3.6287708 -3.6752766 -3.6803574 -3.6581322 -3.6166789 -3.5601112 -3.4899367 -3.4060301 -3.3074074 -3.1929 -3.0617637 -2.9142038 -2.7517471 -2.5773599 -2.3952095 -2.2100247 -2.0261215 -1.8463065 -1.6709756 -1.4977158 -1.3215779 -1.1359544 -0.93380438 -0.70888806 -0.45674534 -0.17529796 0.1348934 0.4705887 0.82588339 1.1921302 1.5576556 1.9071966 2.2210169 2.4737039 2.6327491 2.6573603 2.4992522 2.1120342 1.4926029 0.8090775 0.52813026 0.98127845 1.8371068 2.6289905 3.1887473 3.5192504 3.6664347 3.6778478 3.5932123 3.4435999 3.2526118 3.0378367 2.8121583 2.58483 2.3623297 2.1490286 1.9477114
18.579505 10.817751 4.5560361 0.83062965 -1.2445067 -2.4184329 -3.0957493 -3.4872934 -3.7075748 -3.8217219 -3.8679234 -3.8687022 -3.8369528 -3.779412 -3.6988293 -3.5954789 -3.4683567 -3.3162446 -3.1387124 -2.9370296 -2.7148623 -2.4785546 -2.2367715 -1.9993653 -1.7755435 -1.5717238 -1.3897116 -1.2258605 -1.0715742 -0.91501615 -0.74346503 -0.54561379 -0.31328587 -0.042372505 0.26689951 0.61008526 0.97869851 1.3601614 1.7372984 2.0871749 2.3790363 2.570952 2.6044326 2.3957399 1.8223241 0.70759076 -1.1494345 -3.5967207 -4.9210795 -3.4113107 -0.77852412 1.2641089 2.5644254 3.323039 3.7158715 3.8644017 3.8508181 3.7315161 3.5457608 3.3211047 3.0768841 2.8265627 2.5793564 2.3413868 2.116518
23.752515 18.432287 10.654349 4.3899979 0.65636156 -1.426378 -2.6072599 -3.2902999 -3.6855572 -3.9065338 -4.0170864 -4.053848 -4.0375088 -3.9789102 -3.8826436 -3.7494536 -3.5781069 -3.3670798 -3.11621 -2.8282856 -2.5103574 -2.174397 -1.8368361 -1.5166347 -1.2319218 -0.9958745 -0.81309783 -0.67788585 -0.5751544 -0.48376304 -0.38102537 -0.24695625 -0.067240124 0.16537119 0.45092317 0.7827823 1.1481846 1.5282792 1.8972358 2.2199705 2.4477846 2.5105105 2.3021024 1.6529456 0.27511582 -2.3347172 -6.9266782 -13.404776 -17.119189 -13.205651 -6.5283739 -1.7372247 1.0715581 2.6475378 3.4930469 3.8944453 4.019084 3.9699274 3.8131692 3.5926556 3.3379085 3.0688906 2.7989981 2.5370276 2.2885166
24.175105 23.59372 18.270394 10.479956 4.2068588 0.46581212 -1.623728 -2.8095085 -3.4944868 -3.8872919 -4.0995884 -4.1929403 -4.2012219 -4.1419575 -4.0225877 -3.8444093 -3.6055393 -3.3035958 -2.9384125 -2.5147854 -2.0449102 -1.5498225 -1.0589337 -0.60687008 -0.22749268 0.053810595 0.22715917 0.30169539 0.30387287 0.27108569 0.24315588 0.25461482 0.32966957 0.48022679 0.70622169 0.99702873 1.3327623 1.6845166 2.0127656 2.2629927 2.3568498 2.1750951 1.5236957 0.063771509 -2.8281236 -8.2259946 -16.985096 -26.424491 -30.374658 -26.211237 -16.558604 -7.5864306 -1.9760801 1.1268447 2.7948807 3.649196 4.0253673 4.1128881 4.0250575 3.8328274 3.5820371 3.3028005 3.0149589 2.7314276 2.4603499
19.726457 24.011177 23.420446 18.084061 10.29373 4.0077479 0.26097053 -1.8319519 -3.0168435 -3.6946331 -4.0712986 -4.2551317 -4.303554 -4.2455767 -4.0933629 -3.8489859 -3.5092361 -3.0699032 -2.5302054 -1.8974594 -1.191467 -0.44741926 0.28436008 0.94340577 1.4693477 1.8157653 1.9633651 1.926863 1.7519559 1.5034564 1.2496864 1.0488286 0.94058636 0.94352646 1.0564881 1.2617149 1.5275344 1.8089059 2.0444213 2.1478434 1.9902526 1.3637043 -0.094353247 -3.0534585 -8.6855824 -18.088619 -29.115539 -36.688883 -39.072247 -36.461195 -28.660293 -17.406259 -7.777235 -1.9215293 1.2566231 2.92591 3.7510882 4.088065 4.1359458 4.0124201 3.7902209 3.5156638 3.2186895 2.9186334 2.6277255
12.113583 19.555447 23.830231 23.231593 17.881365 10.08775 3.7972379 0.049025981 -2.0388281 -3.2097803 -3.8609329 -4.1933435 -4.3091455 -4.2583862 -4.0617697 -3.7229292 -3.2365155 -2.5951145 -1.7964221 -0.85100454 0.2101491 1.3303197 2.4269281 3.3992878 4.1452659 4.5846933 4.6826478 4.4622871 3.9998709 3.4038041 2.7874071 2.2457533 1.8421297 1.6044419 1.5285825 1.584556 1.7214657 1.8683723 1.9283483 1.7616165 1.1487203 -0.28711468 -3.2366132 -8.9087397 -18.476798 -29.91049 -38.441707 -42.808547 -44.021237 -42.566242 -37.957401 -29.185026 -17.512067 -7.708482 -1.8076021 1.3592161 2.9941084 3.7781964 4.0752658 4.08793 3.9352111 3.6901603 3.3989512 3.0911225 2.7853993
5.3426665 11.93189 19.372581 23.632678 23.025963 17.673325 9.8678883 3.5849017 -0.15291502 -2.2176146 -3.3476823 -3.9331397 -4.1660364 -4.137552 -3.8852119 -3.4166836 -2.72411 -1.7955487 -0.6265463 0.76732168 2.3381697 3.9972106 5.6147085 7.0323079 8.0885141 8.6546746 8.6725037 8.1763101 7.2858915 6.1726416 5.0156235 3.9644118 3.1172683 2.5154674 2.1493392 1.9689824 1.8927506 1.8079958 1.5586205 0.91015853 -0.52807153 -3.4613696 -9.1187945 -18.692193 -30.218296 -38.992451 -43.89579 -46.180741 -46.763869 -45.923775 -43.382397 -38.224027 -29.197763 -17.425084 -7.6148689 -1.7368802 1.3911464 2.9846297 3.730123 3.9935229 3.9780611 3.802969 3.5414826 3.2398407 2.9273108
1.1657389 5.1595941 11.73351 19.16877 23.421363 22.808093 17.460194 9.6577666 3.3928193 -0.30929806 -2.3144531 -3.3506338 -3.7949943 -3.8237507 -3.5098936 -2.8720698 -1.9016543 -0.58239431 1.0908918 3.0927233 5.3484513 7.7224982 10.020887 12.011947 13.462476 14.18565 14.093454 13.231154 11.769795 9.9587727 8.0629037 6.3069063 4.8398188 3.7233973 2.9400522 2.4094286 2.001486 1.5354617 0.75272289 -0.75772095 -3.7179073 -9.3719832 -18.92321 -30.452676 -39.251851 -44.2764 -46.847649 -48.008118 -48.256924 -47.736583 -46.30543 -43.465616 -38.176764 -29.121136 -17.348821 -7.5772107 -1.7383907 1.351931 2.9114458 3.6266086 3.8627052 3.8233069 3.6290349 3.3546271 3.046991
-1.166172 0.97542219 4.9589864 11.527795 18.947321 23.201955 22.591478 17.252624 9.4871611 3.2677335 -0.3507244 -2.2261571 -3.0681602 -3.2317484 -2.8679173 -2.0242139 -0.69901435 1.1230219 3.4405234 6.2061115 9.3014695 12.525504 15.605727 18.233608 20.110983 21.000994 20.786585 19.515909 17.400269 14.762534 11.96181 9.3174404 7.0503733 5.2560787 3.9093004 2.885541 1.9784063 0.89196306 -0.81919089 -3.9027967 -9.6200088 -19.198957 -30.715914 -39.497698 -44.519662 -47.133609 -48.429315 -48.977404 -49.039528 -48.691531 -47.858816 -46.281511 -43.391905 -38.105018 -29.076704 -17.343435 -7.5960949 -1.7841695 1.2840908 2.820219 3.507291 3.711745 3.6423865 3.4254038 3.1384129
-2.4776945 -1.362334 0.76910091 4.7430946 11.311469 18.726516 22.988547 22.400189 17.096419 9.4044184 3.2975787 -0.1477162 -1.7637754 -2.2309045 -1.8710429 -0.80408625 0.94243287 3.3660859 6.4394466 10.068879 14.066827 18.148847 21.964235 25.150979 27.385273 28.416418 28.110622 26.498512 23.788835 20.336874 16.578083 12.9361 9.728899 7.1081632 5.0468796 3.3577391 1.7084651 -0.40405731 -3.7747375 -9.6910493 -19.40085 -30.970698 -39.777903 -44.789325 -47.384797 -48.678012 -49.271402 -49.47155 -49.423817 -49.171702 -48.673433 -47.786049 -46.206809 -43.339526 -38.080459 -29.065184 -17.350062 -7.5918698 -1.7726747 1.2883785 2.7906764 3.421028 3.5637507 3.4447411 3.1974473
-3.2304509 -2.6792789 -1.5737184 0.55022859 4.520664 11.088017 18.525369 22.812026 22.278565 17.070377 9.5157413 3.6390312 0.5290244 -0.60237764 -0.39545586 0.86076923 3.0563185 6.1314182 9.9927427 14.460109 19.246833 23.981712 28.268579 31.753922 34.159173 35.276004 34.973186 33.233223 30.191017 26.152938 21.574181 16.969271 12.775348 9.2322101 6.3246782 3.772057 1.0130789 -2.8553509 -9.1859334 -19.217312 -31.02598 -39.977122 -45.057851 -47.670473 -48.949799 -49.521017 -49.716176 -49.712394 -49.597583 -49.399047 -49.091775 -48.590979 -47.724458 -46.168103 -43.30935 -38.032992 -28.966431 -17.166458 -7.3309629 -1.4708705 1.5372676 2.9055053 3.3856706 3.412505 3.2238852
-3.6645693 -3.4368745 -2.8947969 -1.7952987 0.32769553 4.3065422 10.889236 18.371147 22.729181 22.3109 17.292082 10.015647 4.5585081 2.0533037 1.7559882 3.0536128 5.6401081 9.3188845 13.863127 18.953093 24.183171 29.125646 33.415172 36.800149 39.125795 40.274848 40.131517 38.599853 35.666638 31.48821 26.446947 21.100328 16.010664 11.541521 7.712715 4.0991852 -0.32168928 -7.2181004 -17.91029 -30.334497 -39.725608 -45.09633 -47.872765 -49.225234 -49.809905 -49.985789 -49.955109 -49.832115 -49.675977 -49.505842 -49.305498 -49.019715 -48.54038 -47.675112 -46.080541 -43.124845 -37.674754 -28.359182 -16.244774 -6.2067396 -0.4532414 2.1625698 3.1304037 3.3423142 3.2233077
-3.9097449 -3.8751119 -3.6554436 -3.117448 -2.0155318 0.12014055 4.1276726 10.767399 18.330126 22.83761 22.644016 17.963214 11.201437 6.4619741 4.9418381 5.8995885 8.6561317 12.734634 17.674674 22.963246 28.08522 32.628669 36.362876 39.22869 41.246953 42.409725 42.615957 41.672604 39.368907 35.624298 30.643888 24.948453 19.202926 13.924151 9.2100861 4.4633265 -2.1676576 -13.409097 -27.273408 -37.968005 -44.238377 -47.579709 -49.262889 -50.02087 -50.267273 -50.243914 -50.09574 -49.908512 -49.728104 -49.569956 -49.422264 -49.243995 -48.956849 -48.427797 -47.433952 -45.591211 -42.211671 -36.091522 -25.8324 -12.822682 -3.0284161 1.3606389 2.8773907 3.2652194 3.2068599
-4.0398612 -4.1235379 -4.0954315 -3.8772413 -3.3326081 -2.2114229 -0.037190204 4.036801 10.792199 18.525065 23.299227 23.507283 19.40559 13.470598 9.8286138 9.6543428 12.068934 16.1174 20.968722 25.873659 30.250943 33.796915 36.501783 38.542839 40.11967 41.320348 42.051136 42.022481 40.814823 38.064149 33.7144 28.158432 22.111228 16.255849 10.846397 5.2738914 -2.8445685 -16.797252 -31.116192 -40.386922 -45.577002 -48.344405 -49.72663 -50.317357 -50.464774 -50.380054 -50.193236 -49.982683 -49.790891 -49.632525 -49.497303 -49.348521 -49.116671 -48.685823 -47.867188 -46.347531 -43.586596 -38.626489 -29.923911 -16.668593 -4.4748702 0.96652571 2.7543996 3.2194643 3.1866574
-4.0989854 -4.2558802 -4.3440705 -4.3140821 -4.0839341 -3.511918 -2.3402059 -0.081197964 4.1274498 11.085561 19.136713 24.358532 25.212018 21.998176 17.191191 14.870414 15.968395 19.239238 23.332552 27.219816 30.301154 32.443674 33.878966 34.99283 36.117471 37.404313 38.763544 39.832953 40.01448 38.665683 35.427407 30.485333 24.532066 18.402424 12.591064 6.7986704 -0.68002836 -12.541414 -26.827749 -37.794407 -44.231978 -47.670863 -49.406966 -50.190076 -50.444766 -50.419819 -50.264543 -50.067383 -49.875842 -49.706319 -49.547562 -49.358832 -49.061968 -48.523988 -47.522 -45.671863 -42.285622 -36.159409 -25.894802 -12.880122 -3.0813622 1.3117659 2.8322142 3.2234026 3.1681014
-4.1142985 -4.3160507 -4.4748441 -4.5568822 -4.5082541 -4.2406089 -3.6032167 -2.3256763 0.096762699 4.5504388 11.857459 20.412215 26.316876 28.05893 25.925027 22.242491 20.808181 22.129778 24.612665 26.893079 28.338867 28.965274 29.176183 29.471739 30.238867 31.653957 33.635708 35.792706 37.415151 37.637456 35.803208 31.837933 26.333361 20.228104 14.282991 8.6435961 2.5741662 -5.5310997 -17.047704 -30.003967 -39.722215 -45.283742 -48.16352 -49.564814 -50.165261 -50.337545 -50.29245 -50.149504 -49.971078 -49.778209 -49.555766 -49.249099 -48.750367 -47.867282 -46.256457 -43.285997 -37.82253 -28.494853 -16.369493 -6.3215495 -0.55907725 2.0648692 3.0400874 3.2587101 3.1458139
-4.1029283 -4.3310896 -4.5314368 -4.6787408 -4.7338113 -4.635063 -4.2834546 -3.5137818 -2.0368125 0.67527319 5.5348018 13.392314 22.639283 29.390268 32.037362 30.682586 27.343006 25.403103 25.185832 25.301002 24.969621 24.207729 23.43946 23.149887 23.697933 25.251006 27.744322 30.805556 33.696187 35.415977 35.058421 32.268244 27.466454 21.624144 15.724952 10.287413 5.1668051 -0.44087235 -7.9610904 -18.76162 -31.043545 -40.270547 -45.500249 -48.18265 -49.48371 -50.048498 -50.221525 -50.187603 -50.039309 -49.806711 -49.466369 -48.934342 -48.038822 -46.455832 -43.572782 -38.274351 -29.187789 -17.369711 -7.5178345 -1.6429156 1.3786518 2.7590661 3.2502859 3.2871703 3.1077012
-4.0757837 -4.3180154 -4.540711 -4.7230334 -4.8331459 -4.8224905 -4.6165619 -4.0992144 -3.0840105 -1.258103 1.9273502 7.3918396 15.972342 25.974263 33.382307 36.358021 34.698996 30.184819 26.189385 23.438041 21.189227 19.208101 17.722667 17.066875 17.501456 19.157654 21.990226 25.680787 29.533103 32.504499 33.510154 31.927009 27.959355 22.538182 16.796737 11.522889 6.9157259 2.6122721 -2.2628389 -9.1540983 -19.464271 -31.38369 -40.37884 -45.477164 -48.098186 -49.380992 -49.943967 -50.103552 -50.011093 -49.713632 -49.171417 -48.242565 -46.624838 -43.722209 -38.430896 -29.386323 -17.644647 -7.8624134 -2.0214593 1.0592934 2.579439 3.2259778 3.3833998 3.2777573 3.0426372
-4.0398228 -4.2876765 -4.5195918 -4.7164592 -4.8493255 -4.8748274 -4.7285487 -4.3152356 -3.4938229 -2.0525436 0.33766036 4.214713 10.433896 19.687109 30.078809 37.316155 39.378809 36.015697 29.207967 22.85385 18.234689 14.972295 12.855894 11.919876 12.259266 13.940041 16.927142 20.967131 25.446435 29.350286 31.491153 31.018976 27.906661 22.987956 17.472902 12.337142 8.0045927 4.3639497 0.89125209 -3.3367256 -9.7590445 -19.747775 -31.483659 -40.364838 -45.413566 -48.011731 -49.26805 -49.764872 -49.770971 -49.36641 -48.478995 -46.850127 -43.912691 -38.581882 -29.513497 -17.743813 -7.9634588 -2.1216345 0.9736955 2.5343395 3.2436308 3.4682434 3.4171968 3.2168715 2.9450554
-3.9994532 -4.2470334 -4.4789466 -4.6759831 -4.8091122 -4.8352235 -4.6914307 -4.2878669 -3.4992902 -2.1561668 -0.034721652 3.161889 7.8575851 14.688099 24.044052 33.797605 39.588541 39.594014 33.968172 25.165855 17.504703 12.418086 9.4227054 8.0856467 8.23519 9.8219273 12.792981 16.94643 21.759101 26.283074 29.29174 29.763014 27.449269 23.050014 17.793288 12.78344 8.6057207 5.3097593 2.5672692 -0.21887702 -3.9650024 -10.074435 -19.866809 -31.503047 -40.327309 -45.329149 -47.851276 -48.949466 -49.130896 -48.542855 -47.046392 -44.145093 -38.799238 -29.691274 -17.871207 -8.0561933 -2.1780094 0.94797491 2.5397907 3.2842193 3.5468511 3.531537 3.3591513 3.1046598 2.8151739
-3.9574232 -4.2005632 -4.4258764 -4.6127366 -4.7299537 -4.7313218 -4.5499811 -4.0921558 -3.2321459 -1.8127514 0.34223959 3.3990284 7.4832893 12.71338 19.364711 27.622578 35.475679 39.029671 36.954041 29.796683 20.221366 12.498882 7.9142833 5.7779936 5.5054402 6.8316883 9.6290638 13.711031 18.626584 23.505184 27.125408 28.347595 26.728925 22.817443 17.819309 12.925985 8.8436624 5.7337065 3.3826086 1.3645348 -0.9164808 -4.3357893 -10.247542 -19.929767 -31.476254 -40.219142 -45.062825 -47.274171 -47.778528 -46.859699 -44.24257 -39.012985 -29.920738 -18.087491 -8.2220059 -2.2937673 0.87984947 2.514654 3.2975911 3.5949325 3.6102601 3.4631263 3.2270583 2.948557 2.6571243
-3.9153991 -4.1511466 -4.3651114 -4.5342873 -4.6238356 -4.5821459 -4.3347953 -3.7784951 -2.7782341 -1.1747043 1.186045 4.3889203 8.3621569 12.841252 17.544179 22.623973 28.626301 34.177953 35.949408 32.842939 25.372432 16.061897 8.9817509 5.2655658 4.1310791 4.9460064 7.400218 11.258248 16.101388 21.123292 25.12906 26.905136 25.847694 22.357504 17.597556 12.814355 8.8022522 5.8014997 3.6702221 2.0756186 0.5863099 -1.3515641 -4.559627 -10.337329 -19.91804 -31.310276 -39.77051 -44.052112 -45.174608 -43.629959 -38.935111 -30.082 -18.334286 -8.4620944 -2.4986024 0.72515884 2.4117356 3.2426913 3.5822526 3.6334547 3.5157134 3.3024406 3.0401371 2.7586364 2.4769275
-3.8743418 -4.1006318 -4.2998696 -4.4459746 -4.499421 -4.4016657 -4.068543 -3.3842815 -2.2007461 -0.35181492 2.3007555 5.7744791 9.840958 13.964211 17.483577 20.141349 22.675994 26.438404 30.588178 31.818527 28.833541 21.893625 13.321962 7.1117748 4.3365512 4.2122311 6.0880895 9.5667686 14.194372 19.191753 23.386377 25.518847 24.865569 21.705642 17.152854 12.479691 8.5359497 5.613848 3.6174218 2.2682616 1.2226559 0.092005856 -1.6202637 -4.6765782 -10.310699 -19.660518 -30.604366 -38.08056 -40.362292 -37.650796 -29.753829 -18.409756 -8.6974237 -2.7652738 0.4826528 2.2154177 3.0982384 3.4875137 3.5828372 3.5023647 3.3192638 3.0802488 2.815622 2.5450442 2.2810376
-3.8347522 -4.0501943 -4.2323862 -4.3516971 -4.3632338 -4.2006044 -3.7687972 -2.9385305 -1.5482758 0.57323967 3.5441407 7.3105759 11.499482 15.36832 18.04409 19.083275 19.02714 19.498389 22.253095 26.332957 28.055854 25.819426 19.722937 12.014273 6.702275 4.8818445 5.7715126 8.6498173 12.910636 17.733804 21.939304 24.23353 23.815777 20.882109 16.501007 11.943731 8.0820274 5.2353867 3.3361884 2.1403041 1.3550702 0.680197 -0.21302315 -1.7569983 -4.6374958 -9.9689193 -18.632164 -27.962248 -31.799355 -27.524841 -17.766286 -8.6949943 -2.9929988 0.19400518 1.9387966 2.8629672 3.3026039 3.4477393 3.4122059 3.2674641 3.059827 2.8198425 2.5677459 2.3168078 2.0754899
-3.7968318 -4.0005668 -4.1642442 -4.254385 -4.220334 -3.9873983 -3.4493819 -2.463746 -0.85743831 1.5408309 4.8194601 8.842465 13.095396 16.675984 18.616803 18.476732 16.773844 14.916828 14.790248 17.865092 22.716438 25.362214 24.032624 18.803845 11.974342 7.5735574 6.7355899 8.612658 12.27945 16.755584 20.794096 23.060965 22.713045 19.902082 15.65834 11.227087 7.4699583 4.7110762 2.8979077 1.8093169 1.1856399 0.77810723 0.34758424 -0.36811348 -1.7186763 -4.2475187 -8.7302255 -15.086652 -18.676606 -14.641477 -7.8486246 -2.9494955 -0.040944241 1.6265534 2.5556246 3.0331039 3.2269012 3.2405659 3.1408682 2.9722026 2.7646015 2.5384954 2.307705 2.08141 1.8654919
-3.7605858 -3.9521865 -4.0965834 -4.1562994 -4.0747484 -3.7688251 -3.1213144 -1.977383 -0.1552471 2.5102492 6.067434 10.287578 14.518759 17.740293 18.977049 17.901127 15.125955 11.944353 9.8568293 10.342351 14.396151 20.263902 23.854268 23.395662 19.009504 13.071306 9.6269235 9.7582775 12.414267 16.28595 19.951122 22.001222 21.566936 18.783576 14.647165 10.354105 6.7272096 4.0755679 2.3513416 1.3494631 0.8338395 0.58879097 0.42626986 0.17233573 -0.35581008 -1.3738978 -3.1077744 -5.4208887 -6.6094462 -4.9677465 -2.2099331 -0.050669643 1.3573364 2.2147223 2.697761 2.9284572 2.9896061 2.9382324 2.8142182 2.6457022 2.4525656 2.2487715 2.0439896 1.8447509 1.6552871
-3.7258908 -3.9052899 -4.0302355 -4.0592288 -3.9297707 -3.550497 -2.7936859 -1.4935539 0.53740265 3.4525253 7.2518386 11.607675 15.739136 18.54486 19.103837 17.257632 13.755256 9.8421858 6.7401141 5.4720237 7.0403952 12.154456 18.982125 23.422679 23.78798 20.264861 15.245057 12.74702 13.625598 16.445366 19.451682 21.075035 20.402394 17.558847 13.501297 9.3558167 5.8823144 3.3584228 1.7324018 0.81035798 0.37439427 0.23209652 0.22654151 0.23029444 0.13715719 -0.13690939 -0.61894964 -1.1557417 -1.2896404 -0.6943905 0.29571878 1.212684 1.8878646 2.3242268 2.5681153 2.6676552 2.6632219 2.5865584 2.4619219 2.3075224 2.1368211 1.9596009 1.7828205 1.6112856 1.4481714
-3.6925368 -3.8599716 -3.9658073 -3.9646098 -3.7881483 -3.3371806 -2.4742821 -1.0243594 1.2027292 4.3436221 8.3447523 12.779538 16.753334 19.119001 19.048749 16.570839 12.566847 8.2542663 4.6692177 2.5191511 2.3806826 5.0158528 11.058344 18.720589 23.956553 25.146801 22.517423 18.387664 16.577824 17.547869 19.425507 20.342043 19.26334 16.271757 12.262287 8.2677562 4.9651278 2.5868781 1.069868 0.22747649 -0.14331637 -0.21710259 -0.13037827 0.014502403 0.14405939 0.21453945 0.22507964 0.24074199 0.38062823 0.71054778 1.1571401 1.5915509 1.9341763 2.1631521 2.2866479 2.3233303 2.2933726 2.2149861 2.1033695 1.9706527 1.8262183 1.6771331 1.5285773 1.3842277 1.2465824
-3.6602535 -3.8162198 -3.9037256 -3.8735837 -3.6521472 -3.1328625 -2.1696345 -0.57991505 1.8259854 5.1638505 9.3238255 13.785937 17.563097 19.494975 18.867986 15.887908 11.544615 7.0263045 3.234127 0.68050773 -0.33230221 0.57200546 4.1104732 10.957682 19.375235 25.404856 27.430728 25.61731 22.086935 20.249106 20.176143 19.927078 18.210693 14.967499 10.971428 7.1269712 4.0075154 1.7885819 0.38965917 -0.37135291 -0.68452435 -0.7095938 -0.56828316 -0.34836014 -0.10933168 0.11468611 0.31563818 0.51108665 0.73115155 0.98953991 1.2655113 1.5198465 1.7213962 1.8569711 1.9274381 1.9411181 1.9090465 1.84235 1.7510225 1.6434792 1.5265085 1.4054064 1.2841799 1.1657629 1.0522182
-3.6287275 -3.7739374 -3.8442626 -3.7870155 -3.5235394 -2.9406274 -1.8845864 -0.16713006 2.3984665 5.9043917 10.184384 14.633791 18.195324 19.722204 18.623129 15.259568 10.698727 6.0921005 2.2359349 -0.48311317 -1.9137776 -1.9164998 -0.14087998 4.1701823 11.759357 20.922805 27.723373 30.466415 29.092041 25.376589 22.366003 20.146446 17.390375 13.72931 9.6908942 5.9850928 3.0517616 0.99732269 -0.28057158 -0.96111434 -1.2225146 -1.2113767 -1.0376745 -0.77946394 -0.48922578 -0.19879161 0.077204314 0.33730568 0.58603743 0.82447207 1.0450036 1.2346462 1.3822153 1.4825926 1.5367383 1.5496828 1.528416 1.4803762 1.4125659 1.331124 1.2411801 1.1468668 1.0514095 0.95724756 0.86616061
-3.5976151 -3.7329603 -3.7875596 -3.7055241 -3.4036253 -2.7626244 -1.6220577 0.21111692 2.9197832 6.5725644 10.949708 15.371014 18.725461 19.895001 18.408108 14.75769 10.062089 5.4318184 1.5804896 -1.1890406 -2.8098829 -3.2622477 -2.4179325 0.11629695 5.1508246 13.458735 23.339245 30.728965 33.73187 31.962001 26.916233 21.772172 17.227666 12.796371 8.5706607 4.9437455 2.1683313 0.26200069 -0.90626727 -1.5155852 -1.7341807 -1.6974079 -1.5056875 -1.2299093 -0.9180376 -0.60065882 -0.29531736 -0.010418582 0.25060249 0.4852997 0.68999891 0.86021417 0.99253468 1.0860839 1.14274 1.166466 1.1623745 1.1359214 1.092352 1.0363854 0.97207308 0.90277058 0.83117285 0.7593825 0.68899028
-3.5665545 -3.6930779 -3.7336653 -3.6295556 -3.2933868 -2.6003967 -1.3837638 0.55441697 3.3945812 7.1853553 11.659565 16.069269 19.257145 20.135229 18.339281 14.470712 9.6835622 5.0519754 1.2275862 -1.5425539 -3.2399501 -3.9050633 -3.5188193 -1.9098117 1.3605396 7.1207221 16.095175 26.46785 33.931254 36.31309 33.08232 25.929239 18.674121 12.729271 7.9350928 4.1961529 1.4749194 -0.34454904 -1.4413129 -2.0040604 -2.1967556 -2.147371 -1.9496389 -1.6694725 -1.3517548 -1.0259667 -0.71052249 -0.41620027 -0.14900759 0.087546698 0.29108872 0.46004001 0.59391686 0.69366129 0.76164254 0.80133393 0.81684625 0.81248371 0.79240632 0.76041459 0.71983776 0.67349692 0.62371602 0.57236051 0.52088931
-3.5351775 -3.6540554 -3.6825825 -3.5594919 -3.1937468 -2.4555179 -1.1717766 0.86109215 3.8240761 7.75202 12.339106 16.777335 19.864526 20.533483 18.506012 14.469426 9.6067781 4.968472 1.165353 -1.5902935 -3.3070705 -4.0554856 -3.8684926 -2.6831834 -0.28953023 3.7510051 10.195187 19.602707 29.88992 36.540935 37.324921 32.027692 22.97234 14.539714 8.364679 4.0626493 1.1513993 -0.71863952 -1.8241215 -2.3884607 -2.5850399 -2.5423762 -2.3523394 -2.0788694 -1.7655056 -1.4412276 -1.1247725 -0.82780527 -0.55727219 -0.31710189 -0.10930107 0.065482773 0.20774747 0.3190355 0.40178341 0.459082 0.49439078 0.51126702 0.51314993 0.5032131 0.48428013 0.45878976 0.42879571 0.39598846 0.3617292
-3.5031182 -3.6156496 -3.6343029 -3.4957334 -3.105774 -2.3300988 -0.989761 1.1252887 4.1996442 8.2613122 12.97687 17.489568 20.555206 21.112992 18.941413 14.78764 9.8594194 5.1994078 1.3996966 -1.3435238 -3.0507341 -3.8052138 -3.6630083 -2.6120052 -0.55631079 2.6972072 7.4822646 14.340526 23.558087 32.834876 37.742269 36.473345 29.411936 19.358162 10.7691 5.0453381 1.4648773 -0.71383866 -1.971092 -2.6190628 -2.868058 -2.8617482 -2.6982581 -2.4442189 -2.1444982 -1.8289567 -1.5171246 -1.2214414 -0.94951243 -0.705669 -0.49200882 -0.3090511 -0.1561369 -0.031698569 0.06651371 0.14121097 0.19535137 0.23194996 0.25392712 0.26400127 0.26462332 0.2579454 0.2458151 0.22978699 0.21114477
-3.4700158 -3.5776124 -3.5888116 -3.438704 -3.0306856 -2.2267681 -0.84284197 1.3375355 4.5046578 8.6863256 13.534918 18.162614 21.292308 21.854049 19.645578 15.440927 10.465783 5.7715122 1.9546434 -0.78582895 -2.4689626 -3.1792357 -2.9801808 -1.8825087 0.15132467 3.1790844 7.248837 12.426825 18.939002 26.904085 34.239757 37.042498 34.132154 26.229241 16.089306 7.9335196 2.8446929 -0.10443393 -1.7587094 -2.62493 -3.0032633 -3.0788618 -2.9697719 -2.7527489 -2.478169 -2.1791379 -1.8772645 -1.586417 -1.3152096 -1.0686659 -0.84933302 -0.65802266 -0.49431067 -0.35688824 -0.24383039 -0.15281705 -0.08131976 -0.026755686 0.013392806 0.041492554 0.059704904 0.069956648 0.073930679 0.073070657 0.068594918
-3.4355131 -3.5396802 -3.5460563 -3.3887735 -2.9696497 -2.1481669 -0.73632495 1.4878842 4.7216963 8.9993607 13.975087 18.753562 22.039732 22.738899 20.623923 16.454901 11.464793 6.7301752 2.8767863 0.12638408 -1.5259082 -2.1572761 -1.8306881 -0.56824606 1.6300423 4.7309094 8.593684 12.939655 17.498414 22.405669 28.13447 33.308011 34.610563 31.066156 23.242643 13.574523 6.0255514 1.5084925 -0.97807184 -2.29188 -2.9250602 -3.1544428 -3.1425487 -2.988834 -2.7559667 -2.4841119 -2.1991632 -1.9177184 -1.6501985 -1.4028571 -1.1790996 -0.98036516 -0.80672638 -0.65731072 -0.53060863 -0.42470792 -0.33747635 -0.26670308 -0.21020528 -0.16590421 -0.13187534 -0.10637739 -0.087864851 -0.074988587 -0.066588117
-3.3992501 -3.5015556 -3.5059014 -3.3461465 -2.9235261 -2.0963507 -0.67435264 1.5687465 4.837984 9.1809952 14.271704 19.234656 22.775968 23.762023 21.893069 17.868002 12.911734 8.1413913 4.2374827 1.4654075 -0.15288503 -0.68089006 -0.1783826 1.3213023 3.7795516 7.0759267 10.911504 14.766227 18.046432 20.526547 22.901246 26.456883 30.349466 31.32902 28.097319 20.870463 11.85153 4.8524877 0.76504994 -1.4142398 -2.5215007 -3.0245094 -3.1785991 -3.129337 -2.9635842 -2.7349646 -2.4772764 -2.2119835 -1.9526255 -1.707525 -1.4815079 -1.2770277 -1.0949185 -0.93491357 -0.79601183 -0.67674437 -0.57537088 -0.49002554 -0.41882364 -0.35993724 -0.31164601 -0.27236863 -0.24067904 -0.21531184 -0.19515963
-3.3608586 -3.4628898 -3.4680867 -3.3107761 -2.8926902 -2.0724441 -0.65926789 1.5759457 4.8467407 9.2208694 14.409716 19.585832 23.478818 24.907216 23.454409 19.708306 14.862964 10.084575 6.1312658 3.3332881 1.7526403 1.3447042 2.0511937 3.8189405 6.5550771 10.034191 13.799157 17.149969 19.344717 20.041492 19.774953 20.096687 22.725387 26.658114 28.232453 25.76389 19.23814 10.78882 4.2056733 0.40500479 -1.5860225 -2.5770544 -3.01424 -3.1367519 -3.078518 -2.9181984 -2.7037106 -2.4649114 -2.2205567 -1.982337 -1.7573284 -1.5495388 -1.3609157 -1.1920217 -1.0424977 -0.91138846 -0.7973742 -0.69893677 -0.61447842 -0.54240521 -0.4811839 -0.42937847 -0.38567163 -0.34887507 -0.31793173
-3.3199585 -3.4232708 -3.432202 -3.2823216 -2.8769852 -2.0766347 -0.69177897 1.5081116 4.7457406 9.114987 14.38021 19.787177 24.112489 26.128298 25.271279 21.972449 17.360455 12.643402 8.671592 5.860215 4.3255372 4.0464975 4.9609811 6.980371 9.9330266 13.464213 16.958686 19.59809 20.640161 19.844809 17.776766 15.763578 15.583615 18.63455 23.431664 25.905523 24.204268 18.262207 10.212448 3.9077531 0.28131011 -1.6042821 -2.5370361 -2.9473552 -3.0634238 -3.0115992 -2.865358 -2.6690815 -2.45022 -2.2259021 -2.0067323 -1.7990834 -1.6065364 -1.4308152 -1.2724114 -1.131009 -1.0057799 -0.89558951 -0.79914189 -0.71508008 -0.64205521 -0.57877217 -0.52401834 -0.47667994 -0.43574948
-3.2761561 -3.3822145 -3.3976708 -3.2601316 -2.8757393 -2.1083414 -0.77157893 1.3649892 4.5335598 8.8589133 14.170512 19.807679 24.618049 27.343213 27.264869 24.619289 20.421661 15.893906 11.979361 9.1935928 7.7207882 7.5673348 8.6589304 10.851054 13.866467 17.205308 20.118589 21.756925 21.513007 19.380782 16.059451 12.719231 10.676562 11.2627 15.357882 21.153691 24.424862 23.302262 17.762431 9.9681853 3.8254538 0.2954607 -1.5384057 -2.4483732 -2.8544583 -2.97781 -2.9400458 -2.811452 -2.6342652 -2.434502 -2.2283451 -2.0257947 -1.8328622 -1.6529428 -1.4877049 -1.3376793 -1.2026584 -1.0819698 -0.97466486 -0.87964903 -0.79577132 -0.72188427 -0.65688336 -0.59973142 -0.54947245
-3.2290443 -3.3391591 -3.3637316 -3.2432089 -2.887726 -2.1662383 -0.89766729 1.1461797 4.2059879 8.4396542 13.74987 19.586541 24.896266 28.422013 29.302955 27.551879 24.012749 19.872515 16.149444 13.46373 12.076346 12.022997 13.207305 15.408522 18.225135 21.02146 22.979521 23.334358 21.725084 18.425756 14.2579 10.251763 7.3417444 6.3289504 8.077769 13.20049 19.77653 23.613392 22.867119 17.565586 9.9293325 3.868173 0.38411571 -1.4307913 -2.3386008 -2.7528227 -2.89028 -2.8697133 -2.7594979 -2.6006077 -2.418237 -2.2280501 -2.0397419 -1.8591706 -1.6896886 -1.533001 -1.3897323 -1.2598075 -1.1427116 -1.0376665 -0.94375253 -0.85999064 -0.7853972 -0.71901991 -0.65995996
-3.1782066 -3.29346 -3.3294134 -3.2301405 -2.9109974 -2.2478936 -1.0676368 0.8524157 3.7580263 7.8383256 13.072463 19.035889 24.807724 29.178627 31.176173 30.575451 27.991576 24.509725 21.179238 18.708665 17.433617 17.417603 18.534753 20.478262 22.728258 24.563214 25.201068 24.081485 21.150651 16.926986 12.271609 8.0398852 4.8626466 3.1608868 3.3493702 6.0967519 11.972892 19.067419 23.250832 22.726849 17.554539 9.9991142 3.977556 0.50821506 -1.3065674 -2.223396 -2.6518407 -2.8061471 -2.8033606 -2.7107494 -2.5685753 -2.40159 -2.2252021 -2.0489819 -1.8787567 -1.7179148 -1.5682441 -1.430484 -1.3046946 -1.1905072 -1.0872938 -0.99428282 -0.91063704 -0.8355058 -0.76805867
-3.1232254 -3.2443954 -3.2935234 -3.2190302 -2.9426676 -2.3491767 -1.2761666 0.48915209 3.1918391 7.0460069 12.104497 18.077972 24.210782 29.395213 32.597324 33.366157 32.04528 29.540413 26.858546 24.751176 23.608939 23.517378 24.322645 25.646945 26.899882 27.369641 26.432335 23.816486 19.762241 14.933065 10.124071 5.9788297 2.877559 0.9981286 0.47350027 1.5982803 5.0299301 11.373372 18.786848 23.160911 22.755211 17.65317 10.121618 4.1164355 0.64469673 -1.180026 -2.1112571 -2.5562832 -2.7278594 -2.7420676 -2.665564 -2.5382361 -2.3846239 -2.2200373 -2.0540274 -1.8924577 -1.7387919 -1.594919 -1.4616966 -1.3393119 -1.2275261 -1.1258401 -1.0336061 -0.95010392 -0.87459059
-3.0637015 -3.1911912 -3.2546732 -3.2075069 -2.9788384 -2.4639244 -1.5139855 0.069328608 2.5232866 6.0773081 10.848252 16.680629 23.004777 28.86585 33.235486 35.481155 35.661028 34.428549 32.654542 31.059908 30.051485 29.727466 29.92241 30.237316 30.104078 28.9428 26.38706 22.468093 17.633636 12.563451 7.898431 4.0601418 1.2295648 -0.56784301 -1.3435812 -1.0219889 0.70891078 4.5543471 11.162198 18.748547 23.223515 22.87162 17.80066 10.272418 4.262746 0.78056274 -1.0588083 -2.0064075 -2.4682543 -2.6562743 -2.6860292 -2.6238625 -2.5094897 -2.3673759 -2.2128224 -2.0554186 -1.9010979 -1.753415 -1.614364 -1.4849136 -1.3653655 -1.2555939 -1.1552087 -1.0636655 -0.98033982
-2.999284 -3.1330724 -3.2113637 -3.1928581 -3.0148054 -2.5842397 -1.7682679 -0.38708523 1.7815406 4.9704377 9.3438946 14.864669 21.150316 27.436646 32.774205 36.420326 38.169072 38.374419 37.682051 36.698452 35.797314 35.080129 34.401601 33.418737 31.698647 28.899137 24.948714 20.119032 14.937337 9.9844152 5.7019522 2.3125049 -0.1465546 -1.7381167 -2.540498 -2.5755408 -1.7322545 0.35026328 4.4235821 11.177005 18.83763 23.362138 23.02921 17.957755 10.432163 4.4056006 0.9089784 -0.94657476 -1.9105824 -2.3883591 -2.5913948 -2.6349947 -2.5853662 -2.4821711 -2.3498763 -2.2038238 -2.0536691 -1.9054293 -1.7627531 -1.6277339 -1.5014419 -1.3842788 -1.2762156 -1.176954 -1.0860355
-2.9297086 -3.0693353 -3.1621185 -3.1722778 -3.0455137 -2.7013391 -2.0242136 -0.85599443 1.0040164 3.7794037 7.6604641 12.700261 18.683811 25.052135 30.996927 35.749256 38.894144 40.481039 40.875484 40.503002 39.661146 38.451045 36.787122 34.460112 31.259887 27.126605 22.244339 17.013595 11.920353 7.3803007 3.6404923 0.7712242 -1.2795864 -2.6170865 -3.3432039 -3.5162565 -3.114218 -1.9790319 0.29111218 4.4786442 11.303502 18.994096 23.531333 23.199863 18.115275 10.581118 4.5399161 1.026862 -0.8446742 -1.8241162 -2.3163932 -2.5327897 -2.5885068 -2.5497171 -2.4560939 -2.3321471 -2.1932828 -2.0492339 -1.906103 -1.7676286 -1.6359946 -1.5123609 -1.3972155 -1.2906118 -1.1923285
-2.8548383 -2.9994284 -3.1056397 -3.143161 -3.066114 -2.8065896 -2.2669451 -1.3125123 0.23095438 2.5664067 5.887954 10.30457 15.731824 21.802077 27.883558 33.260732 37.391586 40.064145 41.359445 41.492405 40.661578 38.972616 36.434113 33.017444 28.759538 23.847778 18.623972 13.50192 8.8526998 4.9205921 1.7996136 -0.53755021 -2.1872303 -3.2657489 -3.8750714 -4.0812603 -3.8974228 -3.2591618 -1.9736166 0.38759361 4.6260815 11.471391 19.178214 23.707056 23.366287 18.272395 10.714279 4.6623833 1.1333153 -0.75316174 -1.7465922 -2.2517456 -2.4798302 -2.546029 -2.5165346 -2.4310658 -2.3141947 -2.1813999 -2.0424933 -1.9036589 -1.7687171 -1.6399324 -1.5185427 -1.4051099 -1.2997572
-2.774698 -2.9230243 -3.0409504 -3.1033752 -3.0724677 -2.892428 -2.4831356 -1.7337418 -0.49911117 1.3948753 4.1274319 7.8298854 12.503108 17.933041 23.66589 29.097606 33.652667 36.942654 38.811327 39.274966 38.433492 36.405792 33.309262 29.293176 24.594754 19.552847 14.553995 9.9458843 5.9687931 2.732336 0.23361489 -1.6033901 -2.8868223 -3.7256007 -4.2100427 -4.4011559 -4.3231746 -3.9530015 -3.1975711 -1.8425376 0.5559665 4.8115733 11.654221 19.359008 23.87709 23.52088 18.416844 10.839116 4.7716344 1.2285656 -0.67140934 -1.6772252 -2.1936268 -2.4318181 -2.5070094 -2.4854408 -2.4068917 -2.296003 -2.1683261 -2.0337476 -1.8985263 -1.7665555 -1.6401705 -1.5206761 -1.4086978
-2.6894963 -2.8400711 -2.9674986 -3.0514612 -3.0615181 -2.953033 -2.6622112 -2.1009362 -1.153329 0.32193106 2.4767863 5.4384564 9.2504945 13.803853 18.795432 23.757129 28.160679 31.546325 33.607939 34.213136 33.382554 31.249847 28.023664 23.979193 19.461148 14.849842 10.492294 6.6414475 3.431363 0.88850427 -1.0362495 -2.4319593 -3.3987822 -4.0290578 -4.396974 -4.5536432 -4.5241351 -4.3030518 -3.844373 -3.0380304 -1.6574303 0.74988863 5.0036531 11.84188 19.525522 24.034334 23.662483 18.539155 10.955481 4.8689952 1.3133933 -0.59846648 -1.6150787 -2.1411949 -2.3880526 -2.4709111 -2.4560696 -2.3833726 -2.2775289 -2.1541589 -2.0232175 -1.8910302 -1.7615547 -1.6371874 -1.5192911
-2.5996312 -2.7508139 -2.8852102 -2.9867411 -3.0314994 -2.9847181 -2.7971033 -2.4010042 -1.7077006 -0.60847092 1.0161022 3.2730284 6.2168258 9.7985726 13.825085 17.957198 21.761788 24.8005 26.718694 27.309936 26.546346 24.563916 21.614092 18.019027 14.135737 10.305715 6.7992524 3.7839581 1.3258946 -0.58735077 -2.0161566 -3.0416643 -3.7465519 -4.2037514 -4.4709721 -4.5885406 -4.5783673 -4.4421362 -4.1566022 -3.662572 -2.8404885 -1.4570487 0.94491608 5.1872528 12.017315 19.68225 24.175588 23.790381 18.64774 11.054785 4.9563098 1.388899 -0.53326599 -1.5591851 -2.0936209 -2.3478613 -2.4372231 -2.4280671 -2.3603014 -2.2586985 -2.1389418 -2.0110473 -1.8813993 -1.7540119 -1.6313345
-2.5056786 -2.6557871 -2.7944887 -2.9093337 -2.9819827 -2.9860464 -2.8845276 -2.6272059 -2.1488327 -1.369873 -0.20263278 1.4336648 3.5864879 6.2349463 9.2573328 12.419045 15.394793 17.824053 19.385046 19.868741 19.229547 17.58668 15.178167 12.301775 9.2635331 6.3308255 3.6965677 1.4671945 -0.32674527 -1.7083937 -2.7310062 -3.4589515 -3.9551434 -4.2741006 -4.4588425 -4.5398664 -4.534814 -4.4477137 -4.2666851 -3.9584755 -3.4566629 -2.6365553 -1.261256 1.1289273 5.3574265 12.168749 19.827709 24.301566 23.90314 18.751789 11.138225 5.0339914 1.4563164 -0.47473249 -1.508606 -2.050118 -2.3106114 -2.4054613 -2.4010882 -2.337459 -2.2394046 -2.1226645 -1.9973089 -1.8697741 -1.7441228
-2.4083656 -2.5557796 -2.6961675 -2.820087 -2.9137771 -2.9576873 -2.9247945 -2.7789654 -2.4739598 -1.954193 -1.1590068 -0.032581852 1.4590552 3.305196 5.4278128 7.6695007 9.8022101 11.560852 12.697479 13.043314 12.555541 11.324336 9.537998 7.4301729 5.2316121 3.1337052 1.2674445 -0.29957328 -1.5522476 -2.5111572 -3.2162046 -3.7139668 -4.0494843 -4.2617708 -4.3818231 -4.4319888 -4.4258021 -4.3676093 -4.2513533 -4.0576878 -3.7479389 -3.2518107 -2.4418821 -1.07936 1.2967117 5.5117316 12.303629 19.952849 24.414073 24.001984 18.84447 11.216508 5.1025001 1.5168139 -0.42183514 -1.4624589 -2.0099511 -2.2757092 -2.3751638 -2.3747903 -2.3146094 -2.2195038 -2.1052632 -1.9820059 -1.8562132
-2.3085324 -2.4517794 -2.591427 -2.7204465 -2.8287163 -2.9020641 -2.9212243 -2.8609076 -2.68939 -2.3693269 -1.8608361 -1.1280417 -0.14983746 1.0658857 2.4678853 3.9530256 5.3701762 6.5407758 7.2951049 7.5155931 7.1702734 6.3195597 5.0937578 3.6553153 2.1626353 0.7443915 -0.51303691 -1.565866 -2.4049135 -3.0443972 -3.5113185 -3.8372779 -4.0530925 -4.185762 -4.2570464 -4.2829494 -4.2735469 -4.2327332 -4.1575044 -4.0363257 -3.8458443 -3.5445018 -3.0599562 -2.2633563 -0.91492411 1.4469209 5.6481228 12.430871 20.058868 24.513631 24.090422 18.919059 11.291001 5.1639027 1.5714466 -0.37361147 -1.419924 -1.972435 -2.242594 -2.3458828 -2.3488263 -2.2914936 -2.1988135 -2.0866205 -1.965075
-2.2070877 -2.3449064 -2.4816881 -2.6122834 -2.7293727 -2.822868 -2.8793079 -2.8813892 -2.8079105 -2.6345598 -2.3361435 -1.8908794 -1.2870712 -0.53162785 0.34150565 1.2663778 2.1474772 2.8724415 3.3346249 3.459902 3.2273189 2.6738441 1.881358 0.95322022 -0.0092755509 -0.92370373 -1.7344314 -2.412742 -2.9519448 -3.3605291 -3.6555938 -3.8576696 -3.9871973 -4.0624367 -4.0983977 -4.1063758 -4.093748 -4.0637542 -4.0150272 -3.9406045 -3.8260288 -3.645825 -3.3569178 -2.8858986 -2.1031796 -0.76848515 1.5801259 5.7677108 12.543736 20.156695 24.600941 24.169989 18.985166 11.353652 5.2201882 1.6212405 -0.32917227 -1.3802389 -1.936925 -2.2107278 -2.317175 -2.3228362 -2.2678237 -2.1771079 -2.0665631
-2.1049619 -2.2363411 -2.3684989 -2.4977095 -2.6187468 -2.7245278 -2.8057841 -2.8508689 -2.845872 -2.7753056 -2.6236806 -2.3782756 -2.0331801 -1.5942104 -1.0835501 -0.54222218 -0.028201509 0.3913632 0.65338852 0.71416667 0.56101462 0.21514356 -0.27534709 -0.84874923 -1.443694 -2.0094878 -2.5112287 -2.9302466 -3.2614888 -3.5096046 -3.685034 -3.8008058 -3.8702559 -3.9055905 -3.917081 -3.9126585 -3.897698 -3.8748199 -3.8435557 -3.7997146 -3.7342263 -3.631088 -3.4637109 -3.1882315 -2.7306948 -1.961144 -0.6390643 1.6976736 5.8741019 12.635741 20.248009 24.678491 24.24014 19.052324 11.405676 5.271611 1.6671934 -0.28769175 -1.3426876 -1.9028046 -2.1795823 -2.2885899 -2.2964371 -2.2432751 -2.1541123
-2.0030646 -2.127257 -2.2534281 -2.3789021 -2.4999763 -2.611716 -2.7077924 -2.7804321 -2.8205909 -2.818498 -2.7647366 -2.6519883 -2.4774239 -2.245445 -1.9701002 -1.6761348 -1.3975442 -1.1729296 -1.0380669 -1.0176049 -1.1188488 -1.330163 -1.6245748 -1.9668811 -2.3214223 -2.6581347 -2.9558013 -3.202649 -3.3951092 -3.535698 -3.6307661 -3.6885621 -3.7177807 -3.7265896 -3.7220383 -3.7097238 -3.6935896 -3.6757508 -3.6562461 -3.6326141 -3.5991572 -3.5456889 -3.455395 -3.3011084 -3.0385635 -2.5935336 -1.8358862 -0.52499986 1.8012773 5.969092 12.716808 20.325091 24.748689 24.30226 19.113598 11.457545 5.3183425 1.7101858 -0.24839146 -1.3065847 -1.8694703 -2.1486256 -2.2596573 -2.2692122 -2.2174775
-1.9022468 -2.0187635 -2.1379731 -2.2579568 -2.3760941 -2.4889504 -2.5922051 -2.6806667 -2.7484423 -2.7893406 -2.7975883 -2.7689034 -2.7018761 -2.5994565 -2.4701546 -2.328401 -2.1935197 -2.087035 -2.0286308 -2.0317923 -2.1005975 -2.2288689 -2.4019761 -2.6005103 -2.8044522 -2.9965854 -3.1644928 -3.3011115 -3.4042167 -3.4753235 -3.5184293 -3.5388669 -3.5423985 -3.53457 -3.5202913 -3.5035753 -3.4873678 -3.4734012 -3.4620088 -3.4518322 -3.4393397 -3.4180319 -3.3771337 -3.2994086 -3.1573949 -2.9066282 -2.4727543 -1.725565 -0.42439921 1.8928674 6.052484 12.796778 20.389477 24.812047 24.359645 19.161958 11.510289 5.3621321 1.7509989 -0.21052403 -1.2712582 -1.8363141 -2.1173052 -2.2298731 -2.2406991
-1.8032728 -1.911862 -2.023492 -2.1367783 -2.2498551 -2.3603146 -2.4651816 -2.5609508 -2.6437266 -2.7095061 -2.75464 -2.7764797 -2.7741611 -2.7493951 -2.7070436 -2.6551969 -2.6044982 -2.5666268 -2.5521486 -2.5682742 -2.6172334 -2.6958369 -2.7963655 -2.9084311 -3.0211596 -3.125061 -3.2132112 -3.2816763 -3.3293292 -3.3573007 -3.3682901 -3.3658983 -3.3540712 -3.3366814 -3.3172384 -3.2986944 -3.2833106 -3.2725403 -3.2668905 -3.2657178 -3.2669058 -3.2663472 -3.2571163 -3.2281301 -3.1619364 -3.0309279 -2.7905479 -2.3663887 -1.6282172 -0.33536789 1.9743089 6.1259511 12.869018 20.451938 24.868959 24.413466 19.206644 11.555521 5.4046804 1.7904345 -0.17335425 -1.2360282 -1.8027048 -2.0850312 -2.1986828
-1.7068015 -1.8074174 -1.9111584 -2.0170119 -2.1236302 -2.2292988 -2.331932 -2.4291119 -2.5181935 -2.5964956 -2.6615907 -2.7116898 -2.7460821 -2.7655528 -2.772654 -2.7716899 -2.7683029 -2.7686404 -2.7782316 -2.8008482 -2.8376908 -2.8871661 -2.9453223 -3.0067819 -3.0658667 -3.1176004 -3.158384 -3.1862818 -3.2009726 -3.2034792 -3.1957943 -3.1804969 -3.1604147 -3.1383575 -3.1169215 -3.0983522 -3.0844423 -3.0764436 -3.074965 -3.0798297 -3.0898555 -3.1025119 -3.113382 -3.1153144 -3.0970675 -3.041082 -2.9196832 -2.6882764 -2.2724379 -1.5419342 -0.25611172 2.0472001 6.1930074 12.926759 20.513769 24.921504 24.462784 19.256838 11.594159 5.4460182 1.8293395 -0.13613377 -1.2001854 -1.7679663 -2.0511563
-1.6133765 -1.7061425 -1.8019395 -1.9000106 -1.9993607 -2.09874 -2.1966477 -2.2913645 -2.3810275 -2.4637549 -2.5378269 -2.6019118 -2.6553144 -2.6981969 -2.7317095 -2.7579601 -2.7797752 -2.800255 -2.8221951 -2.8475139 -2.8768492 -2.9094457 -2.9433687 -2.975968 -3.0044511 -3.0264099 -3.0401947 -3.0450893 -3.0413061 -3.0298511 -3.0123208 -2.9906803 -2.9670607 -2.9435904 -2.9222664 -2.9048586 -2.8928364 -2.8873039 -2.8889262 -2.8978293 -2.9134505 -2.9343074 -2.9576423 -2.9788717 -2.990726 -2.9818838 -2.9347358 -2.8215796 -2.5978098 -2.1890042 -1.4649392 -0.18497748 2.1129968 6.2550588 12.979477 20.566807 24.971679 24.508625 19.305314 11.636461 5.4861784 1.8685323 -0.098073357 -1.1629657 -1.7313548
-1.5234245 -1.6085962 -1.6965925 -1.7868321 -1.8785591 -1.9708354 -2.062546 -2.1524236 -2.2390996 -2.3211853 -2.3973833 -2.4666215 -2.5281955 -2.5818888 -2.6280403 -2.6675227 -2.7016138 -2.7317659 -2.7593137 -2.7851908 -2.8097306 -2.8326124 -2.8529648 -2.8695956 -2.8812798 -2.8870313 -2.8863018 -2.8790797 -2.8658933 -2.84774 -2.8259728 -2.8021712 -2.7780183 -2.7551952 -2.7352967 -2.7197662 -2.7098445 -2.7065231 -2.7104922 -2.722071 -2.7411055 -2.766812 -2.7975392 -2.8304042 -2.8607337 -2.8811975 -2.8804357 -2.8408179 -2.734634 -2.51728 -2.1143423 -1.3956106 -0.12046271 2.1731593 6.3114195 13.036549 20.61217 25.019641 24.554008 19.344845 11.683341 5.5268725 1.9088325 -0.058316221 -1.1235234
-1.4372597 -1.5151894 -1.5956752 -1.6782562 -1.7623404 -1.8472009 -1.9319804 -2.0157091 -2.0973395 -2.1757977 -2.2500536 -2.3192013 -2.3825432 -2.4396595 -2.4904472 -2.535112 -2.5741039 -2.6080039 -2.6373802 -2.6626507 -2.6839874 -2.7012905 -2.714239 -2.7224035 -2.725388 -2.7229664 -2.7151835 -2.7024053 -2.6853195 -2.664894 -2.6423111 -2.6188898 -2.5960108 -2.5750495 -2.5573214 -2.544038 -2.536272 -2.5349245 -2.5406886 -2.5540019 -2.5749762 -2.6032918 -2.6380367 -2.6774634 -2.7186192 -2.7567828 -2.7845935 -2.7906739 -2.7573869 -2.657023 -2.4449845 -2.0468679 -1.3324757 -0.061200204 2.2290356 6.3632876 13.090927 20.660289 25.065528 24.599931 19.384582 11.726406 5.5698773 1.9511925 -0.015909221
